ncols        110
nrows        150
xllcorner    782900.000000000000
yllcorner    142850.000000000000
cellsize     10.000000000000
NODATA_value  -9999
      -9999.0000      -9999.0000      -9999.0000      -9999.0000      -9999.0000
      -9999.0000      -9999.0000      -9999.0000      -9999.0000      -9999.0000
      -9999.0000      -9999.0000      -9999.0000      -9999.0000      -9999.0000
      -9999.0000      -9999.0000      -9999.0000      -9999.0000      -9999.0000
      -9999.0000      -9999.0000      -9999.0000      -9999.0000      -9999.0000
      -9999.0000      -9999.0000      -9999.0000      -9999.0000      -9999.0000
      -9999.0000      -9999.0000      -9999.0000      -9999.0000      -9999.0000
      -9999.0000      -9999.0000      -9999.0000      -9999.0000      -9999.0000
      -9999.0000      -9999.0000      -9999.0000      -9999.0000      -9999.0000
      -9999.0000      -9999.0000      -9999.0000      -9999.0000      -9999.0000
      -9999.0000      -9999.0000      -9999.0000      -9999.0000      -9999.0000
      -9999.0000      -9999.0000      -9999.0000      -9999.0000      -9999.0000
      -9999.0000      -9999.0000      -9999.0000      -9999.0000      -9999.0000
      -9999.0000      -9999.0000      -9999.0000      -9999.0000      -9999.0000
      -9999.0000      -9999.0000      -9999.0000      -9999.0000      -9999.0000
      -9999.0000      -9999.0000      -9999.0000      -9999.0000      -9999.0000
      -9999.0000      -9999.0000      -9999.0000      -9999.0000      -9999.0000
      -9999.0000      -9999.0000      -9999.0000      -9999.0000      -9999.0000
      -9999.0000      -9999.0000      -9999.0000      -9999.0000      -9999.0000
      -9999.0000      -9999.0000      -9999.0000      -9999.0000      -9999.0000
      -9999.0000      -9999.0000      -9999.0000      -9999.0000      -9999.0000
      -9999.0000      -9999.0000      -9999.0000      -9999.0000      -9999.0000
      -9999.0000      -9999.0000      -9999.0000      -9999.0000      -9999.0000
      -9999.0000      -9999.0000      -9999.0000      -9999.0000      -9999.0000
      -9999.0000      -9999.0000      -9999.0000      -9999.0000      -9999.0000
      -9999.0000      -9999.0000      -9999.0000      -9999.0000      -9999.0000
      -9999.0000      -9999.0000      -9999.0000      -9999.0000      -9999.0000
      -9999.0000      -9999.0000      -9999.0000      -9999.0000      -9999.0000
      -9999.0000      -9999.0000      -9999.0000      -9999.0000      -9999.0000
      -9999.0000      -9999.0000      -9999.0000      -9999.0000      -9999.0000
      -9999.0000      -9999.0000      -9999.0000      -9999.0000      -9999.0000
      -9999.0000      -9999.0000      -9999.0000      -9999.0000      -9999.0000
      -9999.0000      -9999.0000      -9999.0000      -9999.0000      -9999.0000
      -9999.0000      -9999.0000      -9999.0000      -9999.0000      -9999.0000
      -9999.0000      -9999.0000      -9999.0000      -9999.0000      -9999.0000
      -9999.0000      -9999.0000      -9999.0000      -9999.0000      -9999.0000
      -9999.0000      -9999.0000      -9999.0000      -9999.0000      -9999.0000
      -9999.0000      -9999.0000      -9999.0000      -9999.0000      -9999.0000
      -9999.0000      -9999.0000      -9999.0000      -9999.0000      -9999.0000
      -9999.0000      -9999.0000      -9999.0000      -9999.0000      -9999.0000
      -9999.0000      -9999.0000      -9999.0000      -9999.0000      -9999.0000
      -9999.0000      -9999.0000      -9999.0000      -9999.0000      -9999.0000
      -9999.0000      -9999.0000      -9999.0000      -9999.0000      -9999.0000
      -9999.0000      -9999.0000      -9999.0000      -9999.0000      -9999.0000
      -9999.0000      -9999.0000      -9999.0000      -9999.0000      -9999.0000
      -9999.0000      -9999.0000      -9999.0000      -9999.0000      -9999.0000
      -9999.0000      -9999.0000      -9999.0000      -9999.0000      -9999.0000
      -9999.0000      -9999.0000      -9999.0000      -9999.0000      -9999.0000
      -9999.0000      -9999.0000      -9999.0000      -9999.0000      -9999.0000
      -9999.0000      -9999.0000      -9999.0000      -9999.0000      -9999.0000
      -9999.0000      -9999.0000      -9999.0000      -9999.0000      -9999.0000
      -9999.0000      -9999.0000      -9999.0000      -9999.0000      -9999.0000
      -9999.0000      -9999.0000      -9999.0000      -9999.0000      -9999.0000
      -9999.0000      -9999.0000      -9999.0000      -9999.0000      -9999.0000
      -9999.0000      -9999.0000      -9999.0000      -9999.0000      -9999.0000
      -9999.0000      -9999.0000      -9999.0000      -9999.0000      -9999.0000
      -9999.0000      -9999.0000      -9999.0000      -9999.0000      -9999.0000
      -9999.0000      -9999.0000      -9999.0000      -9999.0000      -9999.0000
      -9999.0000      -9999.0000      -9999.0000      -9999.0000      -9999.0000
      -9999.0000      -9999.0000      -9999.0000      -9999.0000      -9999.0000
      -9999.0000      -9999.0000      -9999.0000      -9999.0000      -9999.0000
      -9999.0000      -9999.0000      -9999.0000      -9999.0000      -9999.0000
      -9999.0000      -9999.0000      -9999.0000      -9999.0000      -9999.0000
      -9999.0000      -9999.0000      -9999.0000      -9999.0000      -9999.0000
      -9999.0000      -9999.0000      -9999.0000      -9999.0000      -9999.0000
      -9999.0000      -9999.0000      -9999.0000      -9999.0000      -9999.0000
      -9999.0000      -9999.0000      -9999.0000      -9999.0000      -9999.0000
      -9999.0000      -9999.0000      -9999.0000      -9999.0000      -9999.0000
      -9999.0000      -9999.0000      -9999.0000      -9999.0000      -9999.0000
      -9999.0000      -9999.0000      -9999.0000      -9999.0000      -9999.0000
      -9999.0000      -9999.0000      -9999.0000      -9999.0000      -9999.0000
      -9999.0000      -9999.0000      -9999.0000      -9999.0000      -9999.0000
      -9999.0000      -9999.0000      -9999.0000      -9999.0000      -9999.0000
      -9999.0000      -9999.0000      -9999.0000      -9999.0000      -9999.0000
      -9999.0000      -9999.0000      -9999.0000      -9999.0000      -9999.0000
      -9999.0000      -9999.0000      -9999.0000      -9999.0000      -9999.0000
      -9999.0000      -9999.0000      -9999.0000      -9999.0000      -9999.0000
      -9999.0000      -9999.0000      -9999.0000      -9999.0000      -9999.0000
      -9999.0000      -9999.0000      -9999.0000      -9999.0000      -9999.0000
      -9999.0000      -9999.0000      -9999.0000      -9999.0000      -9999.0000
      -9999.0000      -9999.0000      -9999.0000      -9999.0000      -9999.0000
      -9999.0000      -9999.0000      -9999.0000      -9999.0000      -9999.0000
      -9999.0000      -9999.0000      -9999.0000      -9999.0000      -9999.0000
      -9999.0000      -9999.0000      -9999.0000      -9999.0000      -9999.0000
      -9999.0000      -9999.0000      -9999.0000      -9999.0000      -9999.0000
      -9999.0000      -9999.0000      -9999.0000      -9999.0000      -9999.0000
      -9999.0000      -9999.0000      -9999.0000      -9999.0000      -9999.0000
      -9999.0000      -9999.0000      -9999.0000      -9999.0000      -9999.0000
      -9999.0000      -9999.0000      -9999.0000      -9999.0000      -9999.0000
      -9999.0000      -9999.0000      -9999.0000      -9999.0000      -9999.0000
      -9999.0000      -9999.0000      -9999.0000      -9999.0000      -9999.0000
      -9999.0000      -9999.0000      -9999.0000      -9999.0000      -9999.0000
      -9999.0000      -9999.0000      -9999.0000      -9999.0000      -9999.0000
      -9999.0000      -9999.0000      -9999.0000      -9999.0000      -9999.0000
      -9999.0000      -9999.0000      -9999.0000      -9999.0000      -9999.0000
      -9999.0000      -9999.0000      -9999.0000      -9999.0000      -9999.0000
      -9999.0000      -9999.0000      -9999.0000      -9999.0000      -9999.0000
      -9999.0000      -9999.0000      -9999.0000      -9999.0000      -9999.0000
      -9999.0000      -9999.0000      -9999.0000      -9999.0000      -9999.0000
      -9999.0000      -9999.0000      -9999.0000      -9999.0000      -9999.0000
      -9999.0000      -9999.0000      -9999.0000      -9999.0000      -9999.0000
      -9999.0000      -9999.0000      -9999.0000      -9999.0000      -9999.0000
      -9999.0000      -9999.0000      -9999.0000      -9999.0000      -9999.0000
      -9999.0000      -9999.0000      -9999.0000      -9999.0000      -9999.0000
      -9999.0000      -9999.0000      -9999.0000      -9999.0000      -9999.0000
      -9999.0000      -9999.0000      -9999.0000      -9999.0000      -9999.0000
      -9999.0000      -9999.0000      -9999.0000      -9999.0000      -9999.0000
      -9999.0000      -9999.0000      -9999.0000      -9999.0000      -9999.0000
      -9999.0000      -9999.0000      -9999.0000      -9999.0000      -9999.0000
      -9999.0000      -9999.0000      -9999.0000      -9999.0000      -9999.0000
      -9999.0000      -9999.0000      -9999.0000      -9999.0000      -9999.0000
      -9999.0000      -9999.0000      -9999.0000      -9999.0000      -9999.0000
      -9999.0000      -9999.0000      -9999.0000      -9999.0000      -9999.0000
      -9999.0000      -9999.0000      -9999.0000      -9999.0000      -9999.0000
      -9999.0000      -9999.0000      -9999.0000      -9999.0000      -9999.0000
      -9999.0000      -9999.0000      -9999.0000      -9999.0000      -9999.0000
      -9999.0000      -9999.0000      -9999.0000      -9999.0000      -9999.0000
      -9999.0000      -9999.0000      -9999.0000      -9999.0000      -9999.0000
      -9999.0000      -9999.0000      -9999.0000      -9999.0000      -9999.0000
      -9999.0000      -9999.0000      -9999.0000      -9999.0000      -9999.0000
      -9999.0000      -9999.0000      -9999.0000      -9999.0000      -9999.0000
      -9999.0000      -9999.0000      -9999.0000      -9999.0000      -9999.0000
      -9999.0000      -9999.0000      -9999.0000      -9999.0000      -9999.0000
      -9999.0000      -9999.0000      -9999.0000      -9999.0000      -9999.0000
      -9999.0000      -9999.0000      -9999.0000      -9999.0000      -9999.0000
      -9999.0000      -9999.0000      -9999.0000      -9999.0000      -9999.0000
      -9999.0000      -9999.0000      -9999.0000      -9999.0000      -9999.0000
      -9999.0000      -9999.0000      -9999.0000      -9999.0000      -9999.0000
      -9999.0000      -9999.0000      -9999.0000      -9999.0000      -9999.0000
      -9999.0000      -9999.0000      -9999.0000      -9999.0000      -9999.0000
      -9999.0000      -9999.0000      -9999.0000      -9999.0000      -9999.0000
      -9999.0000      -9999.0000      -9999.0000      -9999.0000      -9999.0000
      -9999.0000      -9999.0000      -9999.0000      -9999.0000      -9999.0000
      -9999.0000      -9999.0000      -9999.0000      -9999.0000      -9999.0000
      -9999.0000      -9999.0000      -9999.0000      -9999.0000      -9999.0000
      -9999.0000      -9999.0000      -9999.0000      -9999.0000      -9999.0000
      -9999.0000      -9999.0000      -9999.0000      -9999.0000      -9999.0000
      -9999.0000      -9999.0000      -9999.0000      -9999.0000      -9999.0000
      -9999.0000      -9999.0000      -9999.0000      -9999.0000      -9999.0000
      -9999.0000      -9999.0000      -9999.0000      -9999.0000      -9999.0000
      -9999.0000      -9999.0000      -9999.0000      -9999.0000      -9999.0000
      -9999.0000      -9999.0000      -9999.0000      -9999.0000      -9999.0000
      -9999.0000      -9999.0000      -9999.0000      -9999.0000      -9999.0000
      -9999.0000      -9999.0000      -9999.0000      -9999.0000      -9999.0000
      -9999.0000      -9999.0000      -9999.0000      -9999.0000      -9999.0000
      -9999.0000      -9999.0000      -9999.0000      -9999.0000      -9999.0000
      -9999.0000      -9999.0000      -9999.0000      -9999.0000      -9999.0000
      -9999.0000      -9999.0000      -9999.0000      -9999.0000      -9999.0000
      -9999.0000      -9999.0000      -9999.0000      -9999.0000      -9999.0000
      -9999.0000      -9999.0000      -9999.0000      -9999.0000      -9999.0000
      -9999.0000      -9999.0000      -9999.0000      -9999.0000      -9999.0000
      -9999.0000      -9999.0000      -9999.0000      -9999.0000      -9999.0000
      -9999.0000      -9999.0000      -9999.0000      -9999.0000      -9999.0000
      -9999.0000      -9999.0000      -9999.0000      -9999.0000      -9999.0000
      -9999.0000      -9999.0000      -9999.0000      -9999.0000      -9999.0000
      -9999.0000      -9999.0000      -9999.0000      -9999.0000      -9999.0000
      -9999.0000      -9999.0000      -9999.0000      -9999.0000      -9999.0000
      -9999.0000      -9999.0000      -9999.0000      -9999.0000      -9999.0000
      -9999.0000      -9999.0000      -9999.0000      -9999.0000      -9999.0000
      -9999.0000      -9999.0000      -9999.0000      -9999.0000      -9999.0000
      -9999.0000      -9999.0000      -9999.0000      -9999.0000      -9999.0000
      -9999.0000      -9999.0000      -9999.0000      -9999.0000      -9999.0000
      -9999.0000      -9999.0000      -9999.0000      -9999.0000      -9999.0000
      -9999.0000      -9999.0000      -9999.0000      -9999.0000      -9999.0000
      -9999.0000      -9999.0000      -9999.0000      -9999.0000      -9999.0000
      -9999.0000      -9999.0000      -9999.0000      -9999.0000      -9999.0000
      -9999.0000      -9999.0000      -9999.0000      -9999.0000      -9999.0000
      -9999.0000      -9999.0000      -9999.0000      -9999.0000      -9999.0000
      -9999.0000      -9999.0000      -9999.0000      -9999.0000      -9999.0000
      -9999.0000      -9999.0000      -9999.0000      -9999.0000      -9999.0000
      -9999.0000      -9999.0000      -9999.0000      -9999.0000      -9999.0000
      -9999.0000      -9999.0000      -9999.0000      -9999.0000      -9999.0000
      -9999.0000      -9999.0000      -9999.0000      -9999.0000      -9999.0000
      -9999.0000      -9999.0000      -9999.0000      -9999.0000      -9999.0000
      -9999.0000      -9999.0000      -9999.0000      -9999.0000      -9999.0000
      -9999.0000      -9999.0000      -9999.0000      -9999.0000      -9999.0000
      -9999.0000      -9999.0000      -9999.0000      -9999.0000      -9999.0000
      -9999.0000      -9999.0000      -9999.0000      -9999.0000      -9999.0000
      -9999.0000      -9999.0000      -9999.0000      -9999.0000      -9999.0000
      -9999.0000      -9999.0000      -9999.0000      -9999.0000      -9999.0000
      -9999.0000      -9999.0000      -9999.0000      -9999.0000      -9999.0000
      -9999.0000      -9999.0000      -9999.0000      -9999.0000      -9999.0000
      -9999.0000      -9999.0000      -9999.0000      -9999.0000      -9999.0000
      -9999.0000      -9999.0000      -9999.0000      -9999.0000      -9999.0000
      -9999.0000      -9999.0000      -9999.0000      -9999.0000      -9999.0000
      -9999.0000      -9999.0000      -9999.0000      -9999.0000      -9999.0000
      -9999.0000      -9999.0000      -9999.0000      -9999.0000      -9999.0000
      -9999.0000      -9999.0000      -9999.0000      -9999.0000      -9999.0000
      -9999.0000      -9999.0000      -9999.0000      -9999.0000      -9999.0000
      -9999.0000      -9999.0000      -9999.0000      -9999.0000      -9999.0000
      -9999.0000      -9999.0000      -9999.0000      -9999.0000      -9999.0000
      -9999.0000      -9999.0000      -9999.0000      -9999.0000      -9999.0000
      -9999.0000      -9999.0000      -9999.0000      -9999.0000      -9999.0000
      -9999.0000      -9999.0000      -9999.0000      -9999.0000      -9999.0000
      -9999.0000      -9999.0000      -9999.0000      -9999.0000      -9999.0000
      -9999.0000      -9999.0000      -9999.0000      -9999.0000      -9999.0000
      -9999.0000      -9999.0000      -9999.0000      -9999.0000      -9999.0000
      -9999.0000      -9999.0000      -9999.0000      -9999.0000      -9999.0000
      -9999.0000      -9999.0000      -9999.0000      -9999.0000      -9999.0000
      -9999.0000      -9999.0000      -9999.0000      -9999.0000      -9999.0000
      -9999.0000      -9999.0000      -9999.0000      -9999.0000      -9999.0000
      -9999.0000      -9999.0000      -9999.0000      -9999.0000      -9999.0000
      -9999.0000      -9999.0000      -9999.0000      -9999.0000      -9999.0000
      -9999.0000      -9999.0000      -9999.0000      -9999.0000      -9999.0000
      -9999.0000      -9999.0000      -9999.0000      -9999.0000      -9999.0000
      -9999.0000      -9999.0000      -9999.0000      -9999.0000      -9999.0000
      -9999.0000      -9999.0000      -9999.0000      -9999.0000      -9999.0000
      -9999.0000      -9999.0000      -9999.0000      -9999.0000      -9999.0000
      -9999.0000      -9999.0000      -9999.0000      -9999.0000      -9999.0000
      -9999.0000      -9999.0000      -9999.0000      -9999.0000      -9999.0000
      -9999.0000      -9999.0000      -9999.0000      -9999.0000      -9999.0000
      -9999.0000      -9999.0000      -9999.0000      -9999.0000      -9999.0000
      -9999.0000      -9999.0000      -9999.0000      -9999.0000      -9999.0000
      -9999.0000      -9999.0000      -9999.0000      -9999.0000      -9999.0000
      -9999.0000      -9999.0000      -9999.0000      -9999.0000      -9999.0000
      -9999.0000      -9999.0000      -9999.0000      -9999.0000      -9999.0000
      -9999.0000      -9999.0000      -9999.0000      -9999.0000      -9999.0000
      -9999.0000      -9999.0000      -9999.0000      -9999.0000      -9999.0000
      -9999.0000      -9999.0000      -9999.0000      -9999.0000      -9999.0000
      -9999.0000      -9999.0000      -9999.0000      -9999.0000      -9999.0000
      -9999.0000      -9999.0000      -9999.0000      -9999.0000      -9999.0000
      -9999.0000      -9999.0000      -9999.0000      -9999.0000      -9999.0000
      -9999.0000      -9999.0000      -9999.0000      -9999.0000      -9999.0000
      -9999.0000      -9999.0000      -9999.0000      -9999.0000      -9999.0000
      -9999.0000      -9999.0000      -9999.0000      -9999.0000      -9999.0000
      -9999.0000      -9999.0000      -9999.0000      -9999.0000      -9999.0000
      -9999.0000      -9999.0000      -9999.0000      -9999.0000      -9999.0000
      -9999.0000      -9999.0000      -9999.0000      -9999.0000      -9999.0000
      -9999.0000      -9999.0000      -9999.0000      -9999.0000      -9999.0000
      -9999.0000      -9999.0000      -9999.0000      -9999.0000      -9999.0000
      -9999.0000      -9999.0000      -9999.0000      -9999.0000      -9999.0000
      -9999.0000      -9999.0000      -9999.0000      -9999.0000      -9999.0000
      -9999.0000      -9999.0000      -9999.0000      -9999.0000      -9999.0000
      -9999.0000      -9999.0000      -9999.0000      -9999.0000      -9999.0000
      -9999.0000      -9999.0000      -9999.0000      -9999.0000      -9999.0000
      -9999.0000      -9999.0000      -9999.0000      -9999.0000      -9999.0000
      -9999.0000      -9999.0000      -9999.0000      -9999.0000      -9999.0000
      -9999.0000      -9999.0000      -9999.0000      -9999.0000      -9999.0000
      -9999.0000      -9999.0000      -9999.0000      -9999.0000      -9999.0000
      -9999.0000      -9999.0000      -9999.0000      -9999.0000      -9999.0000
      -9999.0000      -9999.0000      -9999.0000      -9999.0000      -9999.0000
      -9999.0000      -9999.0000      -9999.0000      -9999.0000      -9999.0000
      -9999.0000      -9999.0000      -9999.0000      -9999.0000      -9999.0000
      -9999.0000      -9999.0000      -9999.0000      -9999.0000      -9999.0000
      -9999.0000      -9999.0000      -9999.0000      -9999.0000      -9999.0000
      -9999.0000      -9999.0000      -9999.0000      -9999.0000      -9999.0000
      -9999.0000      -9999.0000      -9999.0000      -9999.0000      -9999.0000
      -9999.0000      -9999.0000      -9999.0000      -9999.0000      -9999.0000
      -9999.0000      -9999.0000      -9999.0000      -9999.0000      -9999.0000
      -9999.0000      -9999.0000      -9999.0000      -9999.0000      -9999.0000
      -9999.0000      -9999.0000      -9999.0000      -9999.0000      -9999.0000
      -9999.0000      -9999.0000      -9999.0000      -9999.0000      -9999.0000
      -9999.0000      -9999.0000      -9999.0000      -9999.0000      -9999.0000
      -9999.0000      -9999.0000      -9999.0000      -9999.0000      -9999.0000
      -9999.0000      -9999.0000      -9999.0000      -9999.0000      -9999.0000
      -9999.0000      -9999.0000      -9999.0000      -9999.0000      -9999.0000
      -9999.0000      -9999.0000      -9999.0000      -9999.0000      -9999.0000
      -9999.0000      -9999.0000      -9999.0000      -9999.0000      -9999.0000
      -9999.0000      -9999.0000      -9999.0000      -9999.0000      -9999.0000
      -9999.0000      -9999.0000      -9999.0000      -9999.0000      -9999.0000
      -9999.0000      -9999.0000      -9999.0000      -9999.0000      -9999.0000
      -9999.0000      -9999.0000      -9999.0000      -9999.0000      -9999.0000
      -9999.0000      -9999.0000      -9999.0000      -9999.0000      -9999.0000
      -9999.0000      -9999.0000      -9999.0000      -9999.0000      -9999.0000
      -9999.0000      -9999.0000      -9999.0000      -9999.0000      -9999.0000
      -9999.0000      -9999.0000      -9999.0000      -9999.0000      -9999.0000
      -9999.0000      -9999.0000      -9999.0000      -9999.0000      -9999.0000
      -9999.0000      -9999.0000      -9999.0000      -9999.0000      -9999.0000
      -9999.0000      -9999.0000      -9999.0000      -9999.0000      -9999.0000
      -9999.0000      -9999.0000      -9999.0000      -9999.0000      -9999.0000
      -9999.0000      -9999.0000      -9999.0000      -9999.0000      -9999.0000
      -9999.0000      -9999.0000      -9999.0000      -9999.0000      -9999.0000
      -9999.0000      -9999.0000      -9999.0000      -9999.0000      -9999.0000
      -9999.0000      -9999.0000      -9999.0000      -9999.0000      -9999.0000
      -9999.0000      -9999.0000      -9999.0000      -9999.0000      -9999.0000
      -9999.0000      -9999.0000      -9999.0000      -9999.0000      -9999.0000
      -9999.0000      -9999.0000      -9999.0000      -9999.0000      -9999.0000
      -9999.0000      -9999.0000      -9999.0000      -9999.0000      -9999.0000
      -9999.0000      -9999.0000      -9999.0000      -9999.0000      -9999.0000
      -9999.0000      -9999.0000      -9999.0000      -9999.0000      -9999.0000
      -9999.0000      -9999.0000      -9999.0000      -9999.0000      -9999.0000
      -9999.0000      -9999.0000      -9999.0000      -9999.0000      -9999.0000
      -9999.0000      -9999.0000      -9999.0000      -9999.0000      -9999.0000
      -9999.0000      -9999.0000      -9999.0000      -9999.0000      -9999.0000
      -9999.0000      -9999.0000      -9999.0000      -9999.0000      -9999.0000
      -9999.0000      -9999.0000      -9999.0000      -9999.0000      -9999.0000
      -9999.0000      -9999.0000      -9999.0000      -9999.0000      -9999.0000
      -9999.0000      -9999.0000      -9999.0000      -9999.0000      -9999.0000
      -9999.0000      -9999.0000      -9999.0000      -9999.0000      -9999.0000
      -9999.0000      -9999.0000      -9999.0000      -9999.0000      -9999.0000
      -9999.0000      -9999.0000      -9999.0000      -9999.0000      -9999.0000
      -9999.0000      -9999.0000      -9999.0000      -9999.0000      -9999.0000
      -9999.0000      -9999.0000      -9999.0000      -9999.0000      -9999.0000
      -9999.0000      -9999.0000      -9999.0000      -9999.0000      -9999.0000
      -9999.0000      -9999.0000      -9999.0000      -9999.0000      -9999.0000
      -9999.0000      -9999.0000      -9999.0000      -9999.0000      -9999.0000
      -9999.0000      -9999.0000      -9999.0000      -9999.0000      -9999.0000
      -9999.0000      -9999.0000      -9999.0000      -9999.0000      -9999.0000
      -9999.0000      -9999.0000      -9999.0000      -9999.0000      -9999.0000
      -9999.0000      -9999.0000      -9999.0000      -9999.0000      -9999.0000
      -9999.0000      -9999.0000      -9999.0000      -9999.0000      -9999.0000
      -9999.0000      -9999.0000      -9999.0000      -9999.0000      -9999.0000
      -9999.0000      -9999.0000      -9999.0000      -9999.0000      -9999.0000
      -9999.0000      -9999.0000      -9999.0000      -9999.0000      -9999.0000
      -9999.0000      -9999.0000      -9999.0000      -9999.0000      -9999.0000
      -9999.0000      -9999.0000      -9999.0000      -9999.0000      -9999.0000
      -9999.0000      -9999.0000      -9999.0000      -9999.0000      -9999.0000
      -9999.0000      -9999.0000      -9999.0000      -9999.0000      -9999.0000
      -9999.0000      -9999.0000      -9999.0000      -9999.0000      -9999.0000
      -9999.0000      -9999.0000      -9999.0000      -9999.0000      -9999.0000
      -9999.0000      -9999.0000      -9999.0000      -9999.0000      -9999.0000
      -9999.0000      -9999.0000      -9999.0000      -9999.0000      -9999.0000
      -9999.0000      -9999.0000      -9999.0000      -9999.0000      -9999.0000
      -9999.0000      -9999.0000      -9999.0000      -9999.0000      -9999.0000
      -9999.0000      -9999.0000      -9999.0000      -9999.0000      -9999.0000
      -9999.0000      -9999.0000      -9999.0000      -9999.0000      -9999.0000
      -9999.0000      -9999.0000      -9999.0000      -9999.0000      -9999.0000
      -9999.0000      -9999.0000      -9999.0000      -9999.0000      -9999.0000
      -9999.0000      -9999.0000      -9999.0000      -9999.0000      -9999.0000
      -9999.0000      -9999.0000      -9999.0000      -9999.0000      -9999.0000
      -9999.0000      -9999.0000      -9999.0000      -9999.0000      -9999.0000
      -9999.0000      -9999.0000      -9999.0000      -9999.0000      -9999.0000
      -9999.0000      -9999.0000      -9999.0000      -9999.0000      -9999.0000
      -9999.0000      -9999.0000      -9999.0000      -9999.0000      -9999.0000
      -9999.0000      -9999.0000      -9999.0000      -9999.0000      -9999.0000
      -9999.0000      -9999.0000      -9999.0000      -9999.0000      -9999.0000
      -9999.0000      -9999.0000      -9999.0000      -9999.0000      -9999.0000
      -9999.0000      -9999.0000      -9999.0000      -9999.0000      -9999.0000
      -9999.0000      -9999.0000      -9999.0000      -9999.0000      -9999.0000
      -9999.0000      -9999.0000      -9999.0000      -9999.0000      -9999.0000
      -9999.0000      -9999.0000      -9999.0000      -9999.0000      -9999.0000
      -9999.0000      -9999.0000      -9999.0000      -9999.0000      -9999.0000
      -9999.0000      -9999.0000      -9999.0000      -9999.0000      -9999.0000
      -9999.0000      -9999.0000      -9999.0000      -9999.0000      -9999.0000
      -9999.0000      -9999.0000      -9999.0000      -9999.0000      -9999.0000
      -9999.0000      -9999.0000      -9999.0000      -9999.0000      -9999.0000
      -9999.0000      -9999.0000      -9999.0000      -9999.0000      -9999.0000
      -9999.0000      -9999.0000      -9999.0000      -9999.0000      -9999.0000
      -9999.0000      -9999.0000      -9999.0000      -9999.0000      -9999.0000
      -9999.0000      -9999.0000      -9999.0000      -9999.0000      -9999.0000
      -9999.0000      -9999.0000      -9999.0000      -9999.0000      -9999.0000
      -9999.0000      -9999.0000      -9999.0000      -9999.0000      -9999.0000
      -9999.0000      -9999.0000      -9999.0000      -9999.0000      -9999.0000
      -9999.0000      -9999.0000      -9999.0000      -9999.0000      -9999.0000
      -9999.0000      -9999.0000      -9999.0000      -9999.0000      -9999.0000
      -9999.0000      -9999.0000      -9999.0000      -9999.0000      -9999.0000
      -9999.0000      -9999.0000      -9999.0000      -9999.0000      -9999.0000
      -9999.0000      -9999.0000      -9999.0000      -9999.0000      -9999.0000
      -9999.0000      -9999.0000      -9999.0000      -9999.0000      -9999.0000
      -9999.0000      -9999.0000      -9999.0000      -9999.0000      -9999.0000
      -9999.0000      -9999.0000      -9999.0000      -9999.0000      -9999.0000
      -9999.0000      -9999.0000      -9999.0000      -9999.0000      -9999.0000
      -9999.0000      -9999.0000      -9999.0000      -9999.0000      -9999.0000
      -9999.0000      -9999.0000      -9999.0000      -9999.0000      -9999.0000
      -9999.0000      -9999.0000      -9999.0000      -9999.0000      -9999.0000
      -9999.0000      -9999.0000      -9999.0000      -9999.0000      -9999.0000
      -9999.0000      -9999.0000      -9999.0000      -9999.0000      -9999.0000
      -9999.0000      -9999.0000      -9999.0000      -9999.0000      -9999.0000
      -9999.0000      -9999.0000      -9999.0000      -9999.0000      -9999.0000
      -9999.0000      -9999.0000      -9999.0000      -9999.0000      -9999.0000
      -9999.0000      -9999.0000      -9999.0000      -9999.0000      -9999.0000
      -9999.0000      -9999.0000      -9999.0000      -9999.0000      -9999.0000
      -9999.0000      -9999.0000      -9999.0000      -9999.0000      -9999.0000
      -9999.0000      -9999.0000      -9999.0000      -9999.0000      -9999.0000
      -9999.0000      -9999.0000      -9999.0000      -9999.0000      -9999.0000
      -9999.0000      -9999.0000      -9999.0000      -9999.0000      -9999.0000
      -9999.0000      -9999.0000      -9999.0000      -9999.0000      -9999.0000
      -9999.0000      -9999.0000      -9999.0000      -9999.0000      -9999.0000
      -9999.0000      -9999.0000      -9999.0000      -9999.0000      -9999.0000
      -9999.0000      -9999.0000      -9999.0000      -9999.0000      -9999.0000
      -9999.0000      -9999.0000      -9999.0000      -9999.0000      -9999.0000
      -9999.0000      -9999.0000      -9999.0000      -9999.0000      -9999.0000
      -9999.0000      -9999.0000      -9999.0000      -9999.0000      -9999.0000
      -9999.0000      -9999.0000      -9999.0000      -9999.0000      -9999.0000
      -9999.0000      -9999.0000      -9999.0000      -9999.0000      -9999.0000
      -9999.0000      -9999.0000      -9999.0000      -9999.0000      -9999.0000
      -9999.0000      -9999.0000      -9999.0000      -9999.0000      -9999.0000
      -9999.0000      -9999.0000      -9999.0000      -9999.0000      -9999.0000
      -9999.0000      -9999.0000      -9999.0000      -9999.0000      -9999.0000
      -9999.0000      -9999.0000      -9999.0000      -9999.0000      -9999.0000
      -9999.0000      -9999.0000      -9999.0000      -9999.0000      -9999.0000
      -9999.0000      -9999.0000      -9999.0000      -9999.0000      -9999.0000
      -9999.0000      -9999.0000      -9999.0000      -9999.0000      -9999.0000
      -9999.0000      -9999.0000      -9999.0000      -9999.0000      -9999.0000
      -9999.0000      -9999.0000      -9999.0000      -9999.0000      -9999.0000
      -9999.0000      -9999.0000      -9999.0000      -9999.0000      -9999.0000
      -9999.0000      -9999.0000      -9999.0000      -9999.0000      -9999.0000
      -9999.0000      -9999.0000      -9999.0000      -9999.0000      -9999.0000
      -9999.0000      -9999.0000      -9999.0000      -9999.0000      -9999.0000
      -9999.0000      -9999.0000      -9999.0000      -9999.0000      -9999.0000
      -9999.0000      -9999.0000      -9999.0000      -9999.0000      -9999.0000
      -9999.0000      -9999.0000      -9999.0000      -9999.0000      -9999.0000
      -9999.0000      -9999.0000      -9999.0000      -9999.0000      -9999.0000
      -9999.0000      -9999.0000      -9999.0000      -9999.0000      -9999.0000
      -9999.0000      -9999.0000      -9999.0000      -9999.0000      -9999.0000
      -9999.0000      -9999.0000      -9999.0000      -9999.0000      -9999.0000
      -9999.0000      -9999.0000      -9999.0000      -9999.0000      -9999.0000
      -9999.0000      -9999.0000      -9999.0000      -9999.0000      -9999.0000
      -9999.0000      -9999.0000      -9999.0000      -9999.0000      -9999.0000
      -9999.0000      -9999.0000      -9999.0000      -9999.0000      -9999.0000
      -9999.0000      -9999.0000      -9999.0000      -9999.0000      -9999.0000
      -9999.0000      -9999.0000      -9999.0000      -9999.0000      -9999.0000
      -9999.0000      -9999.0000      -9999.0000      -9999.0000      -9999.0000
      -9999.0000      -9999.0000      -9999.0000      -9999.0000      -9999.0000
      -9999.0000      -9999.0000      -9999.0000      -9999.0000      -9999.0000
      -9999.0000      -9999.0000      -9999.0000      -9999.0000      -9999.0000
      -9999.0000      -9999.0000      -9999.0000      -9999.0000      -9999.0000
      -9999.0000      -9999.0000      -9999.0000      -9999.0000      -9999.0000
      -9999.0000      -9999.0000      -9999.0000      -9999.0000      -9999.0000
      -9999.0000      -9999.0000      -9999.0000      -9999.0000      -9999.0000
      -9999.0000      -9999.0000      -9999.0000      -9999.0000      -9999.0000
      -9999.0000      -9999.0000      -9999.0000      -9999.0000      -9999.0000
      -9999.0000      -9999.0000      -9999.0000      -9999.0000      -9999.0000
      -9999.0000      -9999.0000      -9999.0000      -9999.0000      -9999.0000
      -9999.0000      -9999.0000      -9999.0000      -9999.0000      -9999.0000
      -9999.0000      -9999.0000      -9999.0000      -9999.0000      -9999.0000
      -9999.0000      -9999.0000      -9999.0000      -9999.0000      -9999.0000
      -9999.0000      -9999.0000      -9999.0000      -9999.0000      -9999.0000
      -9999.0000      -9999.0000      -9999.0000      -9999.0000      -9999.0000
      -9999.0000      -9999.0000      -9999.0000      -9999.0000      -9999.0000
      -9999.0000      -9999.0000      -9999.0000      -9999.0000      -9999.0000
      -9999.0000      -9999.0000      -9999.0000      -9999.0000      -9999.0000
      -9999.0000      -9999.0000      -9999.0000      -9999.0000      -9999.0000
      -9999.0000      -9999.0000      -9999.0000      -9999.0000      -9999.0000
      -9999.0000      -9999.0000      -9999.0000      -9999.0000      -9999.0000
      -9999.0000      -9999.0000      -9999.0000      -9999.0000      -9999.0000
      -9999.0000      -9999.0000      -9999.0000      -9999.0000      -9999.0000
      -9999.0000      -9999.0000      -9999.0000      -9999.0000      -9999.0000
      -9999.0000      -9999.0000      -9999.0000      -9999.0000      -9999.0000
      -9999.0000      -9999.0000      -9999.0000      -9999.0000      -9999.0000
      -9999.0000      -9999.0000      -9999.0000      -9999.0000      -9999.0000
      -9999.0000      -9999.0000      -9999.0000      -9999.0000      -9999.0000
      -9999.0000      -9999.0000      -9999.0000      -9999.0000      -9999.0000
      -9999.0000      -9999.0000      -9999.0000      -9999.0000      -9999.0000
      -9999.0000      -9999.0000      -9999.0000      -9999.0000      -9999.0000
      -9999.0000      -9999.0000      -9999.0000      -9999.0000      -9999.0000
      -9999.0000      -9999.0000      -9999.0000      -9999.0000      -9999.0000
      -9999.0000      -9999.0000      -9999.0000      -9999.0000      -9999.0000
      -9999.0000      -9999.0000      -9999.0000      -9999.0000      -9999.0000
      -9999.0000      -9999.0000      -9999.0000      -9999.0000      -9999.0000
      -9999.0000      -9999.0000      -9999.0000      -9999.0000      -9999.0000
      -9999.0000      -9999.0000      -9999.0000      -9999.0000      -9999.0000
      -9999.0000      -9999.0000      -9999.0000      -9999.0000      -9999.0000
      -9999.0000      -9999.0000      -9999.0000      -9999.0000      -9999.0000
      -9999.0000      -9999.0000      -9999.0000      -9999.0000      -9999.0000
      -9999.0000      -9999.0000      -9999.0000      -9999.0000      -9999.0000
      -9999.0000      -9999.0000      -9999.0000      -9999.0000      -9999.0000
      -9999.0000      -9999.0000      -9999.0000      -9999.0000      -9999.0000
      -9999.0000      -9999.0000      -9999.0000      -9999.0000      -9999.0000
      -9999.0000      -9999.0000      -9999.0000      -9999.0000      -9999.0000
      -9999.0000      -9999.0000      -9999.0000      -9999.0000      -9999.0000
      -9999.0000      -9999.0000      -9999.0000      -9999.0000      -9999.0000
      -9999.0000      -9999.0000      -9999.0000      -9999.0000      -9999.0000
      -9999.0000      -9999.0000      -9999.0000      -9999.0000      -9999.0000
      -9999.0000      -9999.0000      -9999.0000      -9999.0000      -9999.0000
      -9999.0000      -9999.0000      -9999.0000      -9999.0000      -9999.0000
      -9999.0000      -9999.0000      -9999.0000      -9999.0000      -9999.0000
      -9999.0000      -9999.0000      -9999.0000      -9999.0000      -9999.0000
      -9999.0000      -9999.0000      -9999.0000      -9999.0000      -9999.0000
      -9999.0000      -9999.0000      -9999.0000      -9999.0000      -9999.0000
      -9999.0000      -9999.0000      -9999.0000      -9999.0000      -9999.0000
      -9999.0000      -9999.0000      -9999.0000      -9999.0000      -9999.0000
      -9999.0000      -9999.0000      -9999.0000      -9999.0000      -9999.0000
      -9999.0000      -9999.0000      -9999.0000      -9999.0000      -9999.0000
      -9999.0000      -9999.0000      -9999.0000      -9999.0000      -9999.0000
      -9999.0000      -9999.0000      -9999.0000      -9999.0000      -9999.0000
      -9999.0000      -9999.0000      -9999.0000      -9999.0000      -9999.0000
      -9999.0000      -9999.0000      -9999.0000      -9999.0000      -9999.0000
      -9999.0000      -9999.0000      -9999.0000      -9999.0000      -9999.0000
      -9999.0000      -9999.0000      -9999.0000      -9999.0000      -9999.0000
      -9999.0000      -9999.0000      -9999.0000      -9999.0000      -9999.0000
      -9999.0000      -9999.0000      -9999.0000      -9999.0000      -9999.0000
      -9999.0000      -9999.0000      -9999.0000      -9999.0000      -9999.0000
      -9999.0000      -9999.0000      -9999.0000      -9999.0000      -9999.0000
      -9999.0000      -9999.0000      -9999.0000      -9999.0000      -9999.0000
      -9999.0000      -9999.0000      -9999.0000      -9999.0000      -9999.0000
      -9999.0000      -9999.0000      -9999.0000      -9999.0000      -9999.0000
      -9999.0000      -9999.0000      -9999.0000      -9999.0000      -9999.0000
      -9999.0000      -9999.0000      -9999.0000      -9999.0000      -9999.0000
      -9999.0000      -9999.0000      -9999.0000      -9999.0000      -9999.0000
      -9999.0000      -9999.0000      -9999.0000      -9999.0000      -9999.0000
      -9999.0000      -9999.0000      -9999.0000      -9999.0000      -9999.0000
      -9999.0000      -9999.0000      -9999.0000      -9999.0000      -9999.0000
      -9999.0000      -9999.0000      -9999.0000      -9999.0000      -9999.0000
      -9999.0000      -9999.0000      -9999.0000      -9999.0000      -9999.0000
      -9999.0000      -9999.0000      -9999.0000      -9999.0000      -9999.0000
      -9999.0000      -9999.0000      -9999.0000      -9999.0000      -9999.0000
      -9999.0000      -9999.0000      -9999.0000      -9999.0000      -9999.0000
      -9999.0000      -9999.0000      -9999.0000      -9999.0000      -9999.0000
      -9999.0000      -9999.0000      -9999.0000      -9999.0000      -9999.0000
      -9999.0000      -9999.0000      -9999.0000      -9999.0000      -9999.0000
      -9999.0000      -9999.0000      -9999.0000      -9999.0000      -9999.0000
      -9999.0000      -9999.0000      -9999.0000      -9999.0000      -9999.0000
      -9999.0000      -9999.0000      -9999.0000      -9999.0000      -9999.0000
      -9999.0000      -9999.0000      -9999.0000      -9999.0000      -9999.0000
      -9999.0000      -9999.0000      -9999.0000      -9999.0000      -9999.0000
      -9999.0000      -9999.0000      -9999.0000      -9999.0000      -9999.0000
      -9999.0000      -9999.0000      -9999.0000      -9999.0000      -9999.0000
      -9999.0000      -9999.0000      -9999.0000      -9999.0000      -9999.0000
      -9999.0000      -9999.0000      -9999.0000      -9999.0000      -9999.0000
      -9999.0000      -9999.0000      -9999.0000      -9999.0000      -9999.0000
      -9999.0000      -9999.0000      -9999.0000      -9999.0000      -9999.0000
      -9999.0000      -9999.0000      -9999.0000      -9999.0000      -9999.0000
      -9999.0000      -9999.0000      -9999.0000      -9999.0000      -9999.0000
      -9999.0000      -9999.0000      -9999.0000      -9999.0000      -9999.0000
      -9999.0000      -9999.0000      -9999.0000      -9999.0000      -9999.0000
      -9999.0000      -9999.0000      -9999.0000      -9999.0000      -9999.0000
      -9999.0000      -9999.0000      -9999.0000      -9999.0000      -9999.0000
      -9999.0000      -9999.0000      -9999.0000      -9999.0000      -9999.0000
      -9999.0000      -9999.0000      -9999.0000      -9999.0000      -9999.0000
      -9999.0000      -9999.0000      -9999.0000      -9999.0000      -9999.0000
      -9999.0000      -9999.0000      -9999.0000      -9999.0000      -9999.0000
      -9999.0000      -9999.0000      -9999.0000      -9999.0000      -9999.0000
      -9999.0000      -9999.0000      -9999.0000      -9999.0000      -9999.0000
      -9999.0000      -9999.0000      -9999.0000      -9999.0000      -9999.0000
      -9999.0000      -9999.0000      -9999.0000      -9999.0000      -9999.0000
      -9999.0000      -9999.0000      -9999.0000      -9999.0000      -9999.0000
      -9999.0000      -9999.0000      -9999.0000      -9999.0000      -9999.0000
      -9999.0000      -9999.0000      -9999.0000      -9999.0000      -9999.0000
      -9999.0000      -9999.0000      -9999.0000      -9999.0000      -9999.0000
      -9999.0000      -9999.0000      -9999.0000      -9999.0000      -9999.0000
      -9999.0000      -9999.0000      -9999.0000      -9999.0000      -9999.0000
      -9999.0000      -9999.0000      -9999.0000      -9999.0000      -9999.0000
      -9999.0000      -9999.0000      -9999.0000      -9999.0000      -9999.0000
      -9999.0000      -9999.0000      -9999.0000      -9999.0000      -9999.0000
      -9999.0000      -9999.0000      -9999.0000      -9999.0000      -9999.0000
      -9999.0000      -9999.0000      -9999.0000      -9999.0000      -9999.0000
      -9999.0000      -9999.0000      -9999.0000      -9999.0000      -9999.0000
      -9999.0000      -9999.0000      -9999.0000      -9999.0000      -9999.0000
      -9999.0000      -9999.0000      -9999.0000      -9999.0000      -9999.0000
      -9999.0000      -9999.0000      -9999.0000      -9999.0000      -9999.0000
      -9999.0000      -9999.0000      -9999.0000      -9999.0000      -9999.0000
      -9999.0000      -9999.0000      -9999.0000      -9999.0000      -9999.0000
      -9999.0000      -9999.0000      -9999.0000      -9999.0000      -9999.0000
      -9999.0000      -9999.0000      -9999.0000      -9999.0000      -9999.0000
      -9999.0000      -9999.0000      -9999.0000      -9999.0000      -9999.0000
      -9999.0000      -9999.0000      -9999.0000      -9999.0000      -9999.0000
      -9999.0000      -9999.0000      -9999.0000      -9999.0000      -9999.0000
      -9999.0000      -9999.0000      -9999.0000      -9999.0000      -9999.0000
      -9999.0000      -9999.0000      -9999.0000      -9999.0000      -9999.0000
      -9999.0000      -9999.0000      -9999.0000      -9999.0000      -9999.0000
      -9999.0000      -9999.0000      -9999.0000      -9999.0000      -9999.0000
      -9999.0000      -9999.0000      -9999.0000      -9999.0000      -9999.0000
      -9999.0000      -9999.0000      -9999.0000      -9999.0000      -9999.0000
      -9999.0000      -9999.0000      -9999.0000      -9999.0000      -9999.0000
      -9999.0000      -9999.0000      -9999.0000      -9999.0000      -9999.0000
      -9999.0000      -9999.0000      -9999.0000      -9999.0000      -9999.0000
      -9999.0000      -9999.0000      -9999.0000      -9999.0000      -9999.0000
      -9999.0000      -9999.0000      -9999.0000      -9999.0000      -9999.0000
      -9999.0000      -9999.0000      -9999.0000      -9999.0000      -9999.0000
      -9999.0000      -9999.0000      -9999.0000      -9999.0000      -9999.0000
      -9999.0000      -9999.0000      -9999.0000      -9999.0000      -9999.0000
      -9999.0000      -9999.0000      -9999.0000      -9999.0000      -9999.0000
      -9999.0000      -9999.0000      -9999.0000      -9999.0000      -9999.0000
      -9999.0000      -9999.0000      -9999.0000      -9999.0000      -9999.0000
      -9999.0000      -9999.0000      -9999.0000      -9999.0000      -9999.0000
      -9999.0000      -9999.0000      -9999.0000      -9999.0000      -9999.0000
      -9999.0000      -9999.0000      -9999.0000      -9999.0000      -9999.0000
      -9999.0000      -9999.0000      -9999.0000      -9999.0000      -9999.0000
      -9999.0000      -9999.0000      -9999.0000      -9999.0000      -9999.0000
      -9999.0000      -9999.0000      -9999.0000      -9999.0000      -9999.0000
      -9999.0000      -9999.0000      -9999.0000      -9999.0000      -9999.0000
      -9999.0000      -9999.0000      -9999.0000      -9999.0000      -9999.0000
      -9999.0000      -9999.0000      -9999.0000      -9999.0000      -9999.0000
      -9999.0000      -9999.0000      -9999.0000      -9999.0000      -9999.0000
      -9999.0000      -9999.0000      -9999.0000      -9999.0000      -9999.0000
      -9999.0000      -9999.0000      -9999.0000      -9999.0000      -9999.0000
      -9999.0000      -9999.0000      -9999.0000      -9999.0000      -9999.0000
      -9999.0000      -9999.0000      -9999.0000      -9999.0000      -9999.0000
      -9999.0000      -9999.0000      -9999.0000      -9999.0000      -9999.0000
      -9999.0000      -9999.0000      -9999.0000      -9999.0000      -9999.0000
      -9999.0000      -9999.0000      -9999.0000      -9999.0000      -9999.0000
      -9999.0000      -9999.0000      -9999.0000      -9999.0000      -9999.0000
      -9999.0000      -9999.0000      -9999.0000      -9999.0000      -9999.0000
      -9999.0000      -9999.0000      -9999.0000      -9999.0000      -9999.0000
      -9999.0000      -9999.0000      -9999.0000      -9999.0000      -9999.0000
      -9999.0000      -9999.0000      -9999.0000      -9999.0000      -9999.0000
      -9999.0000      -9999.0000      -9999.0000      -9999.0000      -9999.0000
      -9999.0000      -9999.0000      -9999.0000      -9999.0000      -9999.0000
      -9999.0000      -9999.0000      -9999.0000      -9999.0000      -9999.0000
      -9999.0000      -9999.0000      -9999.0000      -9999.0000      -9999.0000
      -9999.0000      -9999.0000      -9999.0000      -9999.0000      -9999.0000
      -9999.0000      -9999.0000      -9999.0000      -9999.0000      -9999.0000
      -9999.0000      -9999.0000      -9999.0000      -9999.0000      -9999.0000
      -9999.0000      -9999.0000      -9999.0000      -9999.0000      -9999.0000
      -9999.0000      -9999.0000      -9999.0000      -9999.0000      -9999.0000
      -9999.0000      -9999.0000      -9999.0000      -9999.0000      -9999.0000
      -9999.0000      -9999.0000      -9999.0000      -9999.0000      -9999.0000
      -9999.0000      -9999.0000      -9999.0000      -9999.0000      -9999.0000
      -9999.0000      -9999.0000      -9999.0000      -9999.0000      -9999.0000
      -9999.0000      -9999.0000      -9999.0000      -9999.0000      -9999.0000
      -9999.0000      -9999.0000      -9999.0000      -9999.0000      -9999.0000
      -9999.0000      -9999.0000      -9999.0000      -9999.0000      -9999.0000
      -9999.0000      -9999.0000      -9999.0000      -9999.0000      -9999.0000
      -9999.0000      -9999.0000      -9999.0000      -9999.0000      -9999.0000
      -9999.0000      -9999.0000      -9999.0000      -9999.0000      -9999.0000
      -9999.0000      -9999.0000      -9999.0000      -9999.0000      -9999.0000
      -9999.0000      -9999.0000      -9999.0000      -9999.0000      -9999.0000
      -9999.0000      -9999.0000      -9999.0000      -9999.0000      -9999.0000
      -9999.0000      -9999.0000      -9999.0000      -9999.0000      -9999.0000
      -9999.0000      -9999.0000      -9999.0000      -9999.0000      -9999.0000
      -9999.0000      -9999.0000      -9999.0000      -9999.0000      -9999.0000
      -9999.0000      -9999.0000      -9999.0000      -9999.0000      -9999.0000
      -9999.0000      -9999.0000      -9999.0000      -9999.0000      -9999.0000
      -9999.0000      -9999.0000      -9999.0000      -9999.0000      -9999.0000
      -9999.0000      -9999.0000      -9999.0000      -9999.0000      -9999.0000
      -9999.0000      -9999.0000      -9999.0000      -9999.0000      -9999.0000
      -9999.0000      -9999.0000      -9999.0000      -9999.0000      -9999.0000
      -9999.0000      -9999.0000      -9999.0000      -9999.0000      -9999.0000
      -9999.0000      -9999.0000      -9999.0000      -9999.0000      -9999.0000
      -9999.0000      -9999.0000      -9999.0000      -9999.0000      -9999.0000
      -9999.0000      -9999.0000      -9999.0000      -9999.0000      -9999.0000
      -9999.0000      -9999.0000      -9999.0000      -9999.0000      -9999.0000
      -9999.0000      -9999.0000      -9999.0000      -9999.0000      -9999.0000
      -9999.0000      -9999.0000      -9999.0000      -9999.0000      -9999.0000
      -9999.0000      -9999.0000      -9999.0000      -9999.0000      -9999.0000
      -9999.0000      -9999.0000      -9999.0000      -9999.0000      -9999.0000
      -9999.0000      -9999.0000      -9999.0000      -9999.0000      -9999.0000
      -9999.0000      -9999.0000      -9999.0000      -9999.0000      -9999.0000
      -9999.0000      -9999.0000      -9999.0000      -9999.0000      -9999.0000
      -9999.0000      -9999.0000      -9999.0000      -9999.0000      -9999.0000
      -9999.0000      -9999.0000      -9999.0000      -9999.0000      -9999.0000
      -9999.0000      -9999.0000      -9999.0000      -9999.0000      -9999.0000
      -9999.0000      -9999.0000      -9999.0000      -9999.0000      -9999.0000
      -9999.0000      -9999.0000      -9999.0000      -9999.0000      -9999.0000
      -9999.0000      -9999.0000      -9999.0000      -9999.0000      -9999.0000
      -9999.0000      -9999.0000      -9999.0000      -9999.0000      -9999.0000
      -9999.0000      -9999.0000      -9999.0000      -9999.0000      -9999.0000
      -9999.0000      -9999.0000      -9999.0000      -9999.0000      -9999.0000
      -9999.0000      -9999.0000      -9999.0000      -9999.0000      -9999.0000
      -9999.0000      -9999.0000      -9999.0000      -9999.0000      -9999.0000
      -9999.0000      -9999.0000      -9999.0000      -9999.0000      -9999.0000
      -9999.0000      -9999.0000      -9999.0000      -9999.0000      -9999.0000
      -9999.0000      -9999.0000      -9999.0000      -9999.0000      -9999.0000
      -9999.0000      -9999.0000      -9999.0000      -9999.0000      -9999.0000
      -9999.0000      -9999.0000      -9999.0000      -9999.0000      -9999.0000
      -9999.0000      -9999.0000      -9999.0000      -9999.0000      -9999.0000
      -9999.0000      -9999.0000      -9999.0000      -9999.0000      -9999.0000
      -9999.0000      -9999.0000      -9999.0000      -9999.0000      -9999.0000
      -9999.0000      -9999.0000      -9999.0000      -9999.0000      -9999.0000
      -9999.0000      -9999.0000      -9999.0000      -9999.0000      -9999.0000
      -9999.0000      -9999.0000      -9999.0000      -9999.0000      -9999.0000
      -9999.0000      -9999.0000      -9999.0000      -9999.0000      -9999.0000
      -9999.0000      -9999.0000      -9999.0000      -9999.0000      -9999.0000
      -9999.0000      -9999.0000      -9999.0000      -9999.0000      -9999.0000
      -9999.0000      -9999.0000      -9999.0000      -9999.0000      -9999.0000
      -9999.0000      -9999.0000      -9999.0000      -9999.0000      -9999.0000
      -9999.0000      -9999.0000      -9999.0000      -9999.0000      -9999.0000
      -9999.0000      -9999.0000      -9999.0000      -9999.0000      -9999.0000
      -9999.0000      -9999.0000      -9999.0000      -9999.0000      -9999.0000
      -9999.0000      -9999.0000      -9999.0000      -9999.0000      -9999.0000
      -9999.0000      -9999.0000      -9999.0000      -9999.0000      -9999.0000
      -9999.0000      -9999.0000      -9999.0000      -9999.0000      -9999.0000
      -9999.0000      -9999.0000      -9999.0000      -9999.0000      -9999.0000
      -9999.0000      -9999.0000      -9999.0000      -9999.0000      -9999.0000
      -9999.0000      -9999.0000      -9999.0000      -9999.0000      -9999.0000
      -9999.0000      -9999.0000      -9999.0000      -9999.0000      -9999.0000
      -9999.0000      -9999.0000      -9999.0000      -9999.0000      -9999.0000
      -9999.0000      -9999.0000      -9999.0000      -9999.0000      -9999.0000
      -9999.0000      -9999.0000      -9999.0000      -9999.0000      -9999.0000
      -9999.0000      -9999.0000      -9999.0000      -9999.0000      -9999.0000
      -9999.0000      -9999.0000      -9999.0000      -9999.0000      -9999.0000
      -9999.0000      -9999.0000      -9999.0000      -9999.0000      -9999.0000
      -9999.0000      -9999.0000      -9999.0000      -9999.0000      -9999.0000
      -9999.0000      -9999.0000      -9999.0000      -9999.0000      -9999.0000
      -9999.0000      -9999.0000      -9999.0000      -9999.0000      -9999.0000
      -9999.0000      -9999.0000      -9999.0000      -9999.0000      -9999.0000
      -9999.0000      -9999.0000      -9999.0000      -9999.0000      -9999.0000
      -9999.0000      -9999.0000      -9999.0000      -9999.0000      -9999.0000
      -9999.0000      -9999.0000      -9999.0000      -9999.0000      -9999.0000
      -9999.0000      -9999.0000      -9999.0000      -9999.0000      -9999.0000
      -9999.0000      -9999.0000      -9999.0000      -9999.0000      -9999.0000
      -9999.0000      -9999.0000      -9999.0000      -9999.0000      -9999.0000
      -9999.0000      -9999.0000      -9999.0000      -9999.0000      -9999.0000
      -9999.0000      -9999.0000      -9999.0000      -9999.0000      -9999.0000
      -9999.0000      -9999.0000      -9999.0000      -9999.0000      -9999.0000
      -9999.0000      -9999.0000      -9999.0000      -9999.0000      -9999.0000
      -9999.0000      -9999.0000      -9999.0000      -9999.0000      -9999.0000
      -9999.0000      -9999.0000      -9999.0000      -9999.0000      -9999.0000
      -9999.0000      -9999.0000      -9999.0000      -9999.0000      -9999.0000
      -9999.0000      -9999.0000      -9999.0000      -9999.0000      -9999.0000
      -9999.0000      -9999.0000      -9999.0000      -9999.0000      -9999.0000
      -9999.0000      -9999.0000      -9999.0000      -9999.0000      -9999.0000
      -9999.0000      -9999.0000      -9999.0000      -9999.0000      -9999.0000
      -9999.0000      -9999.0000      -9999.0000      -9999.0000      -9999.0000
      -9999.0000      -9999.0000      -9999.0000      -9999.0000      -9999.0000
      -9999.0000      -9999.0000      -9999.0000      -9999.0000      -9999.0000
      -9999.0000      -9999.0000      -9999.0000      -9999.0000      -9999.0000
      -9999.0000      -9999.0000      -9999.0000      -9999.0000      -9999.0000
      -9999.0000      -9999.0000      -9999.0000      -9999.0000      -9999.0000
      -9999.0000      -9999.0000      -9999.0000      -9999.0000      -9999.0000
      -9999.0000      -9999.0000      -9999.0000      -9999.0000      -9999.0000
      -9999.0000      -9999.0000      -9999.0000      -9999.0000      -9999.0000
      -9999.0000      -9999.0000      -9999.0000      -9999.0000      -9999.0000
      -9999.0000      -9999.0000      -9999.0000      -9999.0000      -9999.0000
      -9999.0000      -9999.0000      -9999.0000      -9999.0000      -9999.0000
      -9999.0000      -9999.0000      -9999.0000      -9999.0000      -9999.0000
      -9999.0000      -9999.0000      -9999.0000      -9999.0000      -9999.0000
      -9999.0000      -9999.0000      -9999.0000      -9999.0000      -9999.0000
      -9999.0000      -9999.0000      -9999.0000      -9999.0000      -9999.0000
      -9999.0000      -9999.0000      -9999.0000      -9999.0000      -9999.0000
      -9999.0000      -9999.0000      -9999.0000      -9999.0000      -9999.0000
      -9999.0000      -9999.0000      -9999.0000      -9999.0000      -9999.0000
      -9999.0000      -9999.0000      -9999.0000      -9999.0000      -9999.0000
      -9999.0000      -9999.0000      -9999.0000      -9999.0000      -9999.0000
      -9999.0000      -9999.0000      -9999.0000      -9999.0000      -9999.0000
      -9999.0000      -9999.0000      -9999.0000      -9999.0000      -9999.0000
      -9999.0000      -9999.0000      -9999.0000      -9999.0000      -9999.0000
      -9999.0000      -9999.0000      -9999.0000      -9999.0000      -9999.0000
      -9999.0000      -9999.0000      -9999.0000      -9999.0000      -9999.0000
      -9999.0000      -9999.0000      -9999.0000      -9999.0000      -9999.0000
      -9999.0000      -9999.0000      -9999.0000      -9999.0000      -9999.0000
      -9999.0000      -9999.0000      -9999.0000      -9999.0000      -9999.0000
      -9999.0000      -9999.0000      -9999.0000      -9999.0000      -9999.0000
      -9999.0000      -9999.0000      -9999.0000      -9999.0000      -9999.0000
      -9999.0000      -9999.0000      -9999.0000      -9999.0000      -9999.0000
      -9999.0000      -9999.0000      -9999.0000      -9999.0000      -9999.0000
      -9999.0000      -9999.0000      -9999.0000      -9999.0000      -9999.0000
      -9999.0000      -9999.0000      -9999.0000      -9999.0000      -9999.0000
      -9999.0000      -9999.0000      -9999.0000      -9999.0000      -9999.0000
      -9999.0000      -9999.0000      -9999.0000      -9999.0000      -9999.0000
      -9999.0000      -9999.0000      -9999.0000      -9999.0000      -9999.0000
      -9999.0000      -9999.0000      -9999.0000      -9999.0000      -9999.0000
      -9999.0000      -9999.0000      -9999.0000      -9999.0000      -9999.0000
      -9999.0000      -9999.0000      -9999.0000      -9999.0000      -9999.0000
      -9999.0000      -9999.0000      -9999.0000      -9999.0000      -9999.0000
      -9999.0000      -9999.0000      -9999.0000      -9999.0000      -9999.0000
      -9999.0000      -9999.0000      -9999.0000      -9999.0000      -9999.0000
      -9999.0000      -9999.0000      -9999.0000      -9999.0000      -9999.0000
      -9999.0000      -9999.0000      -9999.0000      -9999.0000      -9999.0000
      -9999.0000      -9999.0000      -9999.0000      -9999.0000      -9999.0000
      -9999.0000      -9999.0000      -9999.0000      -9999.0000      -9999.0000
      -9999.0000      -9999.0000      -9999.0000      -9999.0000      -9999.0000
      -9999.0000      -9999.0000      -9999.0000      -9999.0000      -9999.0000
      -9999.0000      -9999.0000      -9999.0000      -9999.0000      -9999.0000
      -9999.0000      -9999.0000      -9999.0000      -9999.0000      -9999.0000
      -9999.0000      -9999.0000      -9999.0000      -9999.0000      -9999.0000
      -9999.0000      -9999.0000      -9999.0000      -9999.0000      -9999.0000
      -9999.0000      -9999.0000      -9999.0000      -9999.0000      -9999.0000
      -9999.0000      -9999.0000      -9999.0000      -9999.0000      -9999.0000
      -9999.0000      -9999.0000      -9999.0000      -9999.0000      -9999.0000
      -9999.0000      -9999.0000      -9999.0000      -9999.0000      -9999.0000
      -9999.0000      -9999.0000      -9999.0000      -9999.0000      -9999.0000
      -9999.0000      -9999.0000      -9999.0000      -9999.0000      -9999.0000
      -9999.0000      -9999.0000      -9999.0000      -9999.0000      -9999.0000
      -9999.0000      -9999.0000      -9999.0000      -9999.0000      -9999.0000
      -9999.0000      -9999.0000      -9999.0000      -9999.0000      -9999.0000
      -9999.0000      -9999.0000      -9999.0000      -9999.0000      -9999.0000
      -9999.0000      -9999.0000      -9999.0000      -9999.0000      -9999.0000
      -9999.0000      -9999.0000      -9999.0000      -9999.0000      -9999.0000
      -9999.0000      -9999.0000      -9999.0000      -9999.0000      -9999.0000
      -9999.0000      -9999.0000      -9999.0000      -9999.0000      -9999.0000
      -9999.0000      -9999.0000      -9999.0000      -9999.0000      -9999.0000
      -9999.0000      -9999.0000      -9999.0000      -9999.0000      -9999.0000
      -9999.0000      -9999.0000      -9999.0000      -9999.0000      -9999.0000
      -9999.0000      -9999.0000      -9999.0000      -9999.0000      -9999.0000
      -9999.0000      -9999.0000      -9999.0000      -9999.0000      -9999.0000
      -9999.0000      -9999.0000      -9999.0000      -9999.0000      -9999.0000
      -9999.0000      -9999.0000      -9999.0000      -9999.0000      -9999.0000
      -9999.0000      -9999.0000      -9999.0000      -9999.0000      -9999.0000
      -9999.0000      -9999.0000      -9999.0000      -9999.0000      -9999.0000
      -9999.0000      -9999.0000      -9999.0000      -9999.0000      -9999.0000
      -9999.0000      -9999.0000      -9999.0000      -9999.0000      -9999.0000
      -9999.0000      -9999.0000      -9999.0000      -9999.0000      -9999.0000
      -9999.0000      -9999.0000      -9999.0000      -9999.0000      -9999.0000
      -9999.0000      -9999.0000      -9999.0000      -9999.0000      -9999.0000
      -9999.0000      -9999.0000      -9999.0000      -9999.0000      -9999.0000
      -9999.0000      -9999.0000      -9999.0000      -9999.0000      -9999.0000
      -9999.0000      -9999.0000      -9999.0000      -9999.0000      -9999.0000
      -9999.0000      -9999.0000      -9999.0000      -9999.0000      -9999.0000
      -9999.0000      -9999.0000      -9999.0000      -9999.0000      -9999.0000
      -9999.0000      -9999.0000      -9999.0000      -9999.0000      -9999.0000
      -9999.0000      -9999.0000      -9999.0000      -9999.0000      -9999.0000
      -9999.0000      -9999.0000      -9999.0000      -9999.0000      -9999.0000
      -9999.0000      -9999.0000      -9999.0000      -9999.0000      -9999.0000
      -9999.0000      -9999.0000      -9999.0000      -9999.0000      -9999.0000
      -9999.0000      -9999.0000      -9999.0000      -9999.0000      -9999.0000
      -9999.0000      -9999.0000      -9999.0000      -9999.0000      -9999.0000
      -9999.0000      -9999.0000      -9999.0000      -9999.0000      -9999.0000
      -9999.0000      -9999.0000      -9999.0000      -9999.0000      -9999.0000
      -9999.0000      -9999.0000      -9999.0000      -9999.0000      -9999.0000
      -9999.0000      -9999.0000      -9999.0000      -9999.0000      -9999.0000
      -9999.0000      -9999.0000      -9999.0000      -9999.0000      -9999.0000
      -9999.0000      -9999.0000      -9999.0000      -9999.0000      -9999.0000
      -9999.0000      -9999.0000      -9999.0000      -9999.0000      -9999.0000
      -9999.0000      -9999.0000      -9999.0000      -9999.0000      -9999.0000
      -9999.0000      -9999.0000      -9999.0000      -9999.0000      -9999.0000
      -9999.0000      -9999.0000      -9999.0000      -9999.0000      -9999.0000
      -9999.0000      -9999.0000      -9999.0000      -9999.0000      -9999.0000
      -9999.0000      -9999.0000      -9999.0000      -9999.0000      -9999.0000
      -9999.0000      -9999.0000      -9999.0000      -9999.0000      -9999.0000
      -9999.0000      -9999.0000      -9999.0000      -9999.0000      -9999.0000
      -9999.0000      -9999.0000      -9999.0000      -9999.0000      -9999.0000
      -9999.0000      -9999.0000      -9999.0000      -9999.0000      -9999.0000
      -9999.0000      -9999.0000      -9999.0000      -9999.0000      -9999.0000
      -9999.0000      -9999.0000      -9999.0000      -9999.0000      -9999.0000
      -9999.0000      -9999.0000      -9999.0000      -9999.0000      -9999.0000
      -9999.0000      -9999.0000      -9999.0000      -9999.0000      -9999.0000
      -9999.0000      -9999.0000      -9999.0000      -9999.0000      -9999.0000
      -9999.0000      -9999.0000      -9999.0000      -9999.0000      -9999.0000
      -9999.0000      -9999.0000      -9999.0000      -9999.0000      -9999.0000
      -9999.0000      -9999.0000      -9999.0000      -9999.0000      -9999.0000
      -9999.0000      -9999.0000      -9999.0000      -9999.0000      -9999.0000
      -9999.0000      -9999.0000      -9999.0000      -9999.0000      -9999.0000
      -9999.0000      -9999.0000      -9999.0000      -9999.0000      -9999.0000
      -9999.0000      -9999.0000      -9999.0000      -9999.0000      -9999.0000
      -9999.0000      -9999.0000      -9999.0000      -9999.0000      -9999.0000
      -9999.0000      -9999.0000      -9999.0000      -9999.0000      -9999.0000
      -9999.0000      -9999.0000      -9999.0000      -9999.0000      -9999.0000
      -9999.0000      -9999.0000      -9999.0000      -9999.0000      -9999.0000
      -9999.0000      -9999.0000      -9999.0000      -9999.0000      -9999.0000
      -9999.0000      -9999.0000      -9999.0000      -9999.0000      -9999.0000
      -9999.0000      -9999.0000      -9999.0000      -9999.0000      -9999.0000
      -9999.0000      -9999.0000      -9999.0000      -9999.0000      -9999.0000
      -9999.0000      -9999.0000      -9999.0000      -9999.0000      -9999.0000
      -9999.0000      -9999.0000      -9999.0000      -9999.0000      -9999.0000
      -9999.0000      -9999.0000      -9999.0000      -9999.0000      -9999.0000
      -9999.0000      -9999.0000      -9999.0000      -9999.0000      -9999.0000
      -9999.0000      -9999.0000      -9999.0000      -9999.0000      -9999.0000
      -9999.0000      -9999.0000      -9999.0000      -9999.0000      -9999.0000
      -9999.0000      -9999.0000      -9999.0000      -9999.0000      -9999.0000
      -9999.0000      -9999.0000      -9999.0000      -9999.0000      -9999.0000
      -9999.0000      -9999.0000      -9999.0000      -9999.0000      -9999.0000
      -9999.0000      -9999.0000      -9999.0000      -9999.0000      -9999.0000
      -9999.0000      -9999.0000      -9999.0000      -9999.0000      -9999.0000
      -9999.0000      -9999.0000      -9999.0000      -9999.0000      -9999.0000
      -9999.0000      -9999.0000      -9999.0000      -9999.0000      -9999.0000
      -9999.0000      -9999.0000      -9999.0000      -9999.0000      -9999.0000
      -9999.0000      -9999.0000      -9999.0000      -9999.0000      -9999.0000
      -9999.0000      -9999.0000      -9999.0000      -9999.0000      -9999.0000
      -9999.0000      -9999.0000      -9999.0000      -9999.0000      -9999.0000
      -9999.0000      -9999.0000      -9999.0000      -9999.0000      -9999.0000
      -9999.0000      -9999.0000      -9999.0000      -9999.0000      -9999.0000
      -9999.0000      -9999.0000      -9999.0000      -9999.0000      -9999.0000
      -9999.0000      -9999.0000      -9999.0000      -9999.0000      -9999.0000
      -9999.0000      -9999.0000      -9999.0000      -9999.0000      -9999.0000
      -9999.0000      -9999.0000      -9999.0000      -9999.0000      -9999.0000
      -9999.0000      -9999.0000      -9999.0000      -9999.0000      -9999.0000
      -9999.0000      -9999.0000      -9999.0000      -9999.0000      -9999.0000
      -9999.0000      -9999.0000      -9999.0000      -9999.0000      -9999.0000
      -9999.0000      -9999.0000      -9999.0000      -9999.0000      -9999.0000
      -9999.0000      -9999.0000      -9999.0000      -9999.0000      -9999.0000
      -9999.0000      -9999.0000      -9999.0000      -9999.0000      -9999.0000
      -9999.0000      -9999.0000      -9999.0000      -9999.0000      -9999.0000
      -9999.0000      -9999.0000      -9999.0000      -9999.0000      -9999.0000
      -9999.0000      -9999.0000      -9999.0000      -9999.0000      -9999.0000
      -9999.0000      -9999.0000      -9999.0000      -9999.0000      -9999.0000
      -9999.0000      -9999.0000      -9999.0000      -9999.0000      -9999.0000
      -9999.0000      -9999.0000      -9999.0000      -9999.0000      -9999.0000
      -9999.0000      -9999.0000      -9999.0000      -9999.0000      -9999.0000
      -9999.0000      -9999.0000      -9999.0000      -9999.0000      -9999.0000
      -9999.0000      -9999.0000      -9999.0000      -9999.0000      -9999.0000
      -9999.0000      -9999.0000      -9999.0000      -9999.0000      -9999.0000
      -9999.0000      -9999.0000      -9999.0000      -9999.0000      -9999.0000
      -9999.0000      -9999.0000      -9999.0000      -9999.0000      -9999.0000
      -9999.0000      -9999.0000      -9999.0000      -9999.0000      -9999.0000
      -9999.0000      -9999.0000      -9999.0000      -9999.0000      -9999.0000
      -9999.0000      -9999.0000      -9999.0000      -9999.0000      -9999.0000
      -9999.0000      -9999.0000      -9999.0000      -9999.0000      -9999.0000
      -9999.0000      -9999.0000      -9999.0000      -9999.0000      -9999.0000
      -9999.0000      -9999.0000      -9999.0000      -9999.0000      -9999.0000
      -9999.0000      -9999.0000      -9999.0000      -9999.0000      -9999.0000
      -9999.0000      -9999.0000      -9999.0000      -9999.0000      -9999.0000
      -9999.0000      -9999.0000      -9999.0000      -9999.0000      -9999.0000
      -9999.0000      -9999.0000      -9999.0000      -9999.0000      -9999.0000
      -9999.0000      -9999.0000      -9999.0000      -9999.0000      -9999.0000
      -9999.0000      -9999.0000      -9999.0000      -9999.0000      -9999.0000
      -9999.0000      -9999.0000      -9999.0000      -9999.0000      -9999.0000
      -9999.0000      -9999.0000      -9999.0000      -9999.0000      -9999.0000
      -9999.0000      -9999.0000      -9999.0000      -9999.0000      -9999.0000
      -9999.0000      -9999.0000      -9999.0000      -9999.0000      -9999.0000
      -9999.0000      -9999.0000      -9999.0000      -9999.0000      -9999.0000
      -9999.0000      -9999.0000      -9999.0000      -9999.0000      -9999.0000
      -9999.0000      -9999.0000      -9999.0000      -9999.0000      -9999.0000
      -9999.0000      -9999.0000      -9999.0000      -9999.0000      -9999.0000
      -9999.0000      -9999.0000      -9999.0000      -9999.0000      -9999.0000
      -9999.0000      -9999.0000      -9999.0000      -9999.0000      -9999.0000
      -9999.0000      -9999.0000      -9999.0000      -9999.0000      -9999.0000
      -9999.0000      -9999.0000      -9999.0000      -9999.0000      -9999.0000
      -9999.0000      -9999.0000      -9999.0000      -9999.0000      -9999.0000
      -9999.0000      -9999.0000      -9999.0000      -9999.0000      -9999.0000
      -9999.0000      -9999.0000      -9999.0000      -9999.0000      -9999.0000
      -9999.0000      -9999.0000      -9999.0000      -9999.0000      -9999.0000
      -9999.0000      -9999.0000      -9999.0000      -9999.0000      -9999.0000
      -9999.0000      -9999.0000      -9999.0000      -9999.0000      -9999.0000
      -9999.0000      -9999.0000      -9999.0000      -9999.0000      -9999.0000
      -9999.0000      -9999.0000      -9999.0000      -9999.0000      -9999.0000
      -9999.0000      -9999.0000      -9999.0000      -9999.0000      -9999.0000
      -9999.0000      -9999.0000      -9999.0000      -9999.0000      -9999.0000
      -9999.0000      -9999.0000      -9999.0000      -9999.0000      -9999.0000
      -9999.0000      -9999.0000      -9999.0000      -9999.0000      -9999.0000
      -9999.0000      -9999.0000      -9999.0000      -9999.0000      -9999.0000
      -9999.0000      -9999.0000      -9999.0000      -9999.0000      -9999.0000
      -9999.0000      -9999.0000      -9999.0000      -9999.0000      -9999.0000
      -9999.0000      -9999.0000      -9999.0000      -9999.0000      -9999.0000
      -9999.0000      -9999.0000      -9999.0000      -9999.0000      -9999.0000
      -9999.0000      -9999.0000      -9999.0000      -9999.0000      -9999.0000
      -9999.0000      -9999.0000      -9999.0000      -9999.0000      -9999.0000
      -9999.0000      -9999.0000      -9999.0000      -9999.0000      -9999.0000
      -9999.0000      -9999.0000      -9999.0000      -9999.0000      -9999.0000
      -9999.0000      -9999.0000      -9999.0000      -9999.0000      -9999.0000
      -9999.0000      -9999.0000      -9999.0000      -9999.0000      -9999.0000
      -9999.0000      -9999.0000      -9999.0000      -9999.0000      -9999.0000
      -9999.0000      -9999.0000      -9999.0000      -9999.0000      -9999.0000
      -9999.0000      -9999.0000      -9999.0000      -9999.0000      -9999.0000
      -9999.0000      -9999.0000      -9999.0000      -9999.0000      -9999.0000
      -9999.0000      -9999.0000      -9999.0000      -9999.0000      -9999.0000
      -9999.0000      -9999.0000      -9999.0000      -9999.0000      -9999.0000
      -9999.0000      -9999.0000      -9999.0000      -9999.0000      -9999.0000
      -9999.0000      -9999.0000      -9999.0000      -9999.0000      -9999.0000
      -9999.0000      -9999.0000      -9999.0000      -9999.0000      -9999.0000
      -9999.0000      -9999.0000      -9999.0000      -9999.0000      -9999.0000
      -9999.0000      -9999.0000      -9999.0000      -9999.0000      -9999.0000
      -9999.0000      -9999.0000      -9999.0000      -9999.0000      -9999.0000
      -9999.0000      -9999.0000      -9999.0000      -9999.0000      -9999.0000
      -9999.0000      -9999.0000      -9999.0000      -9999.0000      -9999.0000
      -9999.0000      -9999.0000      -9999.0000      -9999.0000      -9999.0000
      -9999.0000      -9999.0000      -9999.0000      -9999.0000      -9999.0000
      -9999.0000      -9999.0000      -9999.0000      -9999.0000      -9999.0000
      -9999.0000      -9999.0000      -9999.0000      -9999.0000      -9999.0000
      -9999.0000      -9999.0000      -9999.0000      -9999.0000      -9999.0000
      -9999.0000      -9999.0000      -9999.0000      -9999.0000      -9999.0000
      -9999.0000      -9999.0000      -9999.0000      -9999.0000      -9999.0000
      -9999.0000      -9999.0000      -9999.0000      -9999.0000      -9999.0000
      -9999.0000      -9999.0000      -9999.0000      -9999.0000      -9999.0000
      -9999.0000      -9999.0000      -9999.0000      -9999.0000      -9999.0000
      -9999.0000      -9999.0000      -9999.0000      -9999.0000      -9999.0000
      -9999.0000      -9999.0000      -9999.0000      -9999.0000      -9999.0000
      -9999.0000      -9999.0000      -9999.0000      -9999.0000      -9999.0000
      -9999.0000      -9999.0000      -9999.0000      -9999.0000      -9999.0000
      -9999.0000      -9999.0000      -9999.0000      -9999.0000      -9999.0000
      -9999.0000      -9999.0000      -9999.0000      -9999.0000      -9999.0000
      -9999.0000      -9999.0000      -9999.0000      -9999.0000      -9999.0000
      -9999.0000      -9999.0000      -9999.0000      -9999.0000      -9999.0000
      -9999.0000      -9999.0000      -9999.0000      -9999.0000      -9999.0000
      -9999.0000      -9999.0000      -9999.0000      -9999.0000      -9999.0000
      -9999.0000      -9999.0000      -9999.0000      -9999.0000      -9999.0000
      -9999.0000      -9999.0000      -9999.0000      -9999.0000      -9999.0000
      -9999.0000      -9999.0000      -9999.0000      -9999.0000      -9999.0000
      -9999.0000      -9999.0000      -9999.0000      -9999.0000      -9999.0000
      -9999.0000      -9999.0000      -9999.0000      -9999.0000      -9999.0000
      -9999.0000      -9999.0000      -9999.0000      -9999.0000      -9999.0000
      -9999.0000      -9999.0000      -9999.0000      -9999.0000      -9999.0000
      -9999.0000      -9999.0000      -9999.0000      -9999.0000      -9999.0000
      -9999.0000      -9999.0000      -9999.0000      -9999.0000      -9999.0000
      -9999.0000      -9999.0000      -9999.0000      -9999.0000      -9999.0000
      -9999.0000      -9999.0000      -9999.0000      -9999.0000      -9999.0000
      -9999.0000      -9999.0000      -9999.0000      -9999.0000      -9999.0000
      -9999.0000      -9999.0000      -9999.0000      -9999.0000      -9999.0000
      -9999.0000      -9999.0000      -9999.0000      -9999.0000      -9999.0000
      -9999.0000      -9999.0000      -9999.0000      -9999.0000      -9999.0000
      -9999.0000      -9999.0000      -9999.0000      -9999.0000      -9999.0000
      -9999.0000      -9999.0000      -9999.0000      -9999.0000      -9999.0000
      -9999.0000      -9999.0000      -9999.0000      -9999.0000      -9999.0000
      -9999.0000      -9999.0000      -9999.0000      -9999.0000      -9999.0000
      -9999.0000      -9999.0000      -9999.0000      -9999.0000      -9999.0000
      -9999.0000      -9999.0000      -9999.0000      -9999.0000      -9999.0000
      -9999.0000      -9999.0000      -9999.0000      -9999.0000      -9999.0000
      -9999.0000      -9999.0000      -9999.0000      -9999.0000      -9999.0000
      -9999.0000      -9999.0000      -9999.0000      -9999.0000      -9999.0000
      -9999.0000      -9999.0000      -9999.0000      -9999.0000      -9999.0000
      -9999.0000      -9999.0000      -9999.0000      -9999.0000      -9999.0000
      -9999.0000      -9999.0000      -9999.0000      -9999.0000      -9999.0000
      -9999.0000      -9999.0000      -9999.0000      -9999.0000      -9999.0000
      -9999.0000      -9999.0000      -9999.0000      -9999.0000      -9999.0000
      -9999.0000      -9999.0000      -9999.0000      -9999.0000      -9999.0000
      -9999.0000      -9999.0000      -9999.0000      -9999.0000      -9999.0000
      -9999.0000      -9999.0000      -9999.0000      -9999.0000      -9999.0000
      -9999.0000      -9999.0000      -9999.0000      -9999.0000      -9999.0000
      -9999.0000      -9999.0000      -9999.0000      -9999.0000      -9999.0000
      -9999.0000      -9999.0000      -9999.0000      -9999.0000      -9999.0000
      -9999.0000      -9999.0000      -9999.0000      -9999.0000      -9999.0000
      -9999.0000      -9999.0000      -9999.0000      -9999.0000      -9999.0000
      -9999.0000      -9999.0000      -9999.0000      -9999.0000      -9999.0000
      -9999.0000      -9999.0000      -9999.0000      -9999.0000      -9999.0000
      -9999.0000      -9999.0000      -9999.0000      -9999.0000      -9999.0000
      -9999.0000      -9999.0000      -9999.0000      -9999.0000      -9999.0000
      -9999.0000      -9999.0000      -9999.0000      -9999.0000      -9999.0000
      -9999.0000      -9999.0000      -9999.0000      -9999.0000      -9999.0000
      -9999.0000      -9999.0000      -9999.0000      -9999.0000      -9999.0000
      -9999.0000      -9999.0000      -9999.0000      -9999.0000      -9999.0000
      -9999.0000      -9999.0000      -9999.0000      -9999.0000      -9999.0000
      -9999.0000      -9999.0000      -9999.0000      -9999.0000      -9999.0000
      -9999.0000      -9999.0000      -9999.0000      -9999.0000      -9999.0000
      -9999.0000      -9999.0000      -9999.0000      -9999.0000      -9999.0000
      -9999.0000      -9999.0000      -9999.0000      -9999.0000      -9999.0000
      -9999.0000      -9999.0000      -9999.0000      -9999.0000      -9999.0000
      -9999.0000      -9999.0000      -9999.0000      -9999.0000      -9999.0000
      -9999.0000      -9999.0000      -9999.0000      -9999.0000      -9999.0000
      -9999.0000      -9999.0000      -9999.0000      -9999.0000      -9999.0000
      -9999.0000      -9999.0000      -9999.0000      -9999.0000      -9999.0000
      -9999.0000      -9999.0000      -9999.0000      -9999.0000      -9999.0000
      -9999.0000      -9999.0000      -9999.0000      -9999.0000      -9999.0000
      -9999.0000      -9999.0000      -9999.0000      -9999.0000      -9999.0000
      -9999.0000      -9999.0000      -9999.0000      -9999.0000      -9999.0000
      -9999.0000      -9999.0000      -9999.0000      -9999.0000      -9999.0000
      -9999.0000      -9999.0000      -9999.0000      -9999.0000      -9999.0000
      -9999.0000      -9999.0000      -9999.0000      -9999.0000      -9999.0000
      -9999.0000      -9999.0000      -9999.0000      -9999.0000      -9999.0000
      -9999.0000      -9999.0000      -9999.0000      -9999.0000      -9999.0000
      -9999.0000      -9999.0000      -9999.0000      -9999.0000      -9999.0000
      -9999.0000      -9999.0000      -9999.0000      -9999.0000      -9999.0000
      -9999.0000      -9999.0000      -9999.0000      -9999.0000      -9999.0000
      -9999.0000      -9999.0000      -9999.0000      -9999.0000      -9999.0000
      -9999.0000      -9999.0000      -9999.0000      -9999.0000      -9999.0000
      -9999.0000      -9999.0000      -9999.0000      -9999.0000      -9999.0000
      -9999.0000      -9999.0000      -9999.0000      -9999.0000      -9999.0000
      -9999.0000      -9999.0000      -9999.0000      -9999.0000      -9999.0000
      -9999.0000      -9999.0000      -9999.0000      -9999.0000      -9999.0000
      -9999.0000      -9999.0000      -9999.0000      -9999.0000      -9999.0000
      -9999.0000      -9999.0000      -9999.0000      -9999.0000      -9999.0000
      -9999.0000      -9999.0000      -9999.0000      -9999.0000      -9999.0000
      -9999.0000      -9999.0000      -9999.0000      -9999.0000      -9999.0000
      -9999.0000      -9999.0000      -9999.0000      -9999.0000      -9999.0000
      -9999.0000      -9999.0000      -9999.0000      -9999.0000      -9999.0000
      -9999.0000      -9999.0000      -9999.0000      -9999.0000      -9999.0000
      -9999.0000      -9999.0000      -9999.0000      -9999.0000      -9999.0000
      -9999.0000      -9999.0000      -9999.0000      -9999.0000      -9999.0000
      -9999.0000      -9999.0000      -9999.0000      -9999.0000      -9999.0000
      -9999.0000      -9999.0000      -9999.0000      -9999.0000      -9999.0000
      -9999.0000      -9999.0000      -9999.0000      -9999.0000      -9999.0000
      -9999.0000      -9999.0000      -9999.0000      -9999.0000      -9999.0000
      -9999.0000      -9999.0000      -9999.0000      -9999.0000      -9999.0000
      -9999.0000      -9999.0000      -9999.0000      -9999.0000      -9999.0000
      -9999.0000      -9999.0000      -9999.0000      -9999.0000      -9999.0000
      -9999.0000      -9999.0000      -9999.0000      -9999.0000      -9999.0000
      -9999.0000      -9999.0000      -9999.0000      -9999.0000      -9999.0000
      -9999.0000      -9999.0000      -9999.0000      -9999.0000      -9999.0000
      -9999.0000      -9999.0000      -9999.0000      -9999.0000      -9999.0000
      -9999.0000      -9999.0000      -9999.0000      -9999.0000      -9999.0000
      -9999.0000      -9999.0000      -9999.0000      -9999.0000      -9999.0000
      -9999.0000      -9999.0000      -9999.0000      -9999.0000      -9999.0000
      -9999.0000      -9999.0000      -9999.0000      -9999.0000      -9999.0000
      -9999.0000      -9999.0000      -9999.0000      -9999.0000      -9999.0000
      -9999.0000      -9999.0000      -9999.0000      -9999.0000      -9999.0000
      -9999.0000      -9999.0000      -9999.0000      -9999.0000      -9999.0000
      -9999.0000      -9999.0000      -9999.0000      -9999.0000      -9999.0000
      -9999.0000      -9999.0000      -9999.0000      -9999.0000      -9999.0000
      -9999.0000      -9999.0000      -9999.0000      -9999.0000      -9999.0000
      -9999.0000      -9999.0000      -9999.0000      -9999.0000      -9999.0000
      -9999.0000      -9999.0000      -9999.0000      -9999.0000      -9999.0000
      -9999.0000      -9999.0000      -9999.0000      -9999.0000      -9999.0000
      -9999.0000      -9999.0000      -9999.0000      -9999.0000      -9999.0000
      -9999.0000      -9999.0000      -9999.0000      -9999.0000      -9999.0000
      -9999.0000      -9999.0000      -9999.0000      -9999.0000      -9999.0000
      -9999.0000      -9999.0000      -9999.0000      -9999.0000      -9999.0000
      -9999.0000      -9999.0000      -9999.0000      -9999.0000      -9999.0000
      -9999.0000      -9999.0000      -9999.0000      -9999.0000      -9999.0000
      -9999.0000      -9999.0000      -9999.0000      -9999.0000      -9999.0000
      -9999.0000      -9999.0000      -9999.0000      -9999.0000      -9999.0000
      -9999.0000      -9999.0000      -9999.0000      -9999.0000      -9999.0000
      -9999.0000      -9999.0000      -9999.0000      -9999.0000      -9999.0000
      -9999.0000      -9999.0000      -9999.0000      -9999.0000      -9999.0000
      -9999.0000      -9999.0000      -9999.0000      -9999.0000      -9999.0000
      -9999.0000      -9999.0000      -9999.0000      -9999.0000      -9999.0000
      -9999.0000      -9999.0000      -9999.0000      -9999.0000      -9999.0000
      -9999.0000      -9999.0000      -9999.0000      -9999.0000      -9999.0000
      -9999.0000      -9999.0000      -9999.0000      -9999.0000      -9999.0000
      -9999.0000      -9999.0000      -9999.0000      -9999.0000      -9999.0000
      -9999.0000      -9999.0000      -9999.0000      -9999.0000      -9999.0000
      -9999.0000      -9999.0000      -9999.0000      -9999.0000      -9999.0000
      -9999.0000      -9999.0000      -9999.0000      -9999.0000      -9999.0000
      -9999.0000      -9999.0000      -9999.0000      -9999.0000      -9999.0000
      -9999.0000      -9999.0000      -9999.0000      -9999.0000      -9999.0000
      -9999.0000      -9999.0000      -9999.0000      -9999.0000      -9999.0000
      -9999.0000      -9999.0000      -9999.0000      -9999.0000      -9999.0000
      -9999.0000      -9999.0000      -9999.0000      -9999.0000      -9999.0000
      -9999.0000      -9999.0000      -9999.0000      -9999.0000      -9999.0000
      -9999.0000      -9999.0000      -9999.0000      -9999.0000      -9999.0000
      -9999.0000      -9999.0000      -9999.0000      -9999.0000      -9999.0000
      -9999.0000      -9999.0000      -9999.0000      -9999.0000      -9999.0000
      -9999.0000      -9999.0000      -9999.0000      -9999.0000      -9999.0000
      -9999.0000      -9999.0000      -9999.0000      -9999.0000      -9999.0000
      -9999.0000      -9999.0000      -9999.0000      -9999.0000      -9999.0000
      -9999.0000      -9999.0000      -9999.0000      -9999.0000      -9999.0000
      -9999.0000      -9999.0000      -9999.0000      -9999.0000      -9999.0000
      -9999.0000      -9999.0000      -9999.0000      -9999.0000      -9999.0000
      -9999.0000      -9999.0000      -9999.0000      -9999.0000      -9999.0000
      -9999.0000      -9999.0000      -9999.0000      -9999.0000      -9999.0000
      -9999.0000      -9999.0000      -9999.0000      -9999.0000      -9999.0000
      -9999.0000      -9999.0000      -9999.0000      -9999.0000      -9999.0000
      -9999.0000      -9999.0000      -9999.0000      -9999.0000      -9999.0000
      -9999.0000      -9999.0000      -9999.0000      -9999.0000      -9999.0000
      -9999.0000      -9999.0000      -9999.0000      -9999.0000      -9999.0000
      -9999.0000      -9999.0000      -9999.0000      -9999.0000      -9999.0000
      -9999.0000      -9999.0000      -9999.0000      -9999.0000      -9999.0000
      -9999.0000      -9999.0000      -9999.0000      -9999.0000      -9999.0000
      -9999.0000      -9999.0000      -9999.0000      -9999.0000      -9999.0000
      -9999.0000      -9999.0000      -9999.0000      -9999.0000      -9999.0000
      -9999.0000      -9999.0000      -9999.0000      -9999.0000      -9999.0000
      -9999.0000      -9999.0000      -9999.0000      -9999.0000      -9999.0000
      -9999.0000      -9999.0000      -9999.0000      -9999.0000      -9999.0000
      -9999.0000      -9999.0000      -9999.0000      -9999.0000      -9999.0000
      -9999.0000      -9999.0000      -9999.0000      -9999.0000      -9999.0000
      -9999.0000      -9999.0000      -9999.0000      -9999.0000      -9999.0000
      -9999.0000      -9999.0000      -9999.0000      -9999.0000      -9999.0000
      -9999.0000      -9999.0000      -9999.0000      -9999.0000      -9999.0000
      -9999.0000      -9999.0000      -9999.0000      -9999.0000      -9999.0000
      -9999.0000      -9999.0000      -9999.0000      -9999.0000      -9999.0000
      -9999.0000      -9999.0000      -9999.0000      -9999.0000      -9999.0000
      -9999.0000      -9999.0000      -9999.0000      -9999.0000      -9999.0000
      -9999.0000      -9999.0000      -9999.0000      -9999.0000      -9999.0000
      -9999.0000      -9999.0000      -9999.0000      -9999.0000      -9999.0000
      -9999.0000      -9999.0000      -9999.0000      -9999.0000      -9999.0000
      -9999.0000      -9999.0000      -9999.0000      -9999.0000      -9999.0000
      -9999.0000      -9999.0000      -9999.0000      -9999.0000      -9999.0000
      -9999.0000      -9999.0000      -9999.0000      -9999.0000      -9999.0000
      -9999.0000      -9999.0000      -9999.0000      -9999.0000      -9999.0000
      -9999.0000      -9999.0000      -9999.0000      -9999.0000      -9999.0000
      -9999.0000      -9999.0000      -9999.0000      -9999.0000      -9999.0000
      -9999.0000      -9999.0000      -9999.0000      -9999.0000      -9999.0000
      -9999.0000      -9999.0000      -9999.0000      -9999.0000      -9999.0000
      -9999.0000      -9999.0000      -9999.0000      -9999.0000      -9999.0000
      -9999.0000      -9999.0000      -9999.0000      -9999.0000      -9999.0000
      -9999.0000      -9999.0000      -9999.0000      -9999.0000      -9999.0000
      -9999.0000      -9999.0000      -9999.0000      -9999.0000      -9999.0000
       43.000000      -9999.0000      -9999.0000      -9999.0000      -9999.0000
      -9999.0000      -9999.0000      -9999.0000      -9999.0000      -9999.0000
      -9999.0000      -9999.0000      -9999.0000      -9999.0000      -9999.0000
      -9999.0000      -9999.0000      -9999.0000      -9999.0000      -9999.0000
      -9999.0000      -9999.0000      -9999.0000      -9999.0000      -9999.0000
      -9999.0000      -9999.0000      -9999.0000      -9999.0000      -9999.0000
      -9999.0000      -9999.0000      -9999.0000      -9999.0000      -9999.0000
      -9999.0000      -9999.0000      -9999.0000      -9999.0000      -9999.0000
      -9999.0000      -9999.0000      -9999.0000      -9999.0000      -9999.0000
      -9999.0000      -9999.0000      -9999.0000      -9999.0000      -9999.0000
      -9999.0000      -9999.0000      -9999.0000      -9999.0000      -9999.0000
      -9999.0000      -9999.0000      -9999.0000      -9999.0000      -9999.0000
      -9999.0000      -9999.0000      -9999.0000      -9999.0000      -9999.0000
      -9999.0000      -9999.0000      -9999.0000      -9999.0000      -9999.0000
      -9999.0000      -9999.0000      -9999.0000      -9999.0000      -9999.0000
      -9999.0000      -9999.0000      -9999.0000      -9999.0000      -9999.0000
      -9999.0000      -9999.0000      -9999.0000      -9999.0000      -9999.0000
      -9999.0000      -9999.0000      -9999.0000      -9999.0000      -9999.0000
      -9999.0000      -9999.0000      -9999.0000      -9999.0000      -9999.0000
      -9999.0000      -9999.0000      -9999.0000      -9999.0000      -9999.0000
      -9999.0000      -9999.0000      -9999.0000      -9999.0000      -9999.0000
      -9999.0000      -9999.0000      -9999.0000       44.000000       43.000000
       43.000000       44.000000      -9999.0000      -9999.0000      -9999.0000
      -9999.0000      -9999.0000      -9999.0000      -9999.0000      -9999.0000
      -9999.0000      -9999.0000      -9999.0000      -9999.0000      -9999.0000
      -9999.0000      -9999.0000      -9999.0000      -9999.0000      -9999.0000
      -9999.0000      -9999.0000      -9999.0000      -9999.0000      -9999.0000
      -9999.0000      -9999.0000      -9999.0000      -9999.0000      -9999.0000
      -9999.0000      -9999.0000      -9999.0000      -9999.0000      -9999.0000
      -9999.0000      -9999.0000      -9999.0000      -9999.0000      -9999.0000
      -9999.0000      -9999.0000      -9999.0000      -9999.0000      -9999.0000
      -9999.0000      -9999.0000      -9999.0000      -9999.0000      -9999.0000
      -9999.0000      -9999.0000      -9999.0000      -9999.0000      -9999.0000
      -9999.0000      -9999.0000      -9999.0000      -9999.0000      -9999.0000
      -9999.0000      -9999.0000      -9999.0000      -9999.0000      -9999.0000
      -9999.0000      -9999.0000      -9999.0000      -9999.0000      -9999.0000
      -9999.0000      -9999.0000      -9999.0000      -9999.0000      -9999.0000
      -9999.0000      -9999.0000      -9999.0000      -9999.0000      -9999.0000
      -9999.0000      -9999.0000      -9999.0000      -9999.0000      -9999.0000
      -9999.0000      -9999.0000      -9999.0000      -9999.0000      -9999.0000
      -9999.0000      -9999.0000      -9999.0000      -9999.0000      -9999.0000
      -9999.0000      -9999.0000      -9999.0000      -9999.0000      -9999.0000
      -9999.0000      -9999.0000      -9999.0000      -9999.0000      -9999.0000
      -9999.0000      -9999.0000       43.000000       44.000000       44.000000
       44.000000      -9999.0000      -9999.0000      -9999.0000      -9999.0000
      -9999.0000      -9999.0000      -9999.0000      -9999.0000      -9999.0000
      -9999.0000      -9999.0000      -9999.0000      -9999.0000      -9999.0000
      -9999.0000      -9999.0000      -9999.0000      -9999.0000      -9999.0000
      -9999.0000      -9999.0000      -9999.0000      -9999.0000      -9999.0000
      -9999.0000      -9999.0000      -9999.0000      -9999.0000      -9999.0000
      -9999.0000      -9999.0000      -9999.0000      -9999.0000      -9999.0000
      -9999.0000      -9999.0000      -9999.0000      -9999.0000      -9999.0000
      -9999.0000      -9999.0000      -9999.0000      -9999.0000      -9999.0000
      -9999.0000      -9999.0000      -9999.0000      -9999.0000      -9999.0000
      -9999.0000      -9999.0000      -9999.0000      -9999.0000      -9999.0000
      -9999.0000      -9999.0000      -9999.0000      -9999.0000      -9999.0000
      -9999.0000      -9999.0000      -9999.0000      -9999.0000      -9999.0000
      -9999.0000      -9999.0000      -9999.0000      -9999.0000      -9999.0000
      -9999.0000      -9999.0000      -9999.0000      -9999.0000      -9999.0000
      -9999.0000      -9999.0000      -9999.0000      -9999.0000      -9999.0000
      -9999.0000      -9999.0000      -9999.0000      -9999.0000      -9999.0000
      -9999.0000      -9999.0000      -9999.0000      -9999.0000      -9999.0000
      -9999.0000      -9999.0000      -9999.0000      -9999.0000      -9999.0000
      -9999.0000      -9999.0000      -9999.0000      -9999.0000      -9999.0000
      -9999.0000      -9999.0000      -9999.0000      -9999.0000      -9999.0000
      -9999.0000       44.000000       44.000000       44.000000      -9999.0000
      -9999.0000      -9999.0000      -9999.0000      -9999.0000      -9999.0000
      -9999.0000      -9999.0000      -9999.0000      -9999.0000      -9999.0000
      -9999.0000      -9999.0000      -9999.0000      -9999.0000      -9999.0000
      -9999.0000      -9999.0000      -9999.0000      -9999.0000      -9999.0000
      -9999.0000      -9999.0000      -9999.0000      -9999.0000      -9999.0000
      -9999.0000      -9999.0000      -9999.0000      -9999.0000      -9999.0000
      -9999.0000      -9999.0000      -9999.0000      -9999.0000      -9999.0000
      -9999.0000      -9999.0000      -9999.0000      -9999.0000      -9999.0000
      -9999.0000      -9999.0000      -9999.0000      -9999.0000      -9999.0000
      -9999.0000      -9999.0000      -9999.0000      -9999.0000      -9999.0000
      -9999.0000      -9999.0000      -9999.0000      -9999.0000      -9999.0000
      -9999.0000      -9999.0000      -9999.0000      -9999.0000      -9999.0000
      -9999.0000      -9999.0000      -9999.0000      -9999.0000      -9999.0000
      -9999.0000      -9999.0000      -9999.0000      -9999.0000      -9999.0000
      -9999.0000      -9999.0000      -9999.0000      -9999.0000      -9999.0000
      -9999.0000      -9999.0000      -9999.0000      -9999.0000      -9999.0000
      -9999.0000      -9999.0000      -9999.0000      -9999.0000      -9999.0000
      -9999.0000      -9999.0000      -9999.0000      -9999.0000      -9999.0000
      -9999.0000      -9999.0000      -9999.0000      -9999.0000      -9999.0000
      -9999.0000      -9999.0000      -9999.0000      -9999.0000      -9999.0000
      -9999.0000      -9999.0000      -9999.0000      -9999.0000      -9999.0000
       44.000000       44.000000       44.000000      -9999.0000      -9999.0000
      -9999.0000      -9999.0000      -9999.0000      -9999.0000      -9999.0000
      -9999.0000      -9999.0000      -9999.0000      -9999.0000      -9999.0000
      -9999.0000      -9999.0000      -9999.0000      -9999.0000      -9999.0000
      -9999.0000      -9999.0000      -9999.0000      -9999.0000      -9999.0000
      -9999.0000      -9999.0000      -9999.0000      -9999.0000      -9999.0000
      -9999.0000      -9999.0000      -9999.0000      -9999.0000      -9999.0000
      -9999.0000      -9999.0000      -9999.0000      -9999.0000      -9999.0000
      -9999.0000      -9999.0000      -9999.0000      -9999.0000      -9999.0000
      -9999.0000      -9999.0000      -9999.0000      -9999.0000      -9999.0000
      -9999.0000      -9999.0000      -9999.0000      -9999.0000      -9999.0000
      -9999.0000      -9999.0000      -9999.0000      -9999.0000      -9999.0000
      -9999.0000      -9999.0000      -9999.0000      -9999.0000      -9999.0000
      -9999.0000      -9999.0000      -9999.0000      -9999.0000      -9999.0000
      -9999.0000      -9999.0000      -9999.0000      -9999.0000      -9999.0000
      -9999.0000      -9999.0000      -9999.0000      -9999.0000      -9999.0000
      -9999.0000      -9999.0000      -9999.0000      -9999.0000      -9999.0000
      -9999.0000      -9999.0000      -9999.0000      -9999.0000      -9999.0000
      -9999.0000      -9999.0000      -9999.0000      -9999.0000      -9999.0000
      -9999.0000      -9999.0000      -9999.0000      -9999.0000      -9999.0000
      -9999.0000      -9999.0000      -9999.0000      -9999.0000      -9999.0000
      -9999.0000      -9999.0000      -9999.0000      -9999.0000       44.000000
       45.000000       45.000000       45.000000      -9999.0000      -9999.0000
      -9999.0000      -9999.0000      -9999.0000      -9999.0000      -9999.0000
      -9999.0000      -9999.0000      -9999.0000      -9999.0000      -9999.0000
      -9999.0000      -9999.0000      -9999.0000      -9999.0000      -9999.0000
      -9999.0000      -9999.0000      -9999.0000      -9999.0000      -9999.0000
      -9999.0000      -9999.0000      -9999.0000      -9999.0000      -9999.0000
      -9999.0000      -9999.0000      -9999.0000      -9999.0000      -9999.0000
      -9999.0000      -9999.0000      -9999.0000      -9999.0000      -9999.0000
      -9999.0000      -9999.0000      -9999.0000      -9999.0000      -9999.0000
      -9999.0000      -9999.0000      -9999.0000      -9999.0000      -9999.0000
      -9999.0000      -9999.0000      -9999.0000      -9999.0000      -9999.0000
      -9999.0000      -9999.0000      -9999.0000      -9999.0000      -9999.0000
      -9999.0000      -9999.0000      -9999.0000      -9999.0000      -9999.0000
      -9999.0000      -9999.0000      -9999.0000      -9999.0000      -9999.0000
      -9999.0000      -9999.0000      -9999.0000      -9999.0000      -9999.0000
      -9999.0000      -9999.0000      -9999.0000      -9999.0000      -9999.0000
      -9999.0000      -9999.0000      -9999.0000      -9999.0000      -9999.0000
      -9999.0000      -9999.0000      -9999.0000      -9999.0000      -9999.0000
      -9999.0000      -9999.0000      -9999.0000      -9999.0000      -9999.0000
      -9999.0000      -9999.0000      -9999.0000      -9999.0000      -9999.0000
      -9999.0000      -9999.0000      -9999.0000      -9999.0000      -9999.0000
      -9999.0000      -9999.0000      -9999.0000       44.000000       45.000000
       46.000000       46.000000       46.000000      -9999.0000      -9999.0000
      -9999.0000      -9999.0000      -9999.0000      -9999.0000      -9999.0000
      -9999.0000      -9999.0000      -9999.0000      -9999.0000      -9999.0000
      -9999.0000      -9999.0000      -9999.0000      -9999.0000      -9999.0000
      -9999.0000      -9999.0000      -9999.0000      -9999.0000      -9999.0000
      -9999.0000      -9999.0000      -9999.0000      -9999.0000      -9999.0000
      -9999.0000      -9999.0000      -9999.0000      -9999.0000      -9999.0000
      -9999.0000      -9999.0000      -9999.0000      -9999.0000      -9999.0000
      -9999.0000      -9999.0000      -9999.0000      -9999.0000      -9999.0000
      -9999.0000      -9999.0000      -9999.0000      -9999.0000      -9999.0000
      -9999.0000      -9999.0000      -9999.0000      -9999.0000      -9999.0000
      -9999.0000      -9999.0000      -9999.0000      -9999.0000      -9999.0000
      -9999.0000      -9999.0000      -9999.0000      -9999.0000      -9999.0000
      -9999.0000      -9999.0000      -9999.0000      -9999.0000      -9999.0000
      -9999.0000      -9999.0000      -9999.0000      -9999.0000      -9999.0000
      -9999.0000      -9999.0000      -9999.0000      -9999.0000      -9999.0000
      -9999.0000      -9999.0000      -9999.0000      -9999.0000      -9999.0000
      -9999.0000      -9999.0000      -9999.0000      -9999.0000      -9999.0000
      -9999.0000      -9999.0000      -9999.0000      -9999.0000      -9999.0000
      -9999.0000      -9999.0000      -9999.0000      -9999.0000      -9999.0000
      -9999.0000      -9999.0000      -9999.0000      -9999.0000      -9999.0000
      -9999.0000       43.000000       43.000000       44.000000       45.000000
       46.000000       45.000000      -9999.0000      -9999.0000      -9999.0000
      -9999.0000      -9999.0000      -9999.0000      -9999.0000      -9999.0000
      -9999.0000      -9999.0000      -9999.0000      -9999.0000      -9999.0000
      -9999.0000      -9999.0000      -9999.0000      -9999.0000      -9999.0000
      -9999.0000      -9999.0000      -9999.0000      -9999.0000      -9999.0000
      -9999.0000      -9999.0000      -9999.0000      -9999.0000      -9999.0000
      -9999.0000      -9999.0000      -9999.0000      -9999.0000      -9999.0000
      -9999.0000      -9999.0000      -9999.0000      -9999.0000      -9999.0000
      -9999.0000      -9999.0000      -9999.0000      -9999.0000      -9999.0000
      -9999.0000      -9999.0000      -9999.0000      -9999.0000      -9999.0000
      -9999.0000      -9999.0000      -9999.0000      -9999.0000      -9999.0000
      -9999.0000      -9999.0000      -9999.0000      -9999.0000      -9999.0000
      -9999.0000      -9999.0000      -9999.0000      -9999.0000      -9999.0000
      -9999.0000      -9999.0000      -9999.0000      -9999.0000      -9999.0000
      -9999.0000      -9999.0000      -9999.0000      -9999.0000      -9999.0000
      -9999.0000      -9999.0000      -9999.0000      -9999.0000      -9999.0000
      -9999.0000      -9999.0000      -9999.0000      -9999.0000      -9999.0000
      -9999.0000      -9999.0000      -9999.0000      -9999.0000      -9999.0000
      -9999.0000      -9999.0000      -9999.0000      -9999.0000      -9999.0000
      -9999.0000      -9999.0000      -9999.0000      -9999.0000      -9999.0000
      -9999.0000      -9999.0000      -9999.0000      -9999.0000      -9999.0000
       43.000000       43.000000       44.000000       44.000000       44.000000
       44.000000      -9999.0000      -9999.0000      -9999.0000      -9999.0000
      -9999.0000      -9999.0000      -9999.0000      -9999.0000      -9999.0000
      -9999.0000      -9999.0000      -9999.0000      -9999.0000      -9999.0000
      -9999.0000      -9999.0000      -9999.0000      -9999.0000      -9999.0000
      -9999.0000      -9999.0000      -9999.0000      -9999.0000      -9999.0000
      -9999.0000      -9999.0000      -9999.0000      -9999.0000      -9999.0000
      -9999.0000      -9999.0000      -9999.0000      -9999.0000      -9999.0000
      -9999.0000      -9999.0000      -9999.0000      -9999.0000      -9999.0000
      -9999.0000      -9999.0000      -9999.0000      -9999.0000      -9999.0000
      -9999.0000      -9999.0000      -9999.0000      -9999.0000      -9999.0000
      -9999.0000      -9999.0000      -9999.0000      -9999.0000      -9999.0000
      -9999.0000      -9999.0000      -9999.0000      -9999.0000      -9999.0000
      -9999.0000      -9999.0000      -9999.0000      -9999.0000      -9999.0000
      -9999.0000      -9999.0000      -9999.0000      -9999.0000      -9999.0000
      -9999.0000      -9999.0000      -9999.0000      -9999.0000      -9999.0000
      -9999.0000      -9999.0000      -9999.0000      -9999.0000      -9999.0000
      -9999.0000      -9999.0000      -9999.0000      -9999.0000      -9999.0000
      -9999.0000      -9999.0000      -9999.0000      -9999.0000      -9999.0000
      -9999.0000      -9999.0000      -9999.0000      -9999.0000      -9999.0000
      -9999.0000      -9999.0000      -9999.0000      -9999.0000      -9999.0000
      -9999.0000      -9999.0000      -9999.0000      -9999.0000       43.000000
       43.000000       43.000000       44.000000       44.000000       44.000000
       43.000000      -9999.0000      -9999.0000      -9999.0000      -9999.0000
      -9999.0000      -9999.0000      -9999.0000      -9999.0000      -9999.0000
      -9999.0000      -9999.0000      -9999.0000      -9999.0000      -9999.0000
      -9999.0000      -9999.0000      -9999.0000      -9999.0000      -9999.0000
      -9999.0000      -9999.0000      -9999.0000      -9999.0000      -9999.0000
      -9999.0000      -9999.0000      -9999.0000      -9999.0000      -9999.0000
      -9999.0000      -9999.0000      -9999.0000      -9999.0000      -9999.0000
      -9999.0000      -9999.0000      -9999.0000      -9999.0000      -9999.0000
      -9999.0000      -9999.0000      -9999.0000      -9999.0000      -9999.0000
      -9999.0000      -9999.0000      -9999.0000      -9999.0000      -9999.0000
      -9999.0000      -9999.0000      -9999.0000      -9999.0000      -9999.0000
      -9999.0000      -9999.0000      -9999.0000      -9999.0000      -9999.0000
      -9999.0000      -9999.0000      -9999.0000      -9999.0000      -9999.0000
      -9999.0000      -9999.0000      -9999.0000      -9999.0000      -9999.0000
      -9999.0000      -9999.0000      -9999.0000      -9999.0000      -9999.0000
      -9999.0000      -9999.0000      -9999.0000      -9999.0000      -9999.0000
      -9999.0000      -9999.0000      -9999.0000      -9999.0000      -9999.0000
      -9999.0000      -9999.0000      -9999.0000      -9999.0000      -9999.0000
      -9999.0000      -9999.0000      -9999.0000      -9999.0000      -9999.0000
      -9999.0000      -9999.0000      -9999.0000      -9999.0000      -9999.0000
      -9999.0000      -9999.0000       44.000000       44.000000       43.000000
       44.000000       44.000000       44.000000       44.000000       43.000000
       43.000000      -9999.0000      -9999.0000      -9999.0000      -9999.0000
      -9999.0000      -9999.0000      -9999.0000      -9999.0000      -9999.0000
      -9999.0000      -9999.0000      -9999.0000      -9999.0000      -9999.0000
      -9999.0000      -9999.0000      -9999.0000      -9999.0000      -9999.0000
      -9999.0000      -9999.0000      -9999.0000      -9999.0000      -9999.0000
      -9999.0000      -9999.0000      -9999.0000      -9999.0000      -9999.0000
      -9999.0000      -9999.0000      -9999.0000      -9999.0000      -9999.0000
      -9999.0000      -9999.0000      -9999.0000      -9999.0000      -9999.0000
      -9999.0000      -9999.0000      -9999.0000      -9999.0000      -9999.0000
      -9999.0000      -9999.0000      -9999.0000      -9999.0000      -9999.0000
      -9999.0000      -9999.0000      -9999.0000      -9999.0000      -9999.0000
      -9999.0000      -9999.0000      -9999.0000      -9999.0000      -9999.0000
      -9999.0000      -9999.0000      -9999.0000      -9999.0000      -9999.0000
      -9999.0000      -9999.0000      -9999.0000      -9999.0000      -9999.0000
      -9999.0000      -9999.0000      -9999.0000      -9999.0000      -9999.0000
      -9999.0000      -9999.0000      -9999.0000      -9999.0000      -9999.0000
      -9999.0000      -9999.0000      -9999.0000      -9999.0000      -9999.0000
      -9999.0000      -9999.0000      -9999.0000      -9999.0000      -9999.0000
      -9999.0000      -9999.0000      -9999.0000      -9999.0000      -9999.0000
      -9999.0000       44.000000       44.000000       44.000000       44.000000
       44.000000       44.000000       44.000000       44.000000       44.000000
       44.000000       44.000000       44.000000       43.000000       43.000000
       43.000000      -9999.0000      -9999.0000      -9999.0000      -9999.0000
      -9999.0000      -9999.0000      -9999.0000      -9999.0000      -9999.0000
      -9999.0000      -9999.0000      -9999.0000      -9999.0000      -9999.0000
      -9999.0000      -9999.0000      -9999.0000      -9999.0000      -9999.0000
      -9999.0000      -9999.0000      -9999.0000      -9999.0000      -9999.0000
      -9999.0000      -9999.0000      -9999.0000      -9999.0000      -9999.0000
      -9999.0000      -9999.0000      -9999.0000      -9999.0000      -9999.0000
      -9999.0000      -9999.0000      -9999.0000      -9999.0000      -9999.0000
      -9999.0000      -9999.0000      -9999.0000      -9999.0000      -9999.0000
      -9999.0000      -9999.0000      -9999.0000      -9999.0000      -9999.0000
      -9999.0000      -9999.0000      -9999.0000      -9999.0000      -9999.0000
      -9999.0000      -9999.0000      -9999.0000      -9999.0000      -9999.0000
      -9999.0000      -9999.0000      -9999.0000      -9999.0000      -9999.0000
      -9999.0000      -9999.0000      -9999.0000      -9999.0000      -9999.0000
      -9999.0000      -9999.0000      -9999.0000      -9999.0000      -9999.0000
      -9999.0000      -9999.0000      -9999.0000      -9999.0000      -9999.0000
      -9999.0000      -9999.0000      -9999.0000      -9999.0000      -9999.0000
      -9999.0000      -9999.0000      -9999.0000      -9999.0000      -9999.0000
      -9999.0000      -9999.0000      -9999.0000      -9999.0000       43.000000
       43.000000       43.000000       43.000000       44.000000       44.000000
       44.000000       44.000000       44.000000       44.000000       44.000000
       44.000000       44.000000       44.000000       43.000000       43.000000
      -9999.0000      -9999.0000      -9999.0000      -9999.0000      -9999.0000
      -9999.0000      -9999.0000      -9999.0000      -9999.0000      -9999.0000
      -9999.0000      -9999.0000      -9999.0000      -9999.0000      -9999.0000
      -9999.0000      -9999.0000      -9999.0000      -9999.0000      -9999.0000
      -9999.0000      -9999.0000      -9999.0000      -9999.0000      -9999.0000
      -9999.0000      -9999.0000      -9999.0000      -9999.0000      -9999.0000
      -9999.0000      -9999.0000      -9999.0000      -9999.0000      -9999.0000
      -9999.0000      -9999.0000      -9999.0000      -9999.0000      -9999.0000
      -9999.0000      -9999.0000      -9999.0000      -9999.0000      -9999.0000
      -9999.0000      -9999.0000      -9999.0000      -9999.0000      -9999.0000
      -9999.0000      -9999.0000      -9999.0000      -9999.0000      -9999.0000
      -9999.0000      -9999.0000      -9999.0000      -9999.0000      -9999.0000
      -9999.0000      -9999.0000      -9999.0000      -9999.0000      -9999.0000
      -9999.0000      -9999.0000      -9999.0000      -9999.0000      -9999.0000
      -9999.0000      -9999.0000      -9999.0000      -9999.0000      -9999.0000
      -9999.0000      -9999.0000      -9999.0000      -9999.0000      -9999.0000
      -9999.0000      -9999.0000      -9999.0000      -9999.0000      -9999.0000
      -9999.0000      -9999.0000      -9999.0000      -9999.0000      -9999.0000
      -9999.0000      -9999.0000      -9999.0000       43.000000       43.000000
       43.000000       43.000000       43.000000       44.000000       44.000000
       44.000000       44.000000       44.000000       44.000000       44.000000
       44.000000       44.000000       44.000000       44.000000       44.000000
      -9999.0000      -9999.0000      -9999.0000      -9999.0000      -9999.0000
      -9999.0000      -9999.0000      -9999.0000      -9999.0000      -9999.0000
      -9999.0000      -9999.0000      -9999.0000      -9999.0000      -9999.0000
      -9999.0000      -9999.0000      -9999.0000      -9999.0000      -9999.0000
      -9999.0000      -9999.0000      -9999.0000      -9999.0000      -9999.0000
      -9999.0000      -9999.0000      -9999.0000      -9999.0000      -9999.0000
      -9999.0000      -9999.0000      -9999.0000      -9999.0000      -9999.0000
      -9999.0000      -9999.0000      -9999.0000      -9999.0000      -9999.0000
      -9999.0000      -9999.0000      -9999.0000      -9999.0000      -9999.0000
      -9999.0000      -9999.0000      -9999.0000      -9999.0000      -9999.0000
      -9999.0000      -9999.0000      -9999.0000      -9999.0000      -9999.0000
      -9999.0000      -9999.0000      -9999.0000      -9999.0000      -9999.0000
      -9999.0000      -9999.0000      -9999.0000      -9999.0000      -9999.0000
      -9999.0000      -9999.0000      -9999.0000      -9999.0000      -9999.0000
      -9999.0000      -9999.0000      -9999.0000      -9999.0000      -9999.0000
      -9999.0000      -9999.0000      -9999.0000      -9999.0000      -9999.0000
      -9999.0000      -9999.0000      -9999.0000      -9999.0000      -9999.0000
      -9999.0000      -9999.0000      -9999.0000      -9999.0000      -9999.0000
       43.000000       43.000000       43.000000       43.000000       43.000000
       43.000000       43.000000       43.000000       43.000000       44.000000
       44.000000       44.000000       44.000000       44.000000       44.000000
       44.000000       44.000000       44.000000       44.000000       45.000000
      -9999.0000      -9999.0000      -9999.0000      -9999.0000      -9999.0000
      -9999.0000      -9999.0000      -9999.0000      -9999.0000      -9999.0000
      -9999.0000      -9999.0000      -9999.0000      -9999.0000      -9999.0000
      -9999.0000      -9999.0000      -9999.0000      -9999.0000      -9999.0000
      -9999.0000      -9999.0000      -9999.0000      -9999.0000      -9999.0000
      -9999.0000      -9999.0000      -9999.0000      -9999.0000      -9999.0000
      -9999.0000      -9999.0000      -9999.0000      -9999.0000      -9999.0000
      -9999.0000      -9999.0000      -9999.0000      -9999.0000      -9999.0000
      -9999.0000      -9999.0000      -9999.0000      -9999.0000      -9999.0000
      -9999.0000      -9999.0000      -9999.0000      -9999.0000      -9999.0000
      -9999.0000      -9999.0000      -9999.0000      -9999.0000      -9999.0000
      -9999.0000      -9999.0000      -9999.0000      -9999.0000      -9999.0000
      -9999.0000      -9999.0000      -9999.0000      -9999.0000      -9999.0000
      -9999.0000      -9999.0000      -9999.0000      -9999.0000      -9999.0000
      -9999.0000      -9999.0000      -9999.0000      -9999.0000      -9999.0000
      -9999.0000      -9999.0000      -9999.0000      -9999.0000      -9999.0000
      -9999.0000      -9999.0000      -9999.0000      -9999.0000      -9999.0000
      -9999.0000      -9999.0000      -9999.0000      -9999.0000       43.000000
       43.000000       43.000000       43.000000       43.000000       43.000000
       43.000000       43.000000       43.000000       43.000000       43.000000
       43.000000       44.000000       44.000000       44.000000       44.000000
       44.000000       44.000000       45.000000       45.000000      -9999.0000
      -9999.0000      -9999.0000      -9999.0000      -9999.0000      -9999.0000
      -9999.0000      -9999.0000      -9999.0000      -9999.0000      -9999.0000
      -9999.0000      -9999.0000      -9999.0000      -9999.0000      -9999.0000
      -9999.0000      -9999.0000      -9999.0000      -9999.0000      -9999.0000
      -9999.0000      -9999.0000      -9999.0000      -9999.0000      -9999.0000
      -9999.0000      -9999.0000      -9999.0000      -9999.0000      -9999.0000
      -9999.0000      -9999.0000      -9999.0000      -9999.0000      -9999.0000
      -9999.0000      -9999.0000      -9999.0000      -9999.0000      -9999.0000
      -9999.0000      -9999.0000      -9999.0000      -9999.0000      -9999.0000
      -9999.0000      -9999.0000      -9999.0000      -9999.0000      -9999.0000
      -9999.0000      -9999.0000      -9999.0000      -9999.0000      -9999.0000
      -9999.0000      -9999.0000      -9999.0000      -9999.0000      -9999.0000
      -9999.0000      -9999.0000      -9999.0000      -9999.0000      -9999.0000
      -9999.0000      -9999.0000      -9999.0000      -9999.0000      -9999.0000
      -9999.0000      -9999.0000      -9999.0000      -9999.0000      -9999.0000
      -9999.0000      -9999.0000      -9999.0000      -9999.0000      -9999.0000
      -9999.0000      -9999.0000      -9999.0000      -9999.0000      -9999.0000
      -9999.0000      -9999.0000      -9999.0000       43.000000       43.000000
       44.000000       44.000000       44.000000       44.000000       44.000000
       44.000000       44.000000       44.000000       44.000000       43.000000
       43.000000       43.000000       43.000000       44.000000       44.000000
       44.000000       45.000000       45.000000       46.000000       46.000000
      -9999.0000      -9999.0000      -9999.0000      -9999.0000      -9999.0000
      -9999.0000      -9999.0000      -9999.0000      -9999.0000      -9999.0000
      -9999.0000      -9999.0000      -9999.0000      -9999.0000      -9999.0000
      -9999.0000      -9999.0000      -9999.0000      -9999.0000      -9999.0000
      -9999.0000      -9999.0000      -9999.0000      -9999.0000      -9999.0000
      -9999.0000      -9999.0000      -9999.0000      -9999.0000      -9999.0000
      -9999.0000      -9999.0000      -9999.0000      -9999.0000      -9999.0000
      -9999.0000      -9999.0000      -9999.0000      -9999.0000      -9999.0000
      -9999.0000      -9999.0000      -9999.0000      -9999.0000      -9999.0000
      -9999.0000      -9999.0000      -9999.0000      -9999.0000      -9999.0000
      -9999.0000      -9999.0000      -9999.0000      -9999.0000      -9999.0000
      -9999.0000      -9999.0000      -9999.0000      -9999.0000      -9999.0000
      -9999.0000      -9999.0000      -9999.0000      -9999.0000      -9999.0000
      -9999.0000      -9999.0000      -9999.0000      -9999.0000      -9999.0000
      -9999.0000      -9999.0000      -9999.0000      -9999.0000      -9999.0000
      -9999.0000      -9999.0000      -9999.0000      -9999.0000      -9999.0000
      -9999.0000      -9999.0000      -9999.0000      -9999.0000      -9999.0000
      -9999.0000      -9999.0000      -9999.0000       44.000000       44.000000
       44.000000       44.000000       44.000000       44.000000       44.000000
       44.000000       44.000000       44.000000       44.000000       43.000000
       43.000000       43.000000       43.000000       43.000000       43.000000
       44.000000       45.000000       46.000000       46.000000      -9999.0000
      -9999.0000      -9999.0000      -9999.0000      -9999.0000      -9999.0000
      -9999.0000      -9999.0000      -9999.0000      -9999.0000      -9999.0000
      -9999.0000      -9999.0000      -9999.0000      -9999.0000      -9999.0000
      -9999.0000      -9999.0000      -9999.0000      -9999.0000      -9999.0000
      -9999.0000      -9999.0000      -9999.0000      -9999.0000      -9999.0000
      -9999.0000      -9999.0000      -9999.0000      -9999.0000      -9999.0000
      -9999.0000      -9999.0000      -9999.0000      -9999.0000      -9999.0000
      -9999.0000      -9999.0000      -9999.0000      -9999.0000      -9999.0000
      -9999.0000      -9999.0000      -9999.0000      -9999.0000      -9999.0000
      -9999.0000      -9999.0000      -9999.0000      -9999.0000      -9999.0000
      -9999.0000      -9999.0000      -9999.0000      -9999.0000      -9999.0000
      -9999.0000      -9999.0000      -9999.0000      -9999.0000      -9999.0000
      -9999.0000      -9999.0000      -9999.0000      -9999.0000      -9999.0000
      -9999.0000      -9999.0000      -9999.0000      -9999.0000      -9999.0000
      -9999.0000      -9999.0000      -9999.0000      -9999.0000      -9999.0000
      -9999.0000      -9999.0000      -9999.0000      -9999.0000      -9999.0000
      -9999.0000      -9999.0000      -9999.0000      -9999.0000      -9999.0000
      -9999.0000       43.000000       43.000000       44.000000       44.000000
       44.000000       44.000000       44.000000       44.000000       44.000000
       44.000000       44.000000       44.000000       44.000000       43.000000
       43.000000       43.000000       43.000000       43.000000       43.000000
       44.000000       45.000000       46.000000      -9999.0000      -9999.0000
      -9999.0000      -9999.0000      -9999.0000      -9999.0000      -9999.0000
      -9999.0000      -9999.0000      -9999.0000      -9999.0000      -9999.0000
      -9999.0000      -9999.0000      -9999.0000      -9999.0000      -9999.0000
      -9999.0000      -9999.0000      -9999.0000      -9999.0000      -9999.0000
      -9999.0000      -9999.0000      -9999.0000      -9999.0000      -9999.0000
      -9999.0000      -9999.0000      -9999.0000      -9999.0000      -9999.0000
      -9999.0000      -9999.0000      -9999.0000      -9999.0000      -9999.0000
      -9999.0000      -9999.0000      -9999.0000      -9999.0000      -9999.0000
      -9999.0000      -9999.0000      -9999.0000      -9999.0000      -9999.0000
      -9999.0000      -9999.0000      -9999.0000      -9999.0000      -9999.0000
      -9999.0000      -9999.0000      -9999.0000      -9999.0000      -9999.0000
      -9999.0000      -9999.0000      -9999.0000      -9999.0000      -9999.0000
      -9999.0000      -9999.0000      -9999.0000      -9999.0000      -9999.0000
      -9999.0000      -9999.0000      -9999.0000      -9999.0000      -9999.0000
      -9999.0000      -9999.0000      -9999.0000      -9999.0000      -9999.0000
      -9999.0000      -9999.0000      -9999.0000      -9999.0000      -9999.0000
      -9999.0000      -9999.0000      -9999.0000      -9999.0000       43.000000
       43.000000       43.000000       43.000000       43.000000       43.000000
       44.000000       44.000000       44.000000       44.000000       45.000000
       44.000000       44.000000       44.000000       44.000000       43.000000
       43.000000       43.000000       43.000000       43.000000       43.000000
       44.000000       45.000000       45.000000      -9999.0000      -9999.0000
      -9999.0000      -9999.0000      -9999.0000      -9999.0000      -9999.0000
      -9999.0000      -9999.0000      -9999.0000      -9999.0000      -9999.0000
      -9999.0000      -9999.0000      -9999.0000      -9999.0000      -9999.0000
      -9999.0000      -9999.0000      -9999.0000      -9999.0000      -9999.0000
      -9999.0000      -9999.0000      -9999.0000      -9999.0000      -9999.0000
      -9999.0000      -9999.0000      -9999.0000      -9999.0000      -9999.0000
      -9999.0000      -9999.0000      -9999.0000      -9999.0000      -9999.0000
      -9999.0000      -9999.0000      -9999.0000      -9999.0000      -9999.0000
      -9999.0000      -9999.0000      -9999.0000      -9999.0000      -9999.0000
      -9999.0000      -9999.0000      -9999.0000      -9999.0000      -9999.0000
      -9999.0000      -9999.0000      -9999.0000      -9999.0000      -9999.0000
      -9999.0000      -9999.0000      -9999.0000      -9999.0000      -9999.0000
      -9999.0000      -9999.0000      -9999.0000      -9999.0000      -9999.0000
      -9999.0000      -9999.0000      -9999.0000      -9999.0000      -9999.0000
      -9999.0000      -9999.0000      -9999.0000      -9999.0000      -9999.0000
      -9999.0000      -9999.0000      -9999.0000      -9999.0000      -9999.0000
      -9999.0000      -9999.0000      -9999.0000       44.000000       43.000000
       43.000000       43.000000       43.000000       43.000000       43.000000
       43.000000       44.000000       44.000000       44.000000       44.000000
       44.000000       44.000000       44.000000       44.000000       44.000000
       43.000000       43.000000       43.000000      -9999.0000      -9999.0000
      -9999.0000      -9999.0000      -9999.0000      -9999.0000      -9999.0000
      -9999.0000      -9999.0000      -9999.0000      -9999.0000      -9999.0000
      -9999.0000      -9999.0000      -9999.0000      -9999.0000      -9999.0000
      -9999.0000      -9999.0000      -9999.0000      -9999.0000      -9999.0000
      -9999.0000      -9999.0000      -9999.0000      -9999.0000      -9999.0000
      -9999.0000      -9999.0000      -9999.0000      -9999.0000      -9999.0000
      -9999.0000      -9999.0000      -9999.0000      -9999.0000      -9999.0000
      -9999.0000      -9999.0000      -9999.0000      -9999.0000      -9999.0000
      -9999.0000      -9999.0000      -9999.0000      -9999.0000      -9999.0000
      -9999.0000      -9999.0000      -9999.0000      -9999.0000      -9999.0000
      -9999.0000      -9999.0000      -9999.0000      -9999.0000      -9999.0000
      -9999.0000      -9999.0000      -9999.0000      -9999.0000      -9999.0000
      -9999.0000      -9999.0000      -9999.0000      -9999.0000      -9999.0000
      -9999.0000      -9999.0000      -9999.0000      -9999.0000      -9999.0000
      -9999.0000      -9999.0000      -9999.0000      -9999.0000      -9999.0000
      -9999.0000      -9999.0000      -9999.0000      -9999.0000      -9999.0000
      -9999.0000      -9999.0000      -9999.0000      -9999.0000      -9999.0000
      -9999.0000      -9999.0000       44.000000       43.000000       43.000000
       43.000000       43.000000       43.000000       43.000000       43.000000
       43.000000       44.000000       44.000000       44.000000       44.000000
       44.000000       44.000000       44.000000       44.000000       44.000000
       43.000000       43.000000      -9999.0000      -9999.0000      -9999.0000
      -9999.0000      -9999.0000      -9999.0000      -9999.0000      -9999.0000
      -9999.0000      -9999.0000      -9999.0000      -9999.0000      -9999.0000
      -9999.0000      -9999.0000      -9999.0000      -9999.0000      -9999.0000
      -9999.0000      -9999.0000      -9999.0000      -9999.0000      -9999.0000
      -9999.0000      -9999.0000      -9999.0000      -9999.0000      -9999.0000
      -9999.0000      -9999.0000      -9999.0000      -9999.0000      -9999.0000
      -9999.0000      -9999.0000      -9999.0000      -9999.0000      -9999.0000
      -9999.0000      -9999.0000      -9999.0000      -9999.0000      -9999.0000
      -9999.0000      -9999.0000      -9999.0000      -9999.0000      -9999.0000
      -9999.0000      -9999.0000      -9999.0000      -9999.0000      -9999.0000
      -9999.0000      -9999.0000      -9999.0000      -9999.0000      -9999.0000
      -9999.0000      -9999.0000      -9999.0000      -9999.0000      -9999.0000
      -9999.0000      -9999.0000      -9999.0000      -9999.0000      -9999.0000
      -9999.0000      -9999.0000      -9999.0000      -9999.0000      -9999.0000
      -9999.0000      -9999.0000      -9999.0000      -9999.0000      -9999.0000
      -9999.0000      -9999.0000      -9999.0000      -9999.0000      -9999.0000
      -9999.0000      -9999.0000      -9999.0000      -9999.0000      -9999.0000
      -9999.0000       44.000000       43.000000       43.000000       43.000000
       43.000000       43.000000       43.000000       43.000000       43.000000
       43.000000       43.000000       43.000000       43.000000       43.000000
       44.000000       44.000000       44.000000       44.000000       44.000000
       44.000000      -9999.0000      -9999.0000      -9999.0000      -9999.0000
      -9999.0000      -9999.0000      -9999.0000      -9999.0000      -9999.0000
      -9999.0000      -9999.0000      -9999.0000      -9999.0000      -9999.0000
      -9999.0000      -9999.0000      -9999.0000      -9999.0000      -9999.0000
      -9999.0000      -9999.0000      -9999.0000      -9999.0000      -9999.0000
      -9999.0000      -9999.0000      -9999.0000      -9999.0000      -9999.0000
      -9999.0000      -9999.0000      -9999.0000      -9999.0000      -9999.0000
      -9999.0000      -9999.0000      -9999.0000      -9999.0000      -9999.0000
      -9999.0000      -9999.0000      -9999.0000      -9999.0000      -9999.0000
      -9999.0000      -9999.0000      -9999.0000      -9999.0000      -9999.0000
      -9999.0000      -9999.0000      -9999.0000      -9999.0000      -9999.0000
      -9999.0000      -9999.0000      -9999.0000      -9999.0000      -9999.0000
      -9999.0000      -9999.0000      -9999.0000      -9999.0000      -9999.0000
      -9999.0000      -9999.0000      -9999.0000      -9999.0000      -9999.0000
      -9999.0000      -9999.0000      -9999.0000      -9999.0000      -9999.0000
      -9999.0000      -9999.0000      -9999.0000      -9999.0000      -9999.0000
      -9999.0000      -9999.0000      -9999.0000      -9999.0000      -9999.0000
      -9999.0000      -9999.0000      -9999.0000      -9999.0000      -9999.0000
       45.000000       43.000000       43.000000       43.000000       43.000000
       43.000000       43.000000       43.000000       43.000000       43.000000
       43.000000       43.000000       43.000000       43.000000       43.000000
       43.000000       43.000000       44.000000       44.000000       44.000000
      -9999.0000      -9999.0000      -9999.0000      -9999.0000      -9999.0000
      -9999.0000      -9999.0000      -9999.0000      -9999.0000      -9999.0000
      -9999.0000      -9999.0000      -9999.0000      -9999.0000      -9999.0000
      -9999.0000      -9999.0000      -9999.0000      -9999.0000      -9999.0000
      -9999.0000      -9999.0000      -9999.0000      -9999.0000      -9999.0000
      -9999.0000      -9999.0000      -9999.0000      -9999.0000      -9999.0000
      -9999.0000      -9999.0000      -9999.0000      -9999.0000      -9999.0000
      -9999.0000      -9999.0000      -9999.0000      -9999.0000      -9999.0000
      -9999.0000      -9999.0000      -9999.0000      -9999.0000      -9999.0000
      -9999.0000      -9999.0000      -9999.0000      -9999.0000      -9999.0000
      -9999.0000      -9999.0000      -9999.0000      -9999.0000      -9999.0000
      -9999.0000      -9999.0000      -9999.0000      -9999.0000      -9999.0000
      -9999.0000      -9999.0000      -9999.0000      -9999.0000      -9999.0000
      -9999.0000      -9999.0000      -9999.0000      -9999.0000      -9999.0000
      -9999.0000      -9999.0000      -9999.0000      -9999.0000      -9999.0000
      -9999.0000      -9999.0000      -9999.0000      -9999.0000      -9999.0000
      -9999.0000      -9999.0000      -9999.0000      -9999.0000      -9999.0000
      -9999.0000      -9999.0000      -9999.0000      -9999.0000       44.000000
       43.000000       43.000000       43.000000       43.000000       44.000000
       44.000000       44.000000       44.000000       44.000000       43.000000
       43.000000       43.000000       43.000000       43.000000       43.000000
       43.000000       43.000000       43.000000       43.000000      -9999.0000
      -9999.0000      -9999.0000      -9999.0000      -9999.0000      -9999.0000
      -9999.0000      -9999.0000      -9999.0000      -9999.0000      -9999.0000
      -9999.0000      -9999.0000      -9999.0000      -9999.0000      -9999.0000
      -9999.0000      -9999.0000      -9999.0000      -9999.0000      -9999.0000
      -9999.0000      -9999.0000      -9999.0000      -9999.0000      -9999.0000
      -9999.0000      -9999.0000      -9999.0000      -9999.0000      -9999.0000
      -9999.0000      -9999.0000      -9999.0000      -9999.0000      -9999.0000
      -9999.0000      -9999.0000      -9999.0000      -9999.0000      -9999.0000
      -9999.0000      -9999.0000      -9999.0000      -9999.0000      -9999.0000
      -9999.0000      -9999.0000      -9999.0000      -9999.0000      -9999.0000
      -9999.0000      -9999.0000      -9999.0000      -9999.0000      -9999.0000
      -9999.0000      -9999.0000      -9999.0000      -9999.0000      -9999.0000
      -9999.0000      -9999.0000      -9999.0000      -9999.0000      -9999.0000
      -9999.0000      -9999.0000      -9999.0000      -9999.0000      -9999.0000
      -9999.0000      -9999.0000      -9999.0000      -9999.0000      -9999.0000
      -9999.0000      -9999.0000      -9999.0000      -9999.0000      -9999.0000
      -9999.0000      -9999.0000      -9999.0000      -9999.0000      -9999.0000
      -9999.0000      -9999.0000      -9999.0000       43.000000       43.000000
       43.000000       43.000000       44.000000       44.000000       44.000000
       44.000000       44.000000       44.000000       44.000000       43.000000
       43.000000       43.000000       43.000000       43.000000       43.000000
       43.000000       43.000000       43.000000       43.000000       43.000000
      -9999.0000      -9999.0000      -9999.0000      -9999.0000      -9999.0000
      -9999.0000      -9999.0000      -9999.0000      -9999.0000      -9999.0000
      -9999.0000      -9999.0000      -9999.0000      -9999.0000      -9999.0000
      -9999.0000      -9999.0000      -9999.0000      -9999.0000      -9999.0000
      -9999.0000      -9999.0000      -9999.0000      -9999.0000      -9999.0000
      -9999.0000      -9999.0000      -9999.0000      -9999.0000      -9999.0000
      -9999.0000      -9999.0000      -9999.0000      -9999.0000      -9999.0000
      -9999.0000      -9999.0000      -9999.0000      -9999.0000      -9999.0000
      -9999.0000      -9999.0000      -9999.0000      -9999.0000      -9999.0000
      -9999.0000      -9999.0000      -9999.0000      -9999.0000      -9999.0000
      -9999.0000      -9999.0000      -9999.0000      -9999.0000      -9999.0000
      -9999.0000      -9999.0000      -9999.0000      -9999.0000      -9999.0000
      -9999.0000      -9999.0000      -9999.0000      -9999.0000      -9999.0000
      -9999.0000      -9999.0000      -9999.0000      -9999.0000      -9999.0000
      -9999.0000      -9999.0000      -9999.0000      -9999.0000      -9999.0000
      -9999.0000      -9999.0000      -9999.0000      -9999.0000      -9999.0000
      -9999.0000      -9999.0000      -9999.0000      -9999.0000      -9999.0000
      -9999.0000      -9999.0000      -9999.0000       43.000000       43.000000
       44.000000       44.000000       44.000000       44.000000       44.000000
       44.000000       44.000000       44.000000       44.000000       44.000000
       44.000000       43.000000       43.000000       43.000000       43.000000
       43.000000       43.000000       43.000000       43.000000      -9999.0000
      -9999.0000      -9999.0000      -9999.0000      -9999.0000      -9999.0000
      -9999.0000      -9999.0000      -9999.0000      -9999.0000      -9999.0000
      -9999.0000      -9999.0000      -9999.0000      -9999.0000      -9999.0000
      -9999.0000      -9999.0000      -9999.0000      -9999.0000      -9999.0000
      -9999.0000      -9999.0000      -9999.0000      -9999.0000      -9999.0000
      -9999.0000      -9999.0000      -9999.0000      -9999.0000      -9999.0000
      -9999.0000      -9999.0000      -9999.0000      -9999.0000      -9999.0000
      -9999.0000      -9999.0000      -9999.0000      -9999.0000      -9999.0000
      -9999.0000      -9999.0000      -9999.0000      -9999.0000      -9999.0000
      -9999.0000      -9999.0000      -9999.0000      -9999.0000      -9999.0000
      -9999.0000      -9999.0000      -9999.0000      -9999.0000      -9999.0000
      -9999.0000      -9999.0000      -9999.0000      -9999.0000      -9999.0000
      -9999.0000      -9999.0000      -9999.0000      -9999.0000      -9999.0000
      -9999.0000      -9999.0000      -9999.0000      -9999.0000      -9999.0000
      -9999.0000      -9999.0000      -9999.0000      -9999.0000      -9999.0000
      -9999.0000      -9999.0000      -9999.0000      -9999.0000      -9999.0000
      -9999.0000      -9999.0000      -9999.0000      -9999.0000      -9999.0000
      -9999.0000      -9999.0000       43.000000       43.000000       43.000000
       43.000000       43.000000       44.000000       44.000000       44.000000
       44.000000       44.000000       44.000000       44.000000       44.000000
       44.000000       44.000000       43.000000       43.000000       43.000000
       43.000000       43.000000       43.000000       43.000000      -9999.0000
      -9999.0000      -9999.0000      -9999.0000      -9999.0000      -9999.0000
      -9999.0000      -9999.0000      -9999.0000      -9999.0000      -9999.0000
      -9999.0000      -9999.0000      -9999.0000      -9999.0000      -9999.0000
      -9999.0000      -9999.0000      -9999.0000      -9999.0000      -9999.0000
      -9999.0000      -9999.0000      -9999.0000      -9999.0000      -9999.0000
      -9999.0000      -9999.0000      -9999.0000      -9999.0000      -9999.0000
      -9999.0000      -9999.0000      -9999.0000      -9999.0000      -9999.0000
      -9999.0000      -9999.0000      -9999.0000      -9999.0000      -9999.0000
      -9999.0000      -9999.0000      -9999.0000      -9999.0000      -9999.0000
      -9999.0000      -9999.0000      -9999.0000      -9999.0000      -9999.0000
      -9999.0000      -9999.0000      -9999.0000      -9999.0000      -9999.0000
      -9999.0000      -9999.0000      -9999.0000      -9999.0000      -9999.0000
      -9999.0000      -9999.0000      -9999.0000      -9999.0000      -9999.0000
      -9999.0000      -9999.0000      -9999.0000      -9999.0000      -9999.0000
      -9999.0000      -9999.0000      -9999.0000      -9999.0000      -9999.0000
      -9999.0000      -9999.0000      -9999.0000      -9999.0000      -9999.0000
      -9999.0000      -9999.0000      -9999.0000      -9999.0000      -9999.0000
       43.000000       43.000000       43.000000       43.000000       43.000000
       43.000000       43.000000       43.000000       43.000000       44.000000
       44.000000       44.000000       44.000000       44.000000       44.000000
       44.000000       44.000000       44.000000       44.000000       43.000000
       43.000000       43.000000       43.000000       43.000000      -9999.0000
      -9999.0000      -9999.0000      -9999.0000      -9999.0000      -9999.0000
      -9999.0000      -9999.0000      -9999.0000      -9999.0000      -9999.0000
      -9999.0000      -9999.0000      -9999.0000      -9999.0000      -9999.0000
      -9999.0000      -9999.0000      -9999.0000      -9999.0000      -9999.0000
      -9999.0000      -9999.0000      -9999.0000      -9999.0000      -9999.0000
      -9999.0000      -9999.0000      -9999.0000      -9999.0000      -9999.0000
      -9999.0000      -9999.0000      -9999.0000      -9999.0000      -9999.0000
      -9999.0000      -9999.0000      -9999.0000      -9999.0000      -9999.0000
      -9999.0000      -9999.0000      -9999.0000      -9999.0000      -9999.0000
      -9999.0000      -9999.0000      -9999.0000      -9999.0000      -9999.0000
      -9999.0000      -9999.0000      -9999.0000      -9999.0000      -9999.0000
      -9999.0000      -9999.0000      -9999.0000      -9999.0000      -9999.0000
      -9999.0000      -9999.0000      -9999.0000      -9999.0000      -9999.0000
      -9999.0000      -9999.0000      -9999.0000      -9999.0000      -9999.0000
      -9999.0000      -9999.0000      -9999.0000      -9999.0000      -9999.0000
      -9999.0000      -9999.0000      -9999.0000      -9999.0000      -9999.0000
      -9999.0000      -9999.0000      -9999.0000      -9999.0000       43.000000
       43.000000       43.000000       43.000000       43.000000       43.000000
       43.000000       43.000000       43.000000       43.000000       43.000000
       43.000000       43.000000       44.000000       44.000000       44.000000
       44.000000       44.000000       44.000000       44.000000       44.000000
       43.000000       43.000000      -9999.0000      -9999.0000      -9999.0000
      -9999.0000      -9999.0000      -9999.0000      -9999.0000      -9999.0000
      -9999.0000      -9999.0000      -9999.0000      -9999.0000      -9999.0000
      -9999.0000      -9999.0000      -9999.0000      -9999.0000      -9999.0000
      -9999.0000      -9999.0000      -9999.0000      -9999.0000      -9999.0000
      -9999.0000      -9999.0000      -9999.0000      -9999.0000      -9999.0000
      -9999.0000      -9999.0000      -9999.0000      -9999.0000      -9999.0000
      -9999.0000      -9999.0000      -9999.0000      -9999.0000      -9999.0000
      -9999.0000      -9999.0000      -9999.0000      -9999.0000      -9999.0000
      -9999.0000      -9999.0000      -9999.0000      -9999.0000      -9999.0000
      -9999.0000      -9999.0000      -9999.0000      -9999.0000      -9999.0000
      -9999.0000      -9999.0000      -9999.0000      -9999.0000      -9999.0000
      -9999.0000      -9999.0000      -9999.0000      -9999.0000      -9999.0000
      -9999.0000      -9999.0000      -9999.0000      -9999.0000      -9999.0000
      -9999.0000      -9999.0000      -9999.0000      -9999.0000      -9999.0000
      -9999.0000      -9999.0000      -9999.0000      -9999.0000      -9999.0000
      -9999.0000      -9999.0000      -9999.0000      -9999.0000      -9999.0000
      -9999.0000      -9999.0000      -9999.0000       43.000000       43.000000
       43.000000       43.000000       43.000000       43.000000       43.000000
       43.000000       43.000000       43.000000       43.000000       43.000000
       43.000000       43.000000       43.000000       43.000000       44.000000
       44.000000       44.000000       44.000000       44.000000       44.000000
       44.000000       44.000000      -9999.0000      -9999.0000      -9999.0000
      -9999.0000      -9999.0000      -9999.0000      -9999.0000      -9999.0000
      -9999.0000      -9999.0000      -9999.0000      -9999.0000      -9999.0000
      -9999.0000      -9999.0000      -9999.0000      -9999.0000      -9999.0000
      -9999.0000      -9999.0000      -9999.0000      -9999.0000      -9999.0000
      -9999.0000      -9999.0000      -9999.0000      -9999.0000      -9999.0000
      -9999.0000      -9999.0000      -9999.0000      -9999.0000      -9999.0000
      -9999.0000      -9999.0000      -9999.0000      -9999.0000      -9999.0000
      -9999.0000      -9999.0000      -9999.0000      -9999.0000      -9999.0000
      -9999.0000      -9999.0000      -9999.0000      -9999.0000      -9999.0000
      -9999.0000      -9999.0000      -9999.0000      -9999.0000      -9999.0000
      -9999.0000      -9999.0000      -9999.0000      -9999.0000      -9999.0000
      -9999.0000      -9999.0000      -9999.0000      -9999.0000      -9999.0000
      -9999.0000      -9999.0000      -9999.0000      -9999.0000      -9999.0000
      -9999.0000      -9999.0000      -9999.0000      -9999.0000      -9999.0000
      -9999.0000      -9999.0000      -9999.0000      -9999.0000      -9999.0000
      -9999.0000      -9999.0000      -9999.0000      -9999.0000      -9999.0000
      -9999.0000       43.000000       43.000000       43.000000       43.000000
       43.000000       43.000000       43.000000       43.000000       43.000000
       43.000000       43.000000       43.000000       43.000000       43.000000
       43.000000       43.000000       43.000000       43.000000       43.000000
       43.000000       44.000000       44.000000       44.000000       44.000000
       44.000000       44.000000      -9999.0000      -9999.0000      -9999.0000
      -9999.0000      -9999.0000      -9999.0000      -9999.0000      -9999.0000
      -9999.0000      -9999.0000      -9999.0000      -9999.0000      -9999.0000
      -9999.0000      -9999.0000      -9999.0000      -9999.0000      -9999.0000
      -9999.0000      -9999.0000      -9999.0000      -9999.0000      -9999.0000
      -9999.0000      -9999.0000      -9999.0000      -9999.0000      -9999.0000
      -9999.0000      -9999.0000      -9999.0000      -9999.0000      -9999.0000
      -9999.0000      -9999.0000      -9999.0000      -9999.0000      -9999.0000
      -9999.0000      -9999.0000      -9999.0000      -9999.0000      -9999.0000
      -9999.0000      -9999.0000      -9999.0000      -9999.0000      -9999.0000
      -9999.0000      -9999.0000      -9999.0000      -9999.0000      -9999.0000
      -9999.0000      -9999.0000      -9999.0000      -9999.0000      -9999.0000
      -9999.0000      -9999.0000      -9999.0000      -9999.0000      -9999.0000
      -9999.0000      -9999.0000      -9999.0000      -9999.0000      -9999.0000
      -9999.0000      -9999.0000      -9999.0000      -9999.0000      -9999.0000
      -9999.0000      -9999.0000      -9999.0000      -9999.0000      -9999.0000
      -9999.0000      -9999.0000      -9999.0000      -9999.0000      -9999.0000
       43.000000       43.000000       43.000000       44.000000       43.000000
       43.000000       43.000000       43.000000       43.000000       43.000000
       43.000000       43.000000       43.000000       43.000000       43.000000
       43.000000       43.000000       43.000000       43.000000       43.000000
       43.000000       43.000000       43.000000       44.000000       44.000000
      -9999.0000      -9999.0000      -9999.0000      -9999.0000      -9999.0000
      -9999.0000      -9999.0000      -9999.0000      -9999.0000      -9999.0000
      -9999.0000      -9999.0000      -9999.0000      -9999.0000      -9999.0000
      -9999.0000      -9999.0000      -9999.0000      -9999.0000      -9999.0000
      -9999.0000      -9999.0000      -9999.0000      -9999.0000      -9999.0000
      -9999.0000      -9999.0000      -9999.0000      -9999.0000      -9999.0000
      -9999.0000      -9999.0000      -9999.0000      -9999.0000      -9999.0000
      -9999.0000      -9999.0000      -9999.0000      -9999.0000      -9999.0000
      -9999.0000      -9999.0000      -9999.0000      -9999.0000      -9999.0000
      -9999.0000      -9999.0000      -9999.0000      -9999.0000      -9999.0000
      -9999.0000      -9999.0000      -9999.0000      -9999.0000      -9999.0000
      -9999.0000      -9999.0000      -9999.0000      -9999.0000      -9999.0000
      -9999.0000      -9999.0000      -9999.0000      -9999.0000      -9999.0000
      -9999.0000      -9999.0000      -9999.0000      -9999.0000      -9999.0000
      -9999.0000      -9999.0000      -9999.0000      -9999.0000      -9999.0000
      -9999.0000      -9999.0000      -9999.0000      -9999.0000      -9999.0000
      -9999.0000      -9999.0000      -9999.0000       45.000000       43.000000
       43.000000       44.000000       44.000000       44.000000       43.000000
       43.000000       43.000000       43.000000       43.000000       43.000000
       43.000000       43.000000       43.000000       43.000000       43.000000
       43.000000       43.000000       43.000000       43.000000       43.000000
       43.000000       43.000000       43.000000       43.000000      -9999.0000
      -9999.0000      -9999.0000      -9999.0000      -9999.0000      -9999.0000
      -9999.0000      -9999.0000      -9999.0000      -9999.0000      -9999.0000
      -9999.0000      -9999.0000      -9999.0000      -9999.0000      -9999.0000
      -9999.0000      -9999.0000      -9999.0000      -9999.0000      -9999.0000
      -9999.0000      -9999.0000      -9999.0000      -9999.0000      -9999.0000
      -9999.0000      -9999.0000      -9999.0000      -9999.0000      -9999.0000
      -9999.0000      -9999.0000      -9999.0000      -9999.0000      -9999.0000
      -9999.0000      -9999.0000      -9999.0000      -9999.0000      -9999.0000
      -9999.0000      -9999.0000      -9999.0000      -9999.0000      -9999.0000
      -9999.0000      -9999.0000      -9999.0000      -9999.0000      -9999.0000
      -9999.0000      -9999.0000      -9999.0000      -9999.0000      -9999.0000
      -9999.0000      -9999.0000      -9999.0000      -9999.0000      -9999.0000
      -9999.0000      -9999.0000      -9999.0000      -9999.0000      -9999.0000
      -9999.0000      -9999.0000      -9999.0000      -9999.0000      -9999.0000
      -9999.0000      -9999.0000      -9999.0000      -9999.0000      -9999.0000
      -9999.0000      -9999.0000      -9999.0000      -9999.0000      -9999.0000
      -9999.0000       43.000000       43.000000       43.000000       44.000000
       45.000000       44.000000       43.000000       43.000000       43.000000
       43.000000       43.000000       43.000000       43.000000       43.000000
       43.000000       43.000000       43.000000       43.000000       43.000000
       43.000000       43.000000       43.000000       43.000000       43.000000
       43.000000       43.000000       43.000000       43.000000      -9999.0000
      -9999.0000      -9999.0000      -9999.0000      -9999.0000      -9999.0000
      -9999.0000      -9999.0000      -9999.0000      -9999.0000      -9999.0000
      -9999.0000      -9999.0000      -9999.0000      -9999.0000      -9999.0000
      -9999.0000      -9999.0000      -9999.0000      -9999.0000      -9999.0000
      -9999.0000      -9999.0000      -9999.0000      -9999.0000      -9999.0000
      -9999.0000      -9999.0000      -9999.0000      -9999.0000      -9999.0000
      -9999.0000      -9999.0000      -9999.0000      -9999.0000      -9999.0000
      -9999.0000      -9999.0000      -9999.0000      -9999.0000      -9999.0000
      -9999.0000      -9999.0000      -9999.0000      -9999.0000      -9999.0000
      -9999.0000      -9999.0000      -9999.0000      -9999.0000      -9999.0000
      -9999.0000      -9999.0000      -9999.0000      -9999.0000      -9999.0000
      -9999.0000      -9999.0000      -9999.0000      -9999.0000      -9999.0000
      -9999.0000      -9999.0000      -9999.0000      -9999.0000      -9999.0000
      -9999.0000      -9999.0000      -9999.0000      -9999.0000      -9999.0000
      -9999.0000      -9999.0000      -9999.0000      -9999.0000      -9999.0000
      -9999.0000      -9999.0000      -9999.0000      -9999.0000       45.000000
       44.000000       44.000000       44.000000       45.000000       45.000000
       45.000000       43.000000       43.000000       43.000000       43.000000
       43.000000       43.000000       43.000000       43.000000       43.000000
       43.000000       43.000000       43.000000       43.000000       43.000000
       43.000000       43.000000       43.000000       43.000000       43.000000
       43.000000       43.000000       43.000000       43.000000       43.000000
       44.000000      -9999.0000      -9999.0000      -9999.0000      -9999.0000
      -9999.0000      -9999.0000      -9999.0000      -9999.0000      -9999.0000
      -9999.0000      -9999.0000      -9999.0000      -9999.0000      -9999.0000
      -9999.0000      -9999.0000      -9999.0000      -9999.0000      -9999.0000
      -9999.0000      -9999.0000      -9999.0000      -9999.0000      -9999.0000
      -9999.0000      -9999.0000      -9999.0000      -9999.0000      -9999.0000
      -9999.0000      -9999.0000      -9999.0000      -9999.0000      -9999.0000
      -9999.0000      -9999.0000      -9999.0000      -9999.0000      -9999.0000
      -9999.0000      -9999.0000      -9999.0000      -9999.0000      -9999.0000
      -9999.0000      -9999.0000      -9999.0000      -9999.0000      -9999.0000
      -9999.0000      -9999.0000      -9999.0000      -9999.0000      -9999.0000
      -9999.0000      -9999.0000      -9999.0000      -9999.0000      -9999.0000
      -9999.0000      -9999.0000      -9999.0000      -9999.0000      -9999.0000
      -9999.0000      -9999.0000      -9999.0000      -9999.0000      -9999.0000
      -9999.0000      -9999.0000      -9999.0000      -9999.0000      -9999.0000
      -9999.0000       46.000000       45.000000       45.000000       45.000000
       45.000000       45.000000       45.000000       45.000000       44.000000
       43.000000       43.000000       43.000000       43.000000       43.000000
       43.000000       43.000000       43.000000       43.000000       43.000000
       43.000000       43.000000       43.000000       43.000000       44.000000
       44.000000       44.000000       43.000000       43.000000       43.000000
       43.000000       43.000000       43.000000       43.000000      -9999.0000
      -9999.0000      -9999.0000      -9999.0000      -9999.0000      -9999.0000
      -9999.0000      -9999.0000      -9999.0000      -9999.0000      -9999.0000
      -9999.0000      -9999.0000      -9999.0000      -9999.0000      -9999.0000
      -9999.0000      -9999.0000      -9999.0000      -9999.0000      -9999.0000
      -9999.0000      -9999.0000      -9999.0000      -9999.0000      -9999.0000
      -9999.0000      -9999.0000      -9999.0000      -9999.0000      -9999.0000
      -9999.0000      -9999.0000      -9999.0000      -9999.0000      -9999.0000
      -9999.0000      -9999.0000      -9999.0000      -9999.0000      -9999.0000
      -9999.0000      -9999.0000      -9999.0000      -9999.0000      -9999.0000
      -9999.0000      -9999.0000      -9999.0000      -9999.0000      -9999.0000
      -9999.0000      -9999.0000      -9999.0000      -9999.0000      -9999.0000
      -9999.0000      -9999.0000      -9999.0000      -9999.0000      -9999.0000
      -9999.0000      -9999.0000      -9999.0000      -9999.0000      -9999.0000
      -9999.0000      -9999.0000      -9999.0000      -9999.0000      -9999.0000
      -9999.0000      -9999.0000      -9999.0000      -9999.0000       46.000000
       46.000000       46.000000       46.000000       46.000000       46.000000
       46.000000       45.000000       45.000000       43.000000       43.000000
       43.000000       43.000000       43.000000       43.000000       43.000000
       43.000000       43.000000       43.000000       43.000000       43.000000
       43.000000       43.000000       43.000000       44.000000       44.000000
       44.000000       44.000000       44.000000       44.000000       43.000000
       43.000000       43.000000      -9999.0000      -9999.0000      -9999.0000
      -9999.0000      -9999.0000      -9999.0000      -9999.0000      -9999.0000
      -9999.0000      -9999.0000      -9999.0000      -9999.0000      -9999.0000
      -9999.0000      -9999.0000      -9999.0000      -9999.0000      -9999.0000
      -9999.0000      -9999.0000      -9999.0000      -9999.0000      -9999.0000
      -9999.0000      -9999.0000      -9999.0000      -9999.0000      -9999.0000
      -9999.0000      -9999.0000      -9999.0000      -9999.0000      -9999.0000
      -9999.0000      -9999.0000      -9999.0000      -9999.0000      -9999.0000
      -9999.0000      -9999.0000      -9999.0000      -9999.0000      -9999.0000
      -9999.0000      -9999.0000      -9999.0000      -9999.0000      -9999.0000
      -9999.0000      -9999.0000      -9999.0000      -9999.0000      -9999.0000
      -9999.0000      -9999.0000      -9999.0000      -9999.0000      -9999.0000
      -9999.0000      -9999.0000      -9999.0000      -9999.0000      -9999.0000
      -9999.0000      -9999.0000      -9999.0000      -9999.0000      -9999.0000
      -9999.0000      -9999.0000      -9999.0000      -9999.0000      -9999.0000
      -9999.0000      -9999.0000       46.000000       46.000000       46.000000
       46.000000       46.000000       46.000000       46.000000       46.000000
       45.000000       44.000000       43.000000       43.000000       43.000000
       43.000000       43.000000       43.000000       43.000000       43.000000
       43.000000       43.000000       43.000000       43.000000       43.000000
       43.000000       43.000000       43.000000       43.000000       44.000000
       44.000000       44.000000       44.000000       44.000000       44.000000
       44.000000       44.000000      -9999.0000      -9999.0000      -9999.0000
      -9999.0000      -9999.0000      -9999.0000      -9999.0000      -9999.0000
      -9999.0000      -9999.0000      -9999.0000      -9999.0000      -9999.0000
      -9999.0000      -9999.0000      -9999.0000      -9999.0000      -9999.0000
      -9999.0000      -9999.0000      -9999.0000      -9999.0000      -9999.0000
      -9999.0000      -9999.0000      -9999.0000      -9999.0000      -9999.0000
      -9999.0000      -9999.0000      -9999.0000      -9999.0000      -9999.0000
      -9999.0000      -9999.0000      -9999.0000      -9999.0000      -9999.0000
      -9999.0000      -9999.0000      -9999.0000      -9999.0000      -9999.0000
      -9999.0000      -9999.0000      -9999.0000      -9999.0000      -9999.0000
      -9999.0000      -9999.0000      -9999.0000      -9999.0000      -9999.0000
      -9999.0000      -9999.0000      -9999.0000      -9999.0000      -9999.0000
      -9999.0000      -9999.0000      -9999.0000      -9999.0000      -9999.0000
      -9999.0000      -9999.0000      -9999.0000      -9999.0000      -9999.0000
      -9999.0000      -9999.0000      -9999.0000      -9999.0000      -9999.0000
      -9999.0000      -9999.0000      -9999.0000       46.000000       46.000000
       46.000000       46.000000       46.000000       45.000000       45.000000
       44.000000       43.000000       43.000000       43.000000       43.000000
       43.000000       43.000000       43.000000       43.000000       43.000000
       43.000000       43.000000       43.000000       43.000000       43.000000
       43.000000       43.000000       43.000000       43.000000       43.000000
       44.000000       44.000000       44.000000       44.000000       43.000000
       44.000000       44.000000       44.000000      -9999.0000      -9999.0000
      -9999.0000      -9999.0000      -9999.0000      -9999.0000      -9999.0000
      -9999.0000      -9999.0000      -9999.0000      -9999.0000      -9999.0000
      -9999.0000      -9999.0000      -9999.0000      -9999.0000      -9999.0000
      -9999.0000      -9999.0000      -9999.0000      -9999.0000      -9999.0000
      -9999.0000      -9999.0000      -9999.0000      -9999.0000      -9999.0000
      -9999.0000      -9999.0000      -9999.0000      -9999.0000      -9999.0000
      -9999.0000      -9999.0000      -9999.0000      -9999.0000      -9999.0000
      -9999.0000      -9999.0000      -9999.0000      -9999.0000      -9999.0000
      -9999.0000      -9999.0000      -9999.0000      -9999.0000      -9999.0000
      -9999.0000      -9999.0000      -9999.0000      -9999.0000      -9999.0000
      -9999.0000      -9999.0000      -9999.0000      -9999.0000      -9999.0000
      -9999.0000      -9999.0000      -9999.0000      -9999.0000      -9999.0000
      -9999.0000      -9999.0000      -9999.0000      -9999.0000      -9999.0000
      -9999.0000      -9999.0000      -9999.0000      -9999.0000      -9999.0000
      -9999.0000      -9999.0000      -9999.0000       46.000000       46.000000
       46.000000       46.000000       45.000000       45.000000       43.000000
       43.000000       43.000000       43.000000       43.000000       43.000000
       43.000000       43.000000       43.000000       43.000000       43.000000
       43.000000       43.000000       43.000000       43.000000       43.000000
       43.000000       43.000000       43.000000       43.000000       43.000000
       43.000000       43.000000       44.000000       44.000000       44.000000
       44.000000       44.000000       44.000000       44.000000      -9999.0000
      -9999.0000      -9999.0000      -9999.0000      -9999.0000      -9999.0000
      -9999.0000      -9999.0000      -9999.0000      -9999.0000      -9999.0000
      -9999.0000      -9999.0000      -9999.0000      -9999.0000      -9999.0000
      -9999.0000      -9999.0000      -9999.0000      -9999.0000      -9999.0000
      -9999.0000      -9999.0000      -9999.0000      -9999.0000      -9999.0000
      -9999.0000      -9999.0000      -9999.0000      -9999.0000      -9999.0000
      -9999.0000      -9999.0000      -9999.0000      -9999.0000      -9999.0000
      -9999.0000      -9999.0000      -9999.0000      -9999.0000      -9999.0000
      -9999.0000      -9999.0000      -9999.0000      -9999.0000      -9999.0000
      -9999.0000      -9999.0000      -9999.0000      -9999.0000      -9999.0000
      -9999.0000      -9999.0000      -9999.0000      -9999.0000      -9999.0000
      -9999.0000      -9999.0000      -9999.0000      -9999.0000      -9999.0000
      -9999.0000      -9999.0000      -9999.0000      -9999.0000      -9999.0000
      -9999.0000      -9999.0000      -9999.0000      -9999.0000      -9999.0000
      -9999.0000      -9999.0000      -9999.0000       45.000000       45.000000
       45.000000       45.000000       45.000000       43.000000       43.000000
       43.000000       10.000000       43.000000       43.000000       43.000000
       43.000000       43.000000       43.000000       43.000000       43.000000
       43.000000       43.000000       43.000000       43.000000       43.000000
       43.000000       43.000000       43.000000       43.000000       43.000000
       43.000000       43.000000       43.000000       43.000000       44.000000
       44.000000       44.000000      -9999.0000      -9999.0000      -9999.0000
      -9999.0000      -9999.0000      -9999.0000      -9999.0000      -9999.0000
      -9999.0000      -9999.0000      -9999.0000      -9999.0000      -9999.0000
      -9999.0000      -9999.0000      -9999.0000      -9999.0000      -9999.0000
      -9999.0000      -9999.0000      -9999.0000      -9999.0000      -9999.0000
      -9999.0000      -9999.0000      -9999.0000      -9999.0000      -9999.0000
      -9999.0000      -9999.0000      -9999.0000      -9999.0000      -9999.0000
      -9999.0000      -9999.0000      -9999.0000      -9999.0000      -9999.0000
      -9999.0000      -9999.0000      -9999.0000      -9999.0000      -9999.0000
      -9999.0000      -9999.0000      -9999.0000      -9999.0000      -9999.0000
      -9999.0000      -9999.0000      -9999.0000      -9999.0000      -9999.0000
      -9999.0000      -9999.0000      -9999.0000      -9999.0000      -9999.0000
      -9999.0000      -9999.0000      -9999.0000      -9999.0000      -9999.0000
      -9999.0000      -9999.0000      -9999.0000      -9999.0000      -9999.0000
      -9999.0000      -9999.0000      -9999.0000      -9999.0000      -9999.0000
      -9999.0000      -9999.0000      -9999.0000       45.000000       45.000000
       45.000000       44.000000       43.000000       43.000000       43.000000
       10.000000       43.000000       43.000000       43.000000       43.000000
       43.000000       43.000000       43.000000       43.000000       43.000000
       43.000000       43.000000       43.000000       43.000000       43.000000
       43.000000       43.000000       43.000000       43.000000       43.000000
       43.000000       43.000000       43.000000       43.000000       44.000000
       44.000000       44.000000      -9999.0000      -9999.0000      -9999.0000
      -9999.0000      -9999.0000      -9999.0000      -9999.0000      -9999.0000
      -9999.0000      -9999.0000      -9999.0000      -9999.0000      -9999.0000
      -9999.0000      -9999.0000      -9999.0000      -9999.0000      -9999.0000
      -9999.0000      -9999.0000      -9999.0000      -9999.0000      -9999.0000
      -9999.0000      -9999.0000      -9999.0000      -9999.0000      -9999.0000
      -9999.0000      -9999.0000      -9999.0000      -9999.0000      -9999.0000
      -9999.0000      -9999.0000      -9999.0000      -9999.0000      -9999.0000
      -9999.0000      -9999.0000      -9999.0000      -9999.0000      -9999.0000
      -9999.0000      -9999.0000      -9999.0000      -9999.0000      -9999.0000
      -9999.0000      -9999.0000      -9999.0000      -9999.0000      -9999.0000
      -9999.0000      -9999.0000      -9999.0000      -9999.0000      -9999.0000
      -9999.0000      -9999.0000      -9999.0000      -9999.0000      -9999.0000
      -9999.0000      -9999.0000      -9999.0000      -9999.0000      -9999.0000
      -9999.0000      -9999.0000      -9999.0000      -9999.0000      -9999.0000
      -9999.0000      -9999.0000      -9999.0000       45.000000       45.000000
       44.000000       43.000000       43.000000       43.000000       43.000000
       10.000000       43.000000       43.000000       43.000000       43.000000
       43.000000       43.000000       43.000000       43.000000       43.000000
       43.000000       43.000000       43.000000       43.000000       43.000000
       43.000000       43.000000       43.000000       43.000000       43.000000
       43.000000       43.000000       43.000000       43.000000       43.000000
       44.000000      -9999.0000      -9999.0000      -9999.0000      -9999.0000
      -9999.0000      -9999.0000      -9999.0000      -9999.0000      -9999.0000
      -9999.0000      -9999.0000      -9999.0000      -9999.0000      -9999.0000
      -9999.0000      -9999.0000      -9999.0000      -9999.0000      -9999.0000
      -9999.0000      -9999.0000      -9999.0000      -9999.0000      -9999.0000
      -9999.0000      -9999.0000      -9999.0000      -9999.0000      -9999.0000
      -9999.0000      -9999.0000      -9999.0000      -9999.0000      -9999.0000
      -9999.0000      -9999.0000      -9999.0000      -9999.0000      -9999.0000
      -9999.0000      -9999.0000      -9999.0000      -9999.0000      -9999.0000
      -9999.0000      -9999.0000      -9999.0000      -9999.0000      -9999.0000
      -9999.0000      -9999.0000      -9999.0000      -9999.0000      -9999.0000
      -9999.0000      -9999.0000      -9999.0000      -9999.0000      -9999.0000
      -9999.0000      -9999.0000      -9999.0000      -9999.0000      -9999.0000
      -9999.0000      -9999.0000      -9999.0000      -9999.0000      -9999.0000
      -9999.0000      -9999.0000      -9999.0000      -9999.0000      -9999.0000
      -9999.0000      -9999.0000      -9999.0000       44.000000       44.000000
       43.000000       43.000000       43.000000       43.000000       43.000000
       43.000000       43.000000       43.000000       43.000000       43.000000
       43.000000       43.000000       43.000000       43.000000       43.000000
       43.000000       43.000000       43.000000       43.000000       43.000000
       43.000000       43.000000       43.000000       43.000000       43.000000
       43.000000       43.000000       43.000000       43.000000       43.000000
      -9999.0000      -9999.0000      -9999.0000      -9999.0000      -9999.0000
      -9999.0000      -9999.0000      -9999.0000      -9999.0000      -9999.0000
      -9999.0000      -9999.0000      -9999.0000      -9999.0000      -9999.0000
      -9999.0000      -9999.0000      -9999.0000      -9999.0000      -9999.0000
      -9999.0000      -9999.0000      -9999.0000      -9999.0000      -9999.0000
      -9999.0000      -9999.0000      -9999.0000      -9999.0000      -9999.0000
      -9999.0000      -9999.0000      -9999.0000      -9999.0000      -9999.0000
      -9999.0000      -9999.0000      -9999.0000      -9999.0000      -9999.0000
      -9999.0000      -9999.0000      -9999.0000      -9999.0000      -9999.0000
      -9999.0000      -9999.0000      -9999.0000      -9999.0000      -9999.0000
      -9999.0000      -9999.0000      -9999.0000      -9999.0000      -9999.0000
      -9999.0000      -9999.0000      -9999.0000      -9999.0000      -9999.0000
      -9999.0000      -9999.0000      -9999.0000      -9999.0000      -9999.0000
      -9999.0000      -9999.0000      -9999.0000      -9999.0000      -9999.0000
      -9999.0000      -9999.0000      -9999.0000      -9999.0000      -9999.0000
      -9999.0000      -9999.0000      -9999.0000       44.000000       43.000000
       43.000000       43.000000       43.000000       43.000000       43.000000
       43.000000       43.000000       43.000000       43.000000       43.000000
       43.000000       43.000000       43.000000       43.000000       43.000000
       43.000000       43.000000       43.000000       43.000000       43.000000
       43.000000       43.000000       43.000000       43.000000       43.000000
       43.000000       43.000000       43.000000       43.000000       43.000000
      -9999.0000      -9999.0000      -9999.0000      -9999.0000      -9999.0000
      -9999.0000      -9999.0000      -9999.0000      -9999.0000      -9999.0000
      -9999.0000      -9999.0000      -9999.0000      -9999.0000      -9999.0000
      -9999.0000      -9999.0000      -9999.0000      -9999.0000      -9999.0000
      -9999.0000      -9999.0000      -9999.0000      -9999.0000      -9999.0000
      -9999.0000      -9999.0000      -9999.0000      -9999.0000      -9999.0000
      -9999.0000      -9999.0000      -9999.0000      -9999.0000      -9999.0000
      -9999.0000      -9999.0000      -9999.0000      -9999.0000      -9999.0000
      -9999.0000      -9999.0000      -9999.0000      -9999.0000      -9999.0000
      -9999.0000      -9999.0000      -9999.0000      -9999.0000      -9999.0000
      -9999.0000      -9999.0000      -9999.0000      -9999.0000      -9999.0000
      -9999.0000      -9999.0000      -9999.0000      -9999.0000      -9999.0000
      -9999.0000      -9999.0000      -9999.0000      -9999.0000      -9999.0000
      -9999.0000      -9999.0000      -9999.0000      -9999.0000      -9999.0000
      -9999.0000      -9999.0000      -9999.0000      -9999.0000      -9999.0000
      -9999.0000      -9999.0000      -9999.0000       43.000000       43.000000
       43.000000       43.000000       43.000000       43.000000       43.000000
       43.000000       43.000000       43.000000       43.000000       43.000000
       43.000000       43.000000       43.000000       43.000000       43.000000
       43.000000       43.000000       43.000000       43.000000       43.000000
       43.000000       43.000000       43.000000       43.000000       43.000000
       43.000000       43.000000       43.000000      -9999.0000      -9999.0000
      -9999.0000      -9999.0000      -9999.0000      -9999.0000      -9999.0000
      -9999.0000      -9999.0000      -9999.0000      -9999.0000      -9999.0000
      -9999.0000      -9999.0000      -9999.0000      -9999.0000      -9999.0000
      -9999.0000      -9999.0000      -9999.0000      -9999.0000      -9999.0000
      -9999.0000      -9999.0000      -9999.0000      -9999.0000      -9999.0000
      -9999.0000      -9999.0000      -9999.0000      -9999.0000      -9999.0000
      -9999.0000      -9999.0000      -9999.0000      -9999.0000      -9999.0000
      -9999.0000      -9999.0000      -9999.0000      -9999.0000      -9999.0000
      -9999.0000      -9999.0000      -9999.0000      -9999.0000      -9999.0000
      -9999.0000      -9999.0000      -9999.0000      -9999.0000      -9999.0000
      -9999.0000      -9999.0000      -9999.0000      -9999.0000      -9999.0000
      -9999.0000      -9999.0000      -9999.0000      -9999.0000      -9999.0000
      -9999.0000      -9999.0000      -9999.0000      -9999.0000      -9999.0000
      -9999.0000      -9999.0000      -9999.0000      -9999.0000      -9999.0000
      -9999.0000      -9999.0000      -9999.0000      -9999.0000      -9999.0000
      -9999.0000      -9999.0000      -9999.0000       43.000000       43.000000
       43.000000       43.000000       43.000000       43.000000       43.000000
       43.000000       43.000000       43.000000       43.000000       43.000000
       43.000000       43.000000       43.000000       43.000000       43.000000
       43.000000       43.000000       43.000000       43.000000       43.000000
       43.000000       43.000000       43.000000       43.000000      -9999.0000
      -9999.0000      -9999.0000      -9999.0000      -9999.0000      -9999.0000
      -9999.0000      -9999.0000      -9999.0000      -9999.0000      -9999.0000
      -9999.0000      -9999.0000      -9999.0000      -9999.0000      -9999.0000
      -9999.0000      -9999.0000      -9999.0000      -9999.0000      -9999.0000
      -9999.0000      -9999.0000      -9999.0000      -9999.0000      -9999.0000
      -9999.0000      -9999.0000      -9999.0000      -9999.0000      -9999.0000
      -9999.0000      -9999.0000      -9999.0000      -9999.0000      -9999.0000
      -9999.0000      -9999.0000      -9999.0000      -9999.0000      -9999.0000
      -9999.0000      -9999.0000      -9999.0000      -9999.0000      -9999.0000
      -9999.0000      -9999.0000      -9999.0000      -9999.0000      -9999.0000
      -9999.0000      -9999.0000      -9999.0000      -9999.0000      -9999.0000
      -9999.0000      -9999.0000      -9999.0000      -9999.0000      -9999.0000
      -9999.0000      -9999.0000      -9999.0000      -9999.0000      -9999.0000
      -9999.0000      -9999.0000      -9999.0000      -9999.0000      -9999.0000
      -9999.0000      -9999.0000      -9999.0000      -9999.0000      -9999.0000
      -9999.0000      -9999.0000      -9999.0000      -9999.0000      -9999.0000
      -9999.0000      -9999.0000      -9999.0000      -9999.0000       43.000000
       43.000000       43.000000       43.000000       43.000000       43.000000
       43.000000       43.000000       43.000000       43.000000       43.000000
       43.000000       43.000000       43.000000       43.000000       43.000000
       43.000000       43.000000       43.000000       43.000000       43.000000
       43.000000       43.000000       43.000000      -9999.0000      -9999.0000
      -9999.0000      -9999.0000      -9999.0000      -9999.0000      -9999.0000
      -9999.0000      -9999.0000      -9999.0000      -9999.0000      -9999.0000
      -9999.0000      -9999.0000      -9999.0000      -9999.0000      -9999.0000
      -9999.0000      -9999.0000      -9999.0000      -9999.0000      -9999.0000
      -9999.0000      -9999.0000      -9999.0000      -9999.0000      -9999.0000
      -9999.0000      -9999.0000      -9999.0000      -9999.0000      -9999.0000
      -9999.0000      -9999.0000      -9999.0000      -9999.0000      -9999.0000
      -9999.0000      -9999.0000      -9999.0000      -9999.0000      -9999.0000
      -9999.0000      -9999.0000      -9999.0000      -9999.0000      -9999.0000
      -9999.0000      -9999.0000      -9999.0000      -9999.0000      -9999.0000
      -9999.0000      -9999.0000      -9999.0000      -9999.0000      -9999.0000
      -9999.0000      -9999.0000      -9999.0000      -9999.0000      -9999.0000
      -9999.0000      -9999.0000      -9999.0000      -9999.0000      -9999.0000
      -9999.0000      -9999.0000      -9999.0000      -9999.0000      -9999.0000
      -9999.0000      -9999.0000      -9999.0000      -9999.0000      -9999.0000
      -9999.0000      -9999.0000      -9999.0000      -9999.0000      -9999.0000
      -9999.0000      -9999.0000      -9999.0000      -9999.0000       10.000000
       43.000000       10.000000       43.000000       43.000000       43.000000
       43.000000       43.000000       43.000000       44.000000       43.000000
       43.000000       43.000000       43.000000       43.000000       43.000000
       43.000000       43.000000       43.000000       43.000000       43.000000
       43.000000       43.000000       43.000000       43.000000      -9999.0000
      -9999.0000      -9999.0000      -9999.0000      -9999.0000      -9999.0000
      -9999.0000      -9999.0000      -9999.0000      -9999.0000      -9999.0000
      -9999.0000      -9999.0000      -9999.0000      -9999.0000      -9999.0000
      -9999.0000      -9999.0000      -9999.0000      -9999.0000      -9999.0000
      -9999.0000      -9999.0000      -9999.0000      -9999.0000      -9999.0000
      -9999.0000      -9999.0000      -9999.0000      -9999.0000      -9999.0000
      -9999.0000      -9999.0000      -9999.0000      -9999.0000      -9999.0000
      -9999.0000      -9999.0000      -9999.0000      -9999.0000      -9999.0000
      -9999.0000      -9999.0000      -9999.0000      -9999.0000      -9999.0000
      -9999.0000      -9999.0000      -9999.0000      -9999.0000      -9999.0000
      -9999.0000      -9999.0000      -9999.0000      -9999.0000      -9999.0000
      -9999.0000      -9999.0000      -9999.0000      -9999.0000      -9999.0000
      -9999.0000      -9999.0000      -9999.0000      -9999.0000      -9999.0000
      -9999.0000      -9999.0000      -9999.0000      -9999.0000      -9999.0000
      -9999.0000      -9999.0000      -9999.0000      -9999.0000      -9999.0000
      -9999.0000      -9999.0000      -9999.0000      -9999.0000      -9999.0000
      -9999.0000      -9999.0000      -9999.0000      -9999.0000       43.000000
       43.000000       10.000000       43.000000       43.000000       43.000000
       43.000000       43.000000       43.000000       44.000000       43.000000
       43.000000       43.000000       43.000000       43.000000       43.000000
       43.000000       43.000000       43.000000       43.000000       43.000000
       43.000000       43.000000       43.000000       43.000000      -9999.0000
      -9999.0000      -9999.0000      -9999.0000      -9999.0000      -9999.0000
      -9999.0000      -9999.0000      -9999.0000      -9999.0000      -9999.0000
      -9999.0000      -9999.0000      -9999.0000      -9999.0000      -9999.0000
      -9999.0000      -9999.0000      -9999.0000      -9999.0000      -9999.0000
      -9999.0000      -9999.0000      -9999.0000      -9999.0000      -9999.0000
      -9999.0000      -9999.0000      -9999.0000      -9999.0000      -9999.0000
      -9999.0000      -9999.0000      -9999.0000      -9999.0000      -9999.0000
      -9999.0000      -9999.0000      -9999.0000      -9999.0000      -9999.0000
      -9999.0000      -9999.0000      -9999.0000      -9999.0000      -9999.0000
      -9999.0000      -9999.0000      -9999.0000      -9999.0000      -9999.0000
      -9999.0000      -9999.0000      -9999.0000      -9999.0000      -9999.0000
      -9999.0000      -9999.0000      -9999.0000      -9999.0000      -9999.0000
      -9999.0000      -9999.0000      -9999.0000      -9999.0000      -9999.0000
      -9999.0000      -9999.0000      -9999.0000      -9999.0000      -9999.0000
      -9999.0000      -9999.0000      -9999.0000      -9999.0000      -9999.0000
      -9999.0000      -9999.0000      -9999.0000      -9999.0000      -9999.0000
      -9999.0000      -9999.0000      -9999.0000      -9999.0000       43.000000
       43.000000       43.000000       43.000000       43.000000       43.000000
       43.000000       43.000000       44.000000       44.000000       43.000000
       43.000000       43.000000       43.000000       43.000000       43.000000
       43.000000       43.000000       43.000000       43.000000       43.000000
       43.000000       43.000000       43.000000       43.000000      -9999.0000
      -9999.0000      -9999.0000      -9999.0000      -9999.0000      -9999.0000
      -9999.0000      -9999.0000      -9999.0000      -9999.0000      -9999.0000
      -9999.0000      -9999.0000      -9999.0000      -9999.0000      -9999.0000
      -9999.0000      -9999.0000      -9999.0000      -9999.0000      -9999.0000
      -9999.0000      -9999.0000      -9999.0000      -9999.0000      -9999.0000
      -9999.0000      -9999.0000      -9999.0000      -9999.0000      -9999.0000
      -9999.0000      -9999.0000      -9999.0000      -9999.0000      -9999.0000
      -9999.0000      -9999.0000      -9999.0000      -9999.0000      -9999.0000
      -9999.0000      -9999.0000      -9999.0000      -9999.0000      -9999.0000
      -9999.0000      -9999.0000      -9999.0000      -9999.0000      -9999.0000
      -9999.0000      -9999.0000      -9999.0000      -9999.0000      -9999.0000
      -9999.0000      -9999.0000      -9999.0000      -9999.0000      -9999.0000
      -9999.0000      -9999.0000      -9999.0000      -9999.0000      -9999.0000
      -9999.0000      -9999.0000      -9999.0000      -9999.0000      -9999.0000
      -9999.0000      -9999.0000      -9999.0000      -9999.0000      -9999.0000
      -9999.0000      -9999.0000      -9999.0000      -9999.0000      -9999.0000
      -9999.0000      -9999.0000      -9999.0000       10.000000       43.000000
       43.000000       43.000000       43.000000       43.000000       43.000000
       43.000000       44.000000       44.000000       44.000000       43.000000
       43.000000       43.000000       43.000000       43.000000       43.000000
       43.000000       43.000000       43.000000       43.000000       43.000000
       43.000000       43.000000       43.000000      -9999.0000      -9999.0000
      -9999.0000      -9999.0000      -9999.0000      -9999.0000      -9999.0000
      -9999.0000      -9999.0000      -9999.0000      -9999.0000      -9999.0000
      -9999.0000      -9999.0000      -9999.0000      -9999.0000      -9999.0000
      -9999.0000      -9999.0000      -9999.0000      -9999.0000      -9999.0000
      -9999.0000      -9999.0000      -9999.0000      -9999.0000      -9999.0000
      -9999.0000      -9999.0000      -9999.0000      -9999.0000      -9999.0000
      -9999.0000      -9999.0000      -9999.0000      -9999.0000      -9999.0000
      -9999.0000      -9999.0000      -9999.0000      -9999.0000      -9999.0000
      -9999.0000      -9999.0000      -9999.0000      -9999.0000      -9999.0000
      -9999.0000      -9999.0000      -9999.0000      -9999.0000      -9999.0000
      -9999.0000      -9999.0000      -9999.0000      -9999.0000      -9999.0000
      -9999.0000      -9999.0000      -9999.0000      -9999.0000      -9999.0000
      -9999.0000      -9999.0000      -9999.0000      -9999.0000      -9999.0000
      -9999.0000      -9999.0000      -9999.0000      -9999.0000      -9999.0000
      -9999.0000      -9999.0000      -9999.0000      -9999.0000      -9999.0000
      -9999.0000      -9999.0000      -9999.0000      -9999.0000      -9999.0000
      -9999.0000      -9999.0000      -9999.0000       10.000000       10.000000
       43.000000       43.000000       43.000000       43.000000       43.000000
       43.000000       45.000000       45.000000       44.000000       43.000000
       43.000000       43.000000       43.000000       43.000000       43.000000
       43.000000       43.000000       43.000000       43.000000       43.000000
      -9999.0000      -9999.0000      -9999.0000      -9999.0000      -9999.0000
      -9999.0000      -9999.0000      -9999.0000      -9999.0000      -9999.0000
      -9999.0000      -9999.0000      -9999.0000      -9999.0000      -9999.0000
      -9999.0000      -9999.0000      -9999.0000      -9999.0000      -9999.0000
      -9999.0000      -9999.0000      -9999.0000      -9999.0000      -9999.0000
      -9999.0000      -9999.0000      -9999.0000      -9999.0000      -9999.0000
      -9999.0000      -9999.0000      -9999.0000      -9999.0000      -9999.0000
      -9999.0000      -9999.0000      -9999.0000      -9999.0000      -9999.0000
      -9999.0000      -9999.0000      -9999.0000      -9999.0000      -9999.0000
      -9999.0000      -9999.0000      -9999.0000      -9999.0000      -9999.0000
      -9999.0000      -9999.0000      -9999.0000      -9999.0000      -9999.0000
      -9999.0000      -9999.0000      -9999.0000      -9999.0000      -9999.0000
      -9999.0000      -9999.0000      -9999.0000      -9999.0000      -9999.0000
      -9999.0000      -9999.0000      -9999.0000      -9999.0000      -9999.0000
      -9999.0000      -9999.0000      -9999.0000      -9999.0000      -9999.0000
      -9999.0000      -9999.0000      -9999.0000      -9999.0000      -9999.0000
      -9999.0000      -9999.0000      -9999.0000      -9999.0000      -9999.0000
      -9999.0000      -9999.0000      -9999.0000       10.000000       10.000000
       10.000000       10.000000       43.000000       43.000000       43.000000
       43.000000       45.000000       45.000000       43.000000       43.000000
       43.000000       43.000000       43.000000       43.000000       43.000000
       43.000000       43.000000       43.000000       43.000000       43.000000
      -9999.0000      -9999.0000      -9999.0000      -9999.0000      -9999.0000
      -9999.0000      -9999.0000      -9999.0000      -9999.0000      -9999.0000
      -9999.0000      -9999.0000      -9999.0000      -9999.0000      -9999.0000
      -9999.0000      -9999.0000      -9999.0000      -9999.0000      -9999.0000
      -9999.0000      -9999.0000      -9999.0000      -9999.0000      -9999.0000
      -9999.0000      -9999.0000      -9999.0000      -9999.0000      -9999.0000
      -9999.0000      -9999.0000      -9999.0000      -9999.0000      -9999.0000
      -9999.0000      -9999.0000      -9999.0000      -9999.0000      -9999.0000
      -9999.0000      -9999.0000      -9999.0000      -9999.0000      -9999.0000
      -9999.0000      -9999.0000      -9999.0000      -9999.0000      -9999.0000
      -9999.0000      -9999.0000      -9999.0000      -9999.0000      -9999.0000
      -9999.0000      -9999.0000      -9999.0000      -9999.0000      -9999.0000
      -9999.0000      -9999.0000      -9999.0000      -9999.0000      -9999.0000
      -9999.0000      -9999.0000      -9999.0000      -9999.0000      -9999.0000
      -9999.0000      -9999.0000      -9999.0000      -9999.0000      -9999.0000
      -9999.0000      -9999.0000      -9999.0000      -9999.0000      -9999.0000
      -9999.0000      -9999.0000      -9999.0000      -9999.0000      -9999.0000
      -9999.0000      -9999.0000      -9999.0000       8.0000000       10.000000
       10.000000       10.000000       43.000000       43.000000       43.000000
       44.000000       45.000000       45.000000       43.000000       43.000000
       43.000000       43.000000       43.000000       43.000000       43.000000
       43.000000       43.000000       43.000000       43.000000       43.000000
      -9999.0000      -9999.0000      -9999.0000      -9999.0000      -9999.0000
      -9999.0000      -9999.0000      -9999.0000      -9999.0000      -9999.0000
      -9999.0000      -9999.0000      -9999.0000      -9999.0000      -9999.0000
      -9999.0000      -9999.0000      -9999.0000      -9999.0000      -9999.0000
      -9999.0000      -9999.0000      -9999.0000      -9999.0000      -9999.0000
      -9999.0000      -9999.0000      -9999.0000      -9999.0000      -9999.0000
      -9999.0000      -9999.0000      -9999.0000      -9999.0000      -9999.0000
      -9999.0000      -9999.0000      -9999.0000      -9999.0000      -9999.0000
      -9999.0000      -9999.0000      -9999.0000      -9999.0000      -9999.0000
      -9999.0000      -9999.0000      -9999.0000      -9999.0000      -9999.0000
      -9999.0000      -9999.0000      -9999.0000      -9999.0000      -9999.0000
      -9999.0000      -9999.0000      -9999.0000      -9999.0000      -9999.0000
      -9999.0000      -9999.0000      -9999.0000      -9999.0000      -9999.0000
      -9999.0000      -9999.0000      -9999.0000      -9999.0000      -9999.0000
      -9999.0000      -9999.0000      -9999.0000      -9999.0000      -9999.0000
      -9999.0000      -9999.0000      -9999.0000      -9999.0000      -9999.0000
      -9999.0000      -9999.0000      -9999.0000      -9999.0000      -9999.0000
      -9999.0000      -9999.0000      -9999.0000       8.0000000       10.000000
       10.000000       10.000000       43.000000       43.000000       43.000000
       45.000000       45.000000       44.000000       43.000000       43.000000
       43.000000       43.000000       43.000000       43.000000       43.000000
       43.000000       43.000000       43.000000      -9999.0000      -9999.0000
      -9999.0000      -9999.0000      -9999.0000      -9999.0000      -9999.0000
      -9999.0000      -9999.0000      -9999.0000      -9999.0000      -9999.0000
      -9999.0000      -9999.0000      -9999.0000      -9999.0000      -9999.0000
      -9999.0000      -9999.0000      -9999.0000      -9999.0000      -9999.0000
      -9999.0000      -9999.0000      -9999.0000      -9999.0000      -9999.0000
      -9999.0000      -9999.0000      -9999.0000      -9999.0000      -9999.0000
      -9999.0000      -9999.0000      -9999.0000      -9999.0000      -9999.0000
      -9999.0000      -9999.0000      -9999.0000      -9999.0000      -9999.0000
      -9999.0000      -9999.0000      -9999.0000      -9999.0000      -9999.0000
      -9999.0000      -9999.0000      -9999.0000      -9999.0000      -9999.0000
      -9999.0000      -9999.0000      -9999.0000      -9999.0000      -9999.0000
      -9999.0000      -9999.0000      -9999.0000      -9999.0000      -9999.0000
      -9999.0000      -9999.0000      -9999.0000      -9999.0000      -9999.0000
      -9999.0000      -9999.0000      -9999.0000      -9999.0000      -9999.0000
      -9999.0000      -9999.0000      -9999.0000      -9999.0000      -9999.0000
      -9999.0000      -9999.0000      -9999.0000      -9999.0000      -9999.0000
      -9999.0000      -9999.0000      -9999.0000      -9999.0000      -9999.0000
      -9999.0000      -9999.0000      -9999.0000      -9999.0000      -9999.0000
       10.000000       10.000000       10.000000       43.000000       44.000000
       45.000000       45.000000       44.000000       43.000000       43.000000
       43.000000       43.000000       43.000000       43.000000       43.000000
       43.000000      -9999.0000      -9999.0000      -9999.0000      -9999.0000
      -9999.0000      -9999.0000      -9999.0000      -9999.0000      -9999.0000
      -9999.0000      -9999.0000      -9999.0000      -9999.0000      -9999.0000
      -9999.0000      -9999.0000      -9999.0000      -9999.0000      -9999.0000
      -9999.0000      -9999.0000      -9999.0000      -9999.0000      -9999.0000
      -9999.0000      -9999.0000      -9999.0000      -9999.0000      -9999.0000
      -9999.0000      -9999.0000      -9999.0000      -9999.0000      -9999.0000
      -9999.0000      -9999.0000      -9999.0000      -9999.0000      -9999.0000
      -9999.0000      -9999.0000      -9999.0000      -9999.0000      -9999.0000
      -9999.0000      -9999.0000      -9999.0000      -9999.0000      -9999.0000
      -9999.0000      -9999.0000      -9999.0000      -9999.0000      -9999.0000
      -9999.0000      -9999.0000      -9999.0000      -9999.0000      -9999.0000
      -9999.0000      -9999.0000      -9999.0000      -9999.0000      -9999.0000
      -9999.0000      -9999.0000      -9999.0000      -9999.0000      -9999.0000
      -9999.0000      -9999.0000      -9999.0000      -9999.0000      -9999.0000
      -9999.0000      -9999.0000      -9999.0000      -9999.0000      -9999.0000
      -9999.0000      -9999.0000      -9999.0000      -9999.0000      -9999.0000
      -9999.0000      -9999.0000      -9999.0000      -9999.0000      -9999.0000
      -9999.0000      -9999.0000      -9999.0000      -9999.0000       8.0000000
       10.000000       10.000000       10.000000       43.000000       44.000000
       45.000000       45.000000       44.000000       43.000000       43.000000
       43.000000       43.000000       43.000000       43.000000       43.000000
      -9999.0000      -9999.0000      -9999.0000      -9999.0000      -9999.0000
      -9999.0000      -9999.0000      -9999.0000      -9999.0000      -9999.0000
      -9999.0000      -9999.0000      -9999.0000      -9999.0000      -9999.0000
      -9999.0000      -9999.0000      -9999.0000      -9999.0000      -9999.0000
      -9999.0000      -9999.0000      -9999.0000      -9999.0000      -9999.0000
      -9999.0000      -9999.0000      -9999.0000      -9999.0000      -9999.0000
      -9999.0000      -9999.0000      -9999.0000      -9999.0000      -9999.0000
      -9999.0000      -9999.0000      -9999.0000      -9999.0000      -9999.0000
      -9999.0000      -9999.0000      -9999.0000      -9999.0000      -9999.0000
      -9999.0000      -9999.0000      -9999.0000      -9999.0000      -9999.0000
      -9999.0000      -9999.0000      -9999.0000      -9999.0000      -9999.0000
      -9999.0000      -9999.0000      -9999.0000      -9999.0000      -9999.0000
      -9999.0000      -9999.0000      -9999.0000      -9999.0000      -9999.0000
      -9999.0000      -9999.0000      -9999.0000      -9999.0000      -9999.0000
      -9999.0000      -9999.0000      -9999.0000      -9999.0000      -9999.0000
      -9999.0000      -9999.0000      -9999.0000      -9999.0000      -9999.0000
      -9999.0000      -9999.0000      -9999.0000      -9999.0000      -9999.0000
      -9999.0000      -9999.0000      -9999.0000      -9999.0000      -9999.0000
      -9999.0000      -9999.0000      -9999.0000       8.0000000       8.0000000
       8.0000000       10.000000       43.000000       43.000000       45.000000
       45.000000       45.000000       44.000000       43.000000       43.000000
       43.000000       43.000000       43.000000       43.000000      -9999.0000
      -9999.0000      -9999.0000      -9999.0000      -9999.0000      -9999.0000
      -9999.0000      -9999.0000      -9999.0000      -9999.0000      -9999.0000
      -9999.0000      -9999.0000      -9999.0000      -9999.0000      -9999.0000
      -9999.0000      -9999.0000      -9999.0000      -9999.0000      -9999.0000
      -9999.0000      -9999.0000      -9999.0000      -9999.0000      -9999.0000
      -9999.0000      -9999.0000      -9999.0000      -9999.0000      -9999.0000
      -9999.0000      -9999.0000      -9999.0000      -9999.0000      -9999.0000
      -9999.0000      -9999.0000      -9999.0000      -9999.0000      -9999.0000
      -9999.0000      -9999.0000      -9999.0000      -9999.0000      -9999.0000
      -9999.0000      -9999.0000      -9999.0000      -9999.0000      -9999.0000
      -9999.0000      -9999.0000      -9999.0000      -9999.0000      -9999.0000
      -9999.0000      -9999.0000      -9999.0000      -9999.0000      -9999.0000
      -9999.0000      -9999.0000      -9999.0000      -9999.0000      -9999.0000
      -9999.0000      -9999.0000      -9999.0000      -9999.0000      -9999.0000
      -9999.0000      -9999.0000      -9999.0000      -9999.0000      -9999.0000
      -9999.0000      -9999.0000      -9999.0000      -9999.0000      -9999.0000
      -9999.0000      -9999.0000      -9999.0000      -9999.0000      -9999.0000
      -9999.0000      -9999.0000      -9999.0000      -9999.0000      -9999.0000
      -9999.0000      -9999.0000       8.0000000       8.0000000       8.0000000
       8.0000000       43.000000       43.000000       44.000000       45.000000
       45.000000       45.000000       44.000000       44.000000       43.000000
       43.000000       43.000000      -9999.0000      -9999.0000      -9999.0000
      -9999.0000      -9999.0000      -9999.0000      -9999.0000      -9999.0000
      -9999.0000      -9999.0000      -9999.0000      -9999.0000      -9999.0000
      -9999.0000      -9999.0000      -9999.0000      -9999.0000      -9999.0000
      -9999.0000      -9999.0000      -9999.0000      -9999.0000      -9999.0000
      -9999.0000      -9999.0000      -9999.0000      -9999.0000      -9999.0000
      -9999.0000      -9999.0000      -9999.0000      -9999.0000      -9999.0000
      -9999.0000      -9999.0000      -9999.0000      -9999.0000      -9999.0000
      -9999.0000      -9999.0000      -9999.0000      -9999.0000      -9999.0000
      -9999.0000      -9999.0000      -9999.0000      -9999.0000      -9999.0000
      -9999.0000      -9999.0000      -9999.0000      -9999.0000      -9999.0000
      -9999.0000      -9999.0000      -9999.0000      -9999.0000      -9999.0000
      -9999.0000      -9999.0000      -9999.0000      -9999.0000      -9999.0000
      -9999.0000      -9999.0000      -9999.0000      -9999.0000      -9999.0000
      -9999.0000      -9999.0000      -9999.0000      -9999.0000      -9999.0000
      -9999.0000      -9999.0000      -9999.0000      -9999.0000      -9999.0000
      -9999.0000      -9999.0000      -9999.0000      -9999.0000      -9999.0000
      -9999.0000      -9999.0000      -9999.0000      -9999.0000      -9999.0000
      -9999.0000      -9999.0000      -9999.0000      -9999.0000      -9999.0000
      -9999.0000       8.0000000       8.0000000       8.0000000       8.0000000
       8.0000000       43.000000       43.000000       45.000000       45.000000
       45.000000       45.000000       44.000000       44.000000       43.000000
       43.000000      -9999.0000      -9999.0000      -9999.0000      -9999.0000
      -9999.0000      -9999.0000      -9999.0000      -9999.0000      -9999.0000
      -9999.0000      -9999.0000      -9999.0000      -9999.0000      -9999.0000
      -9999.0000      -9999.0000      -9999.0000      -9999.0000      -9999.0000
      -9999.0000      -9999.0000      -9999.0000      -9999.0000      -9999.0000
      -9999.0000      -9999.0000      -9999.0000      -9999.0000      -9999.0000
      -9999.0000      -9999.0000      -9999.0000      -9999.0000      -9999.0000
      -9999.0000      -9999.0000      -9999.0000      -9999.0000      -9999.0000
      -9999.0000      -9999.0000      -9999.0000      -9999.0000      -9999.0000
      -9999.0000      -9999.0000      -9999.0000      -9999.0000      -9999.0000
      -9999.0000      -9999.0000      -9999.0000      -9999.0000      -9999.0000
      -9999.0000      -9999.0000      -9999.0000      -9999.0000      -9999.0000
      -9999.0000      -9999.0000      -9999.0000      -9999.0000      -9999.0000
      -9999.0000      -9999.0000      -9999.0000      -9999.0000      -9999.0000
      -9999.0000      -9999.0000      -9999.0000      -9999.0000      -9999.0000
      -9999.0000      -9999.0000      -9999.0000      -9999.0000      -9999.0000
      -9999.0000      -9999.0000      -9999.0000      -9999.0000      -9999.0000
      -9999.0000      -9999.0000      -9999.0000      -9999.0000      -9999.0000
      -9999.0000      -9999.0000      -9999.0000      -9999.0000      -9999.0000
       8.0000000       8.0000000       8.0000000       8.0000000       8.0000000
       8.0000000       43.000000       45.000000       45.000000       45.000000
       45.000000       44.000000       44.000000       44.000000      -9999.0000
      -9999.0000      -9999.0000      -9999.0000      -9999.0000      -9999.0000
      -9999.0000      -9999.0000      -9999.0000      -9999.0000      -9999.0000
      -9999.0000      -9999.0000      -9999.0000      -9999.0000      -9999.0000
      -9999.0000      -9999.0000      -9999.0000      -9999.0000      -9999.0000
      -9999.0000      -9999.0000      -9999.0000      -9999.0000      -9999.0000
      -9999.0000      -9999.0000      -9999.0000      -9999.0000      -9999.0000
      -9999.0000      -9999.0000      -9999.0000      -9999.0000      -9999.0000
      -9999.0000      -9999.0000      -9999.0000      -9999.0000      -9999.0000
      -9999.0000      -9999.0000      -9999.0000      -9999.0000      -9999.0000
      -9999.0000      -9999.0000      -9999.0000      -9999.0000      -9999.0000
      -9999.0000      -9999.0000      -9999.0000      -9999.0000      -9999.0000
      -9999.0000      -9999.0000      -9999.0000      -9999.0000      -9999.0000
      -9999.0000      -9999.0000      -9999.0000      -9999.0000      -9999.0000
      -9999.0000      -9999.0000      -9999.0000      -9999.0000      -9999.0000
      -9999.0000      -9999.0000      -9999.0000      -9999.0000      -9999.0000
      -9999.0000      -9999.0000      -9999.0000      -9999.0000      -9999.0000
      -9999.0000      -9999.0000      -9999.0000      -9999.0000      -9999.0000
      -9999.0000      -9999.0000      -9999.0000      -9999.0000      -9999.0000
      -9999.0000      -9999.0000      -9999.0000      -9999.0000      -9999.0000
       3.0000000       8.0000000       8.0000000       8.0000000       8.0000000
       8.0000000       44.000000       45.000000       45.000000       45.000000
       44.000000       44.000000      -9999.0000      -9999.0000      -9999.0000
      -9999.0000      -9999.0000      -9999.0000      -9999.0000      -9999.0000
      -9999.0000      -9999.0000      -9999.0000      -9999.0000      -9999.0000
      -9999.0000      -9999.0000      -9999.0000      -9999.0000      -9999.0000
      -9999.0000      -9999.0000      -9999.0000      -9999.0000      -9999.0000
      -9999.0000      -9999.0000      -9999.0000      -9999.0000      -9999.0000
      -9999.0000      -9999.0000      -9999.0000      -9999.0000      -9999.0000
      -9999.0000      -9999.0000      -9999.0000      -9999.0000      -9999.0000
      -9999.0000      -9999.0000      -9999.0000      -9999.0000      -9999.0000
      -9999.0000      -9999.0000      -9999.0000      -9999.0000      -9999.0000
      -9999.0000      -9999.0000      -9999.0000      -9999.0000      -9999.0000
      -9999.0000      -9999.0000      -9999.0000      -9999.0000      -9999.0000
      -9999.0000      -9999.0000      -9999.0000      -9999.0000      -9999.0000
      -9999.0000      -9999.0000      -9999.0000      -9999.0000      -9999.0000
      -9999.0000      -9999.0000      -9999.0000      -9999.0000      -9999.0000
      -9999.0000      -9999.0000      -9999.0000      -9999.0000      -9999.0000
      -9999.0000      -9999.0000      -9999.0000      -9999.0000      -9999.0000
      -9999.0000      -9999.0000      -9999.0000      -9999.0000      -9999.0000
      -9999.0000      -9999.0000      -9999.0000      -9999.0000      -9999.0000
      -9999.0000      -9999.0000      -9999.0000      -9999.0000      -9999.0000
       3.0000000       3.0000000       8.0000000       8.0000000       8.0000000
       43.000000       44.000000       45.000000       45.000000       44.000000
       44.000000      -9999.0000      -9999.0000      -9999.0000      -9999.0000
      -9999.0000      -9999.0000      -9999.0000      -9999.0000      -9999.0000
      -9999.0000      -9999.0000      -9999.0000      -9999.0000      -9999.0000
      -9999.0000      -9999.0000      -9999.0000      -9999.0000      -9999.0000
      -9999.0000      -9999.0000      -9999.0000      -9999.0000      -9999.0000
      -9999.0000      -9999.0000      -9999.0000      -9999.0000      -9999.0000
      -9999.0000      -9999.0000      -9999.0000      -9999.0000      -9999.0000
      -9999.0000      -9999.0000      -9999.0000      -9999.0000      -9999.0000
      -9999.0000      -9999.0000      -9999.0000      -9999.0000      -9999.0000
      -9999.0000      -9999.0000      -9999.0000      -9999.0000      -9999.0000
      -9999.0000      -9999.0000      -9999.0000      -9999.0000      -9999.0000
      -9999.0000      -9999.0000      -9999.0000      -9999.0000      -9999.0000
      -9999.0000      -9999.0000      -9999.0000      -9999.0000      -9999.0000
      -9999.0000      -9999.0000      -9999.0000      -9999.0000      -9999.0000
      -9999.0000      -9999.0000      -9999.0000      -9999.0000      -9999.0000
      -9999.0000      -9999.0000      -9999.0000      -9999.0000      -9999.0000
      -9999.0000      -9999.0000      -9999.0000      -9999.0000      -9999.0000
      -9999.0000      -9999.0000      -9999.0000      -9999.0000      -9999.0000
      -9999.0000      -9999.0000      -9999.0000      -9999.0000      -9999.0000
      -9999.0000      -9999.0000      -9999.0000      -9999.0000      -9999.0000
       3.0000000       3.0000000       8.0000000       8.0000000       8.0000000
       43.000000       44.000000       44.000000       44.000000       44.000000
       43.000000      -9999.0000      -9999.0000      -9999.0000      -9999.0000
      -9999.0000      -9999.0000      -9999.0000      -9999.0000      -9999.0000
      -9999.0000      -9999.0000      -9999.0000      -9999.0000      -9999.0000
      -9999.0000      -9999.0000      -9999.0000      -9999.0000      -9999.0000
      -9999.0000      -9999.0000      -9999.0000      -9999.0000      -9999.0000
      -9999.0000      -9999.0000      -9999.0000      -9999.0000      -9999.0000
      -9999.0000      -9999.0000      -9999.0000      -9999.0000      -9999.0000
      -9999.0000      -9999.0000      -9999.0000      -9999.0000      -9999.0000
      -9999.0000      -9999.0000      -9999.0000      -9999.0000      -9999.0000
      -9999.0000      -9999.0000      -9999.0000      -9999.0000      -9999.0000
      -9999.0000      -9999.0000      -9999.0000      -9999.0000      -9999.0000
      -9999.0000      -9999.0000      -9999.0000      -9999.0000      -9999.0000
      -9999.0000      -9999.0000      -9999.0000      -9999.0000      -9999.0000
      -9999.0000      -9999.0000      -9999.0000      -9999.0000      -9999.0000
      -9999.0000      -9999.0000      -9999.0000      -9999.0000      -9999.0000
      -9999.0000      -9999.0000      -9999.0000      -9999.0000      -9999.0000
      -9999.0000      -9999.0000      -9999.0000      -9999.0000      -9999.0000
      -9999.0000      -9999.0000      -9999.0000      -9999.0000      -9999.0000
      -9999.0000      -9999.0000      -9999.0000      -9999.0000      -9999.0000
      -9999.0000      -9999.0000      -9999.0000      -9999.0000      -9999.0000
      -9999.0000       3.0000000       8.0000000       8.0000000       43.000000
       44.000000       45.000000       44.000000       44.000000       44.000000
      -9999.0000      -9999.0000      -9999.0000      -9999.0000      -9999.0000
      -9999.0000      -9999.0000      -9999.0000      -9999.0000      -9999.0000
      -9999.0000      -9999.0000      -9999.0000      -9999.0000      -9999.0000
      -9999.0000      -9999.0000      -9999.0000      -9999.0000      -9999.0000
      -9999.0000      -9999.0000      -9999.0000      -9999.0000      -9999.0000
      -9999.0000      -9999.0000      -9999.0000      -9999.0000      -9999.0000
      -9999.0000      -9999.0000      -9999.0000      -9999.0000      -9999.0000
      -9999.0000      -9999.0000      -9999.0000      -9999.0000      -9999.0000
      -9999.0000      -9999.0000      -9999.0000      -9999.0000      -9999.0000
      -9999.0000      -9999.0000      -9999.0000      -9999.0000      -9999.0000
      -9999.0000      -9999.0000      -9999.0000      -9999.0000      -9999.0000
      -9999.0000      -9999.0000      -9999.0000      -9999.0000      -9999.0000
      -9999.0000      -9999.0000      -9999.0000      -9999.0000      -9999.0000
      -9999.0000      -9999.0000      -9999.0000      -9999.0000      -9999.0000
      -9999.0000      -9999.0000      -9999.0000      -9999.0000      -9999.0000
      -9999.0000      -9999.0000      -9999.0000      -9999.0000      -9999.0000
      -9999.0000      -9999.0000      -9999.0000      -9999.0000      -9999.0000
      -9999.0000      -9999.0000      -9999.0000      -9999.0000      -9999.0000
      -9999.0000      -9999.0000      -9999.0000      -9999.0000      -9999.0000
      -9999.0000      -9999.0000      -9999.0000      -9999.0000      -9999.0000
      -9999.0000       3.0000000       8.0000000       8.0000000       44.000000
       44.000000       44.000000       44.000000       43.000000       44.000000
      -9999.0000      -9999.0000      -9999.0000      -9999.0000      -9999.0000
      -9999.0000      -9999.0000      -9999.0000      -9999.0000      -9999.0000
      -9999.0000      -9999.0000      -9999.0000      -9999.0000      -9999.0000
      -9999.0000      -9999.0000      -9999.0000      -9999.0000      -9999.0000
      -9999.0000      -9999.0000      -9999.0000      -9999.0000      -9999.0000
      -9999.0000      -9999.0000      -9999.0000      -9999.0000      -9999.0000
      -9999.0000      -9999.0000      -9999.0000      -9999.0000      -9999.0000
      -9999.0000      -9999.0000      -9999.0000      -9999.0000      -9999.0000
      -9999.0000      -9999.0000      -9999.0000      -9999.0000      -9999.0000
      -9999.0000      -9999.0000      -9999.0000      -9999.0000      -9999.0000
      -9999.0000      -9999.0000      -9999.0000      -9999.0000      -9999.0000
      -9999.0000      -9999.0000      -9999.0000      -9999.0000      -9999.0000
      -9999.0000      -9999.0000      -9999.0000      -9999.0000      -9999.0000
      -9999.0000      -9999.0000      -9999.0000      -9999.0000      -9999.0000
      -9999.0000      -9999.0000      -9999.0000      -9999.0000      -9999.0000
      -9999.0000      -9999.0000      -9999.0000      -9999.0000      -9999.0000
      -9999.0000      -9999.0000      -9999.0000      -9999.0000      -9999.0000
      -9999.0000      -9999.0000      -9999.0000      -9999.0000      -9999.0000
      -9999.0000      -9999.0000      -9999.0000      -9999.0000      -9999.0000
      -9999.0000      -9999.0000      -9999.0000      -9999.0000      -9999.0000
      -9999.0000       2.0000000       3.0000000       43.000000       44.000000
       44.000000       43.000000       43.000000       43.000000      -9999.0000
      -9999.0000      -9999.0000      -9999.0000      -9999.0000      -9999.0000
      -9999.0000      -9999.0000      -9999.0000      -9999.0000      -9999.0000
      -9999.0000      -9999.0000      -9999.0000      -9999.0000      -9999.0000
      -9999.0000      -9999.0000      -9999.0000      -9999.0000      -9999.0000
      -9999.0000      -9999.0000      -9999.0000      -9999.0000      -9999.0000
      -9999.0000      -9999.0000      -9999.0000      -9999.0000      -9999.0000
      -9999.0000      -9999.0000      -9999.0000      -9999.0000      -9999.0000
      -9999.0000      -9999.0000      -9999.0000      -9999.0000      -9999.0000
      -9999.0000      -9999.0000      -9999.0000      -9999.0000      -9999.0000
      -9999.0000      -9999.0000      -9999.0000      -9999.0000      -9999.0000
      -9999.0000      -9999.0000      -9999.0000      -9999.0000      -9999.0000
      -9999.0000      -9999.0000      -9999.0000      -9999.0000      -9999.0000
      -9999.0000      -9999.0000      -9999.0000      -9999.0000      -9999.0000
      -9999.0000      -9999.0000      -9999.0000      -9999.0000      -9999.0000
      -9999.0000      -9999.0000      -9999.0000      -9999.0000      -9999.0000
      -9999.0000      -9999.0000      -9999.0000      -9999.0000      -9999.0000
      -9999.0000      -9999.0000      -9999.0000      -9999.0000      -9999.0000
      -9999.0000      -9999.0000      -9999.0000      -9999.0000      -9999.0000
      -9999.0000      -9999.0000      -9999.0000      -9999.0000      -9999.0000
      -9999.0000      -9999.0000      -9999.0000      -9999.0000      -9999.0000
      -9999.0000       2.0000000       2.0000000       43.000000       43.000000
       43.000000       43.000000       43.000000      -9999.0000      -9999.0000
      -9999.0000      -9999.0000      -9999.0000      -9999.0000      -9999.0000
      -9999.0000      -9999.0000      -9999.0000      -9999.0000      -9999.0000
      -9999.0000      -9999.0000      -9999.0000      -9999.0000       2.0000000
      -9999.0000      -9999.0000      -9999.0000      -9999.0000      -9999.0000
      -9999.0000      -9999.0000      -9999.0000      -9999.0000      -9999.0000
      -9999.0000      -9999.0000      -9999.0000      -9999.0000      -9999.0000
      -9999.0000      -9999.0000      -9999.0000      -9999.0000      -9999.0000
      -9999.0000      -9999.0000      -9999.0000      -9999.0000      -9999.0000
      -9999.0000      -9999.0000      -9999.0000      -9999.0000      -9999.0000
      -9999.0000      -9999.0000      -9999.0000      -9999.0000      -9999.0000
      -9999.0000      -9999.0000      -9999.0000      -9999.0000      -9999.0000
      -9999.0000      -9999.0000      -9999.0000      -9999.0000      -9999.0000
      -9999.0000      -9999.0000      -9999.0000      -9999.0000      -9999.0000
      -9999.0000      -9999.0000      -9999.0000      -9999.0000      -9999.0000
      -9999.0000      -9999.0000      -9999.0000      -9999.0000      -9999.0000
      -9999.0000      -9999.0000      -9999.0000      -9999.0000      -9999.0000
      -9999.0000      -9999.0000      -9999.0000      -9999.0000      -9999.0000
      -9999.0000      -9999.0000      -9999.0000      -9999.0000      -9999.0000
      -9999.0000      -9999.0000      -9999.0000      -9999.0000      -9999.0000
      -9999.0000      -9999.0000      -9999.0000      -9999.0000      -9999.0000
       2.0000000       2.0000000       2.0000000       43.000000       43.000000
       43.000000      -9999.0000      -9999.0000      -9999.0000      -9999.0000
      -9999.0000      -9999.0000      -9999.0000      -9999.0000      -9999.0000
      -9999.0000      -9999.0000      -9999.0000      -9999.0000      -9999.0000
      -9999.0000      -9999.0000      -9999.0000       2.0000000       2.0000000
       2.0000000       2.0000000      -9999.0000      -9999.0000      -9999.0000
      -9999.0000      -9999.0000      -9999.0000      -9999.0000      -9999.0000
      -9999.0000      -9999.0000      -9999.0000      -9999.0000      -9999.0000
      -9999.0000      -9999.0000      -9999.0000      -9999.0000      -9999.0000
      -9999.0000      -9999.0000      -9999.0000      -9999.0000      -9999.0000
      -9999.0000      -9999.0000      -9999.0000      -9999.0000      -9999.0000
      -9999.0000      -9999.0000      -9999.0000      -9999.0000      -9999.0000
      -9999.0000      -9999.0000      -9999.0000      -9999.0000      -9999.0000
      -9999.0000      -9999.0000      -9999.0000      -9999.0000      -9999.0000
      -9999.0000      -9999.0000      -9999.0000      -9999.0000      -9999.0000
      -9999.0000      -9999.0000      -9999.0000      -9999.0000      -9999.0000
      -9999.0000      -9999.0000      -9999.0000      -9999.0000      -9999.0000
      -9999.0000      -9999.0000      -9999.0000      -9999.0000      -9999.0000
      -9999.0000      -9999.0000      -9999.0000      -9999.0000      -9999.0000
      -9999.0000      -9999.0000      -9999.0000      -9999.0000      -9999.0000
      -9999.0000      -9999.0000      -9999.0000      -9999.0000      -9999.0000
      -9999.0000      -9999.0000      -9999.0000      -9999.0000      -9999.0000
       2.0000000       2.0000000       43.000000       43.000000       2.0000000
      -9999.0000      -9999.0000      -9999.0000      -9999.0000      -9999.0000
      -9999.0000      -9999.0000      -9999.0000      -9999.0000      -9999.0000
      -9999.0000      -9999.0000      -9999.0000      -9999.0000      -9999.0000
      -9999.0000      -9999.0000      -9999.0000      -9999.0000       2.0000000
       43.000000       2.0000000      -9999.0000      -9999.0000      -9999.0000
      -9999.0000      -9999.0000      -9999.0000      -9999.0000      -9999.0000
      -9999.0000      -9999.0000      -9999.0000      -9999.0000      -9999.0000
      -9999.0000      -9999.0000      -9999.0000      -9999.0000      -9999.0000
      -9999.0000      -9999.0000      -9999.0000      -9999.0000      -9999.0000
      -9999.0000      -9999.0000      -9999.0000      -9999.0000      -9999.0000
      -9999.0000      -9999.0000      -9999.0000      -9999.0000      -9999.0000
      -9999.0000      -9999.0000      -9999.0000      -9999.0000      -9999.0000
      -9999.0000      -9999.0000      -9999.0000      -9999.0000      -9999.0000
      -9999.0000      -9999.0000      -9999.0000      -9999.0000      -9999.0000
      -9999.0000      -9999.0000      -9999.0000      -9999.0000      -9999.0000
      -9999.0000      -9999.0000      -9999.0000      -9999.0000      -9999.0000
      -9999.0000      -9999.0000      -9999.0000      -9999.0000      -9999.0000
      -9999.0000      -9999.0000      -9999.0000      -9999.0000      -9999.0000
      -9999.0000      -9999.0000      -9999.0000      -9999.0000      -9999.0000
      -9999.0000      -9999.0000      -9999.0000      -9999.0000      -9999.0000
      -9999.0000      -9999.0000      -9999.0000      -9999.0000      -9999.0000
       2.0000000       2.0000000       2.0000000      -9999.0000      -9999.0000
      -9999.0000      -9999.0000      -9999.0000      -9999.0000      -9999.0000
      -9999.0000      -9999.0000      -9999.0000      -9999.0000      -9999.0000
      -9999.0000      -9999.0000      -9999.0000      -9999.0000      -9999.0000
      -9999.0000      -9999.0000      -9999.0000      -9999.0000      -9999.0000
       43.000000      -9999.0000      -9999.0000      -9999.0000      -9999.0000
      -9999.0000      -9999.0000      -9999.0000      -9999.0000      -9999.0000
      -9999.0000      -9999.0000      -9999.0000      -9999.0000      -9999.0000
      -9999.0000      -9999.0000      -9999.0000      -9999.0000      -9999.0000
      -9999.0000      -9999.0000      -9999.0000      -9999.0000      -9999.0000
      -9999.0000      -9999.0000      -9999.0000      -9999.0000      -9999.0000
      -9999.0000      -9999.0000      -9999.0000      -9999.0000      -9999.0000
      -9999.0000      -9999.0000      -9999.0000      -9999.0000      -9999.0000
      -9999.0000      -9999.0000      -9999.0000      -9999.0000      -9999.0000
      -9999.0000      -9999.0000      -9999.0000      -9999.0000      -9999.0000
      -9999.0000      -9999.0000      -9999.0000      -9999.0000      -9999.0000
      -9999.0000      -9999.0000      -9999.0000      -9999.0000      -9999.0000
      -9999.0000      -9999.0000      -9999.0000      -9999.0000      -9999.0000
      -9999.0000      -9999.0000      -9999.0000      -9999.0000      -9999.0000
      -9999.0000      -9999.0000      -9999.0000      -9999.0000      -9999.0000
      -9999.0000      -9999.0000      -9999.0000      -9999.0000      -9999.0000
      -9999.0000      -9999.0000      -9999.0000      -9999.0000      -9999.0000
       2.0000000       2.0000000      -9999.0000      -9999.0000      -9999.0000
      -9999.0000      -9999.0000      -9999.0000      -9999.0000      -9999.0000
      -9999.0000      -9999.0000      -9999.0000      -9999.0000      -9999.0000
      -9999.0000      -9999.0000      -9999.0000      -9999.0000      -9999.0000
      -9999.0000      -9999.0000      -9999.0000      -9999.0000      -9999.0000
      -9999.0000      -9999.0000      -9999.0000       43.000000      -9999.0000
      -9999.0000      -9999.0000      -9999.0000      -9999.0000      -9999.0000
      -9999.0000      -9999.0000      -9999.0000      -9999.0000      -9999.0000
      -9999.0000      -9999.0000      -9999.0000      -9999.0000      -9999.0000
      -9999.0000      -9999.0000      -9999.0000      -9999.0000      -9999.0000
      -9999.0000      -9999.0000      -9999.0000      -9999.0000      -9999.0000
      -9999.0000      -9999.0000      -9999.0000      -9999.0000      -9999.0000
      -9999.0000      -9999.0000      -9999.0000      -9999.0000      -9999.0000
      -9999.0000      -9999.0000      -9999.0000      -9999.0000      -9999.0000
      -9999.0000      -9999.0000      -9999.0000      -9999.0000      -9999.0000
      -9999.0000      -9999.0000      -9999.0000      -9999.0000      -9999.0000
      -9999.0000      -9999.0000      -9999.0000      -9999.0000      -9999.0000
      -9999.0000      -9999.0000      -9999.0000      -9999.0000      -9999.0000
      -9999.0000      -9999.0000      -9999.0000      -9999.0000      -9999.0000
      -9999.0000      -9999.0000      -9999.0000      -9999.0000      -9999.0000
      -9999.0000      -9999.0000      -9999.0000      -9999.0000      -9999.0000
      -9999.0000      -9999.0000      -9999.0000      -9999.0000      -9999.0000
      -9999.0000       2.0000000      -9999.0000      -9999.0000      -9999.0000
      -9999.0000      -9999.0000      -9999.0000      -9999.0000      -9999.0000
       8.0000000      -9999.0000      -9999.0000      -9999.0000      -9999.0000
      -9999.0000      -9999.0000      -9999.0000      -9999.0000      -9999.0000
      -9999.0000      -9999.0000      -9999.0000      -9999.0000      -9999.0000
      -9999.0000      -9999.0000      -9999.0000      -9999.0000      -9999.0000
      -9999.0000      -9999.0000      -9999.0000      -9999.0000      -9999.0000
      -9999.0000      -9999.0000      -9999.0000      -9999.0000      -9999.0000
      -9999.0000      -9999.0000      -9999.0000      -9999.0000      -9999.0000
      -9999.0000      -9999.0000      -9999.0000      -9999.0000      -9999.0000
      -9999.0000      -9999.0000      -9999.0000      -9999.0000      -9999.0000
      -9999.0000      -9999.0000      -9999.0000      -9999.0000      -9999.0000
      -9999.0000      -9999.0000      -9999.0000      -9999.0000      -9999.0000
      -9999.0000      -9999.0000      -9999.0000      -9999.0000      -9999.0000
      -9999.0000      -9999.0000      -9999.0000      -9999.0000      -9999.0000
      -9999.0000      -9999.0000      -9999.0000      -9999.0000      -9999.0000
      -9999.0000      -9999.0000      -9999.0000      -9999.0000      -9999.0000
      -9999.0000      -9999.0000      -9999.0000      -9999.0000      -9999.0000
      -9999.0000      -9999.0000      -9999.0000      -9999.0000      -9999.0000
      -9999.0000      -9999.0000      -9999.0000      -9999.0000      -9999.0000
      -9999.0000      -9999.0000      -9999.0000      -9999.0000      -9999.0000
      -9999.0000      -9999.0000      -9999.0000      -9999.0000       2.0000000
       43.000000      -9999.0000      -9999.0000      -9999.0000      -9999.0000
      -9999.0000      -9999.0000      -9999.0000      -9999.0000      -9999.0000
      -9999.0000      -9999.0000      -9999.0000      -9999.0000      -9999.0000
      -9999.0000      -9999.0000      -9999.0000      -9999.0000      -9999.0000
      -9999.0000      -9999.0000      -9999.0000      -9999.0000      -9999.0000
      -9999.0000      -9999.0000      -9999.0000      -9999.0000      -9999.0000
      -9999.0000      -9999.0000      -9999.0000      -9999.0000      -9999.0000
      -9999.0000      -9999.0000      -9999.0000      -9999.0000      -9999.0000
      -9999.0000      -9999.0000      -9999.0000      -9999.0000      -9999.0000
      -9999.0000      -9999.0000      -9999.0000      -9999.0000      -9999.0000
      -9999.0000      -9999.0000      -9999.0000      -9999.0000      -9999.0000
      -9999.0000      -9999.0000      -9999.0000      -9999.0000      -9999.0000
      -9999.0000      -9999.0000      -9999.0000      -9999.0000      -9999.0000
      -9999.0000      -9999.0000      -9999.0000      -9999.0000      -9999.0000
      -9999.0000      -9999.0000      -9999.0000      -9999.0000      -9999.0000
      -9999.0000      -9999.0000      -9999.0000      -9999.0000      -9999.0000
      -9999.0000      -9999.0000      -9999.0000      -9999.0000      -9999.0000
      -9999.0000      -9999.0000      -9999.0000      -9999.0000      -9999.0000
      -9999.0000      -9999.0000      -9999.0000      -9999.0000      -9999.0000
      -9999.0000      -9999.0000      -9999.0000      -9999.0000      -9999.0000
      -9999.0000      -9999.0000      -9999.0000      -9999.0000      -9999.0000
       2.0000000       2.0000000       2.0000000       2.0000000       43.000000
       43.000000      -9999.0000      -9999.0000      -9999.0000      -9999.0000
       2.0000000      -9999.0000      -9999.0000      -9999.0000      -9999.0000
      -9999.0000      -9999.0000      -9999.0000      -9999.0000      -9999.0000
      -9999.0000      -9999.0000      -9999.0000      -9999.0000      -9999.0000
      -9999.0000      -9999.0000      -9999.0000      -9999.0000      -9999.0000
      -9999.0000      -9999.0000      -9999.0000      -9999.0000      -9999.0000
      -9999.0000      -9999.0000      -9999.0000      -9999.0000      -9999.0000
      -9999.0000      -9999.0000      -9999.0000      -9999.0000      -9999.0000
      -9999.0000      -9999.0000      -9999.0000      -9999.0000      -9999.0000
      -9999.0000      -9999.0000      -9999.0000      -9999.0000      -9999.0000
      -9999.0000      -9999.0000      -9999.0000      -9999.0000      -9999.0000
      -9999.0000      -9999.0000      -9999.0000      -9999.0000      -9999.0000
      -9999.0000      -9999.0000      -9999.0000      -9999.0000      -9999.0000
      -9999.0000      -9999.0000      -9999.0000      -9999.0000      -9999.0000
      -9999.0000      -9999.0000      -9999.0000      -9999.0000      -9999.0000
      -9999.0000      -9999.0000      -9999.0000      -9999.0000      -9999.0000
      -9999.0000      -9999.0000      -9999.0000      -9999.0000      -9999.0000
      -9999.0000      -9999.0000      -9999.0000      -9999.0000      -9999.0000
      -9999.0000      -9999.0000      -9999.0000      -9999.0000      -9999.0000
      -9999.0000      -9999.0000      -9999.0000      -9999.0000      -9999.0000
      -9999.0000      -9999.0000      -9999.0000      -9999.0000      -9999.0000
       2.0000000       2.0000000       2.0000000       2.0000000       43.000000
      -9999.0000      -9999.0000      -9999.0000      -9999.0000      -9999.0000
       2.0000000      -9999.0000      -9999.0000      -9999.0000      -9999.0000
      -9999.0000      -9999.0000      -9999.0000      -9999.0000      -9999.0000
      -9999.0000      -9999.0000      -9999.0000      -9999.0000      -9999.0000
      -9999.0000      -9999.0000      -9999.0000      -9999.0000      -9999.0000
      -9999.0000      -9999.0000      -9999.0000      -9999.0000      -9999.0000
      -9999.0000      -9999.0000      -9999.0000      -9999.0000      -9999.0000
      -9999.0000      -9999.0000      -9999.0000      -9999.0000      -9999.0000
      -9999.0000      -9999.0000      -9999.0000      -9999.0000      -9999.0000
      -9999.0000      -9999.0000      -9999.0000      -9999.0000      -9999.0000
      -9999.0000      -9999.0000      -9999.0000      -9999.0000      -9999.0000
      -9999.0000      -9999.0000      -9999.0000      -9999.0000      -9999.0000
      -9999.0000      -9999.0000      -9999.0000      -9999.0000      -9999.0000
      -9999.0000      -9999.0000      -9999.0000      -9999.0000      -9999.0000
      -9999.0000      -9999.0000      -9999.0000      -9999.0000      -9999.0000
      -9999.0000      -9999.0000      -9999.0000      -9999.0000      -9999.0000
      -9999.0000      -9999.0000      -9999.0000      -9999.0000      -9999.0000
      -9999.0000      -9999.0000      -9999.0000      -9999.0000      -9999.0000
      -9999.0000      -9999.0000      -9999.0000      -9999.0000      -9999.0000
      -9999.0000      -9999.0000      -9999.0000      -9999.0000      -9999.0000
      -9999.0000      -9999.0000      -9999.0000      -9999.0000      -9999.0000
      -9999.0000       2.0000000       2.0000000       2.0000000      -9999.0000
      -9999.0000      -9999.0000      -9999.0000      -9999.0000      -9999.0000
      -9999.0000      -9999.0000      -9999.0000      -9999.0000      -9999.0000
      -9999.0000      -9999.0000      -9999.0000      -9999.0000      -9999.0000
      -9999.0000      -9999.0000      -9999.0000      -9999.0000      -9999.0000
      -9999.0000      -9999.0000      -9999.0000      -9999.0000      -9999.0000
      -9999.0000      -9999.0000      -9999.0000      -9999.0000      -9999.0000
      -9999.0000      -9999.0000      -9999.0000      -9999.0000      -9999.0000
      -9999.0000      -9999.0000      -9999.0000      -9999.0000      -9999.0000
      -9999.0000      -9999.0000      -9999.0000      -9999.0000      -9999.0000
      -9999.0000      -9999.0000      -9999.0000      -9999.0000      -9999.0000
      -9999.0000      -9999.0000      -9999.0000      -9999.0000      -9999.0000
      -9999.0000      -9999.0000      -9999.0000      -9999.0000      -9999.0000
      -9999.0000      -9999.0000      -9999.0000      -9999.0000      -9999.0000
      -9999.0000      -9999.0000      -9999.0000      -9999.0000      -9999.0000
      -9999.0000      -9999.0000      -9999.0000      -9999.0000      -9999.0000
      -9999.0000      -9999.0000      -9999.0000      -9999.0000      -9999.0000
      -9999.0000      -9999.0000      -9999.0000      -9999.0000      -9999.0000
      -9999.0000      -9999.0000      -9999.0000      -9999.0000      -9999.0000
      -9999.0000      -9999.0000      -9999.0000      -9999.0000      -9999.0000
      -9999.0000      -9999.0000      -9999.0000      -9999.0000      -9999.0000
      -9999.0000      -9999.0000      -9999.0000      -9999.0000      -9999.0000
      -9999.0000      -9999.0000       2.0000000      -9999.0000      -9999.0000
      -9999.0000      -9999.0000      -9999.0000      -9999.0000       0.0000000
      -9999.0000      -9999.0000      -9999.0000      -9999.0000      -9999.0000
      -9999.0000      -9999.0000      -9999.0000      -9999.0000      -9999.0000
      -9999.0000      -9999.0000      -9999.0000      -9999.0000      -9999.0000
      -9999.0000      -9999.0000      -9999.0000      -9999.0000      -9999.0000
      -9999.0000      -9999.0000      -9999.0000      -9999.0000      -9999.0000
      -9999.0000      -9999.0000      -9999.0000      -9999.0000      -9999.0000
      -9999.0000      -9999.0000      -9999.0000      -9999.0000      -9999.0000
      -9999.0000      -9999.0000      -9999.0000      -9999.0000      -9999.0000
      -9999.0000      -9999.0000      -9999.0000      -9999.0000      -9999.0000
      -9999.0000      -9999.0000      -9999.0000      -9999.0000      -9999.0000
      -9999.0000      -9999.0000      -9999.0000      -9999.0000      -9999.0000
      -9999.0000      -9999.0000      -9999.0000      -9999.0000      -9999.0000
      -9999.0000      -9999.0000      -9999.0000      -9999.0000      -9999.0000
      -9999.0000      -9999.0000      -9999.0000      -9999.0000      -9999.0000
      -9999.0000      -9999.0000      -9999.0000      -9999.0000      -9999.0000
      -9999.0000      -9999.0000      -9999.0000      -9999.0000      -9999.0000
      -9999.0000      -9999.0000      -9999.0000      -9999.0000      -9999.0000
      -9999.0000      -9999.0000      -9999.0000      -9999.0000      -9999.0000
      -9999.0000      -9999.0000      -9999.0000      -9999.0000      -9999.0000
      -9999.0000      -9999.0000      -9999.0000      -9999.0000      -9999.0000
      -9999.0000      -9999.0000      -9999.0000      -9999.0000      -9999.0000
      -9999.0000      -9999.0000      -9999.0000      -9999.0000      -9999.0000
      -9999.0000      -9999.0000      -9999.0000      -9999.0000      -9999.0000
      -9999.0000      -9999.0000      -9999.0000      -9999.0000      -9999.0000
      -9999.0000      -9999.0000      -9999.0000      -9999.0000      -9999.0000
      -9999.0000      -9999.0000      -9999.0000      -9999.0000      -9999.0000
      -9999.0000      -9999.0000      -9999.0000      -9999.0000      -9999.0000
      -9999.0000      -9999.0000      -9999.0000      -9999.0000      -9999.0000
      -9999.0000      -9999.0000      -9999.0000      -9999.0000      -9999.0000
      -9999.0000      -9999.0000      -9999.0000      -9999.0000      -9999.0000
      -9999.0000      -9999.0000      -9999.0000      -9999.0000      -9999.0000
      -9999.0000      -9999.0000      -9999.0000      -9999.0000      -9999.0000
      -9999.0000      -9999.0000      -9999.0000      -9999.0000      -9999.0000
      -9999.0000      -9999.0000      -9999.0000      -9999.0000      -9999.0000
      -9999.0000      -9999.0000      -9999.0000      -9999.0000      -9999.0000
      -9999.0000      -9999.0000      -9999.0000      -9999.0000      -9999.0000
      -9999.0000      -9999.0000      -9999.0000      -9999.0000      -9999.0000
      -9999.0000      -9999.0000      -9999.0000      -9999.0000      -9999.0000
      -9999.0000      -9999.0000      -9999.0000      -9999.0000      -9999.0000
      -9999.0000      -9999.0000      -9999.0000      -9999.0000      -9999.0000
      -9999.0000      -9999.0000      -9999.0000      -9999.0000      -9999.0000
      -9999.0000      -9999.0000      -9999.0000      -9999.0000      -9999.0000
      -9999.0000      -9999.0000      -9999.0000      -9999.0000      -9999.0000
      -9999.0000      -9999.0000      -9999.0000      -9999.0000      -9999.0000
       0.0000000      -9999.0000      -9999.0000      -9999.0000      -9999.0000
      -9999.0000      -9999.0000      -9999.0000      -9999.0000      -9999.0000
      -9999.0000      -9999.0000      -9999.0000      -9999.0000      -9999.0000
      -9999.0000      -9999.0000      -9999.0000      -9999.0000      -9999.0000
      -9999.0000      -9999.0000      -9999.0000      -9999.0000      -9999.0000
      -9999.0000      -9999.0000      -9999.0000      -9999.0000      -9999.0000
      -9999.0000      -9999.0000      -9999.0000      -9999.0000      -9999.0000
      -9999.0000      -9999.0000      -9999.0000      -9999.0000      -9999.0000
      -9999.0000      -9999.0000      -9999.0000      -9999.0000      -9999.0000
      -9999.0000      -9999.0000      -9999.0000      -9999.0000      -9999.0000
      -9999.0000      -9999.0000      -9999.0000      -9999.0000      -9999.0000
      -9999.0000      -9999.0000      -9999.0000      -9999.0000      -9999.0000
      -9999.0000      -9999.0000      -9999.0000      -9999.0000      -9999.0000
      -9999.0000      -9999.0000      -9999.0000      -9999.0000      -9999.0000
      -9999.0000      -9999.0000      -9999.0000      -9999.0000      -9999.0000
      -9999.0000      -9999.0000      -9999.0000      -9999.0000      -9999.0000
      -9999.0000      -9999.0000      -9999.0000      -9999.0000      -9999.0000
      -9999.0000      -9999.0000      -9999.0000      -9999.0000      -9999.0000
      -9999.0000      -9999.0000      -9999.0000      -9999.0000      -9999.0000
      -9999.0000      -9999.0000      -9999.0000      -9999.0000      -9999.0000
      -9999.0000      -9999.0000      -9999.0000      -9999.0000      -9999.0000
      -9999.0000      -9999.0000      -9999.0000      -9999.0000      -9999.0000
      -9999.0000      -9999.0000      -9999.0000      -9999.0000      -9999.0000
      -9999.0000      -9999.0000      -9999.0000      -9999.0000      -9999.0000
      -9999.0000      -9999.0000      -9999.0000      -9999.0000      -9999.0000
      -9999.0000      -9999.0000      -9999.0000      -9999.0000      -9999.0000
      -9999.0000      -9999.0000      -9999.0000      -9999.0000      -9999.0000
      -9999.0000      -9999.0000      -9999.0000      -9999.0000      -9999.0000
      -9999.0000      -9999.0000      -9999.0000      -9999.0000      -9999.0000
      -9999.0000      -9999.0000      -9999.0000      -9999.0000      -9999.0000
      -9999.0000      -9999.0000      -9999.0000      -9999.0000      -9999.0000
      -9999.0000      -9999.0000      -9999.0000      -9999.0000      -9999.0000
      -9999.0000      -9999.0000      -9999.0000      -9999.0000      -9999.0000
      -9999.0000      -9999.0000      -9999.0000      -9999.0000      -9999.0000
      -9999.0000      -9999.0000      -9999.0000      -9999.0000      -9999.0000
      -9999.0000      -9999.0000      -9999.0000      -9999.0000      -9999.0000
      -9999.0000      -9999.0000      -9999.0000      -9999.0000      -9999.0000
      -9999.0000      -9999.0000      -9999.0000      -9999.0000      -9999.0000
      -9999.0000      -9999.0000      -9999.0000      -9999.0000      -9999.0000
      -9999.0000      -9999.0000      -9999.0000      -9999.0000      -9999.0000
      -9999.0000      -9999.0000      -9999.0000      -9999.0000      -9999.0000
      -9999.0000      -9999.0000      -9999.0000      -9999.0000      -9999.0000
      -9999.0000      -9999.0000      -9999.0000      -9999.0000      -9999.0000
      -9999.0000      -9999.0000      -9999.0000      -9999.0000      -9999.0000
      -9999.0000      -9999.0000      -9999.0000      -9999.0000      -9999.0000
      -9999.0000      -9999.0000      -9999.0000      -9999.0000      -9999.0000
      -9999.0000      -9999.0000      -9999.0000      -9999.0000      -9999.0000
      -9999.0000      -9999.0000      -9999.0000      -9999.0000      -9999.0000
      -9999.0000      -9999.0000      -9999.0000      -9999.0000      -9999.0000
      -9999.0000      -9999.0000      -9999.0000      -9999.0000      -9999.0000
      -9999.0000      -9999.0000      -9999.0000      -9999.0000      -9999.0000
      -9999.0000      -9999.0000      -9999.0000      -9999.0000      -9999.0000
      -9999.0000      -9999.0000      -9999.0000      -9999.0000      -9999.0000
      -9999.0000      -9999.0000      -9999.0000      -9999.0000      -9999.0000
      -9999.0000      -9999.0000      -9999.0000      -9999.0000      -9999.0000
      -9999.0000      -9999.0000      -9999.0000      -9999.0000      -9999.0000
      -9999.0000      -9999.0000      -9999.0000      -9999.0000      -9999.0000
      -9999.0000      -9999.0000      -9999.0000      -9999.0000      -9999.0000
      -9999.0000      -9999.0000      -9999.0000      -9999.0000      -9999.0000
      -9999.0000      -9999.0000      -9999.0000      -9999.0000      -9999.0000
      -9999.0000      -9999.0000      -9999.0000      -9999.0000      -9999.0000
      -9999.0000      -9999.0000      -9999.0000      -9999.0000      -9999.0000
      -9999.0000      -9999.0000      -9999.0000      -9999.0000      -9999.0000
      -9999.0000      -9999.0000      -9999.0000      -9999.0000      -9999.0000
      -9999.0000      -9999.0000      -9999.0000      -9999.0000      -9999.0000
      -9999.0000      -9999.0000      -9999.0000      -9999.0000      -9999.0000
      -9999.0000      -9999.0000      -9999.0000      -9999.0000      -9999.0000
      -9999.0000      -9999.0000      -9999.0000      -9999.0000      -9999.0000
      -9999.0000      -9999.0000      -9999.0000      -9999.0000      -9999.0000
      -9999.0000      -9999.0000      -9999.0000      -9999.0000      -9999.0000
      -9999.0000      -9999.0000      -9999.0000      -9999.0000      -9999.0000
      -9999.0000      -9999.0000      -9999.0000      -9999.0000      -9999.0000
      -9999.0000      -9999.0000      -9999.0000      -9999.0000      -9999.0000
      -9999.0000      -9999.0000      -9999.0000      -9999.0000      -9999.0000
      -9999.0000      -9999.0000      -9999.0000      -9999.0000      -9999.0000
      -9999.0000      -9999.0000      -9999.0000      -9999.0000      -9999.0000
      -9999.0000      -9999.0000      -9999.0000      -9999.0000      -9999.0000
      -9999.0000      -9999.0000      -9999.0000      -9999.0000      -9999.0000
      -9999.0000      -9999.0000      -9999.0000      -9999.0000      -9999.0000
      -9999.0000      -9999.0000      -9999.0000      -9999.0000      -9999.0000
      -9999.0000      -9999.0000      -9999.0000      -9999.0000      -9999.0000
      -9999.0000      -9999.0000      -9999.0000      -9999.0000      -9999.0000
      -9999.0000      -9999.0000      -9999.0000      -9999.0000      -9999.0000
      -9999.0000      -9999.0000      -9999.0000      -9999.0000      -9999.0000
      -9999.0000      -9999.0000      -9999.0000      -9999.0000      -9999.0000
      -9999.0000      -9999.0000      -9999.0000      -9999.0000      -9999.0000
      -9999.0000      -9999.0000      -9999.0000      -9999.0000      -9999.0000
      -9999.0000      -9999.0000      -9999.0000      -9999.0000      -9999.0000
      -9999.0000      -9999.0000      -9999.0000      -9999.0000      -9999.0000
      -9999.0000      -9999.0000      -9999.0000      -9999.0000      -9999.0000
      -9999.0000      -9999.0000      -9999.0000      -9999.0000      -9999.0000
      -9999.0000      -9999.0000      -9999.0000      -9999.0000      -9999.0000
      -9999.0000      -9999.0000      -9999.0000      -9999.0000      -9999.0000
      -9999.0000      -9999.0000      -9999.0000      -9999.0000      -9999.0000
      -9999.0000      -9999.0000      -9999.0000      -9999.0000      -9999.0000
      -9999.0000      -9999.0000      -9999.0000      -9999.0000      -9999.0000
      -9999.0000      -9999.0000      -9999.0000      -9999.0000      -9999.0000
      -9999.0000      -9999.0000      -9999.0000      -9999.0000      -9999.0000
      -9999.0000      -9999.0000      -9999.0000      -9999.0000      -9999.0000
      -9999.0000      -9999.0000      -9999.0000      -9999.0000      -9999.0000
      -9999.0000      -9999.0000      -9999.0000      -9999.0000      -9999.0000
      -9999.0000      -9999.0000      -9999.0000      -9999.0000      -9999.0000
      -9999.0000      -9999.0000      -9999.0000      -9999.0000      -9999.0000
      -9999.0000      -9999.0000      -9999.0000      -9999.0000      -9999.0000
      -9999.0000      -9999.0000      -9999.0000      -9999.0000      -9999.0000
      -9999.0000      -9999.0000      -9999.0000      -9999.0000      -9999.0000
      -9999.0000      -9999.0000      -9999.0000      -9999.0000      -9999.0000
      -9999.0000      -9999.0000      -9999.0000      -9999.0000      -9999.0000
      -9999.0000      -9999.0000      -9999.0000      -9999.0000      -9999.0000
      -9999.0000      -9999.0000      -9999.0000      -9999.0000      -9999.0000
      -9999.0000      -9999.0000      -9999.0000      -9999.0000      -9999.0000
      -9999.0000      -9999.0000      -9999.0000      -9999.0000      -9999.0000
      -9999.0000      -9999.0000      -9999.0000      -9999.0000      -9999.0000
      -9999.0000      -9999.0000      -9999.0000      -9999.0000      -9999.0000
      -9999.0000      -9999.0000      -9999.0000      -9999.0000      -9999.0000
      -9999.0000      -9999.0000      -9999.0000      -9999.0000      -9999.0000
      -9999.0000      -9999.0000      -9999.0000      -9999.0000      -9999.0000
      -9999.0000      -9999.0000      -9999.0000      -9999.0000      -9999.0000
      -9999.0000      -9999.0000      -9999.0000      -9999.0000      -9999.0000
      -9999.0000      -9999.0000      -9999.0000      -9999.0000      -9999.0000
      -9999.0000      -9999.0000      -9999.0000      -9999.0000      -9999.0000
      -9999.0000      -9999.0000      -9999.0000      -9999.0000      -9999.0000
      -9999.0000      -9999.0000      -9999.0000      -9999.0000      -9999.0000
      -9999.0000      -9999.0000      -9999.0000      -9999.0000      -9999.0000
      -9999.0000      -9999.0000      -9999.0000      -9999.0000      -9999.0000
      -9999.0000      -9999.0000      -9999.0000      -9999.0000      -9999.0000
      -9999.0000      -9999.0000      -9999.0000      -9999.0000      -9999.0000
      -9999.0000      -9999.0000      -9999.0000      -9999.0000      -9999.0000
      -9999.0000      -9999.0000      -9999.0000      -9999.0000      -9999.0000
      -9999.0000      -9999.0000      -9999.0000      -9999.0000      -9999.0000
      -9999.0000      -9999.0000      -9999.0000      -9999.0000      -9999.0000
      -9999.0000      -9999.0000      -9999.0000      -9999.0000      -9999.0000
      -9999.0000      -9999.0000      -9999.0000      -9999.0000      -9999.0000
      -9999.0000      -9999.0000      -9999.0000      -9999.0000      -9999.0000
      -9999.0000      -9999.0000      -9999.0000      -9999.0000      -9999.0000
      -9999.0000      -9999.0000      -9999.0000      -9999.0000      -9999.0000
      -9999.0000      -9999.0000      -9999.0000      -9999.0000      -9999.0000
      -9999.0000      -9999.0000      -9999.0000      -9999.0000      -9999.0000
      -9999.0000      -9999.0000      -9999.0000      -9999.0000      -9999.0000
      -9999.0000      -9999.0000      -9999.0000      -9999.0000      -9999.0000
      -9999.0000      -9999.0000      -9999.0000      -9999.0000      -9999.0000
      -9999.0000      -9999.0000      -9999.0000      -9999.0000      -9999.0000
      -9999.0000      -9999.0000      -9999.0000      -9999.0000      -9999.0000
      -9999.0000      -9999.0000      -9999.0000      -9999.0000      -9999.0000
      -9999.0000      -9999.0000      -9999.0000      -9999.0000      -9999.0000
      -9999.0000      -9999.0000      -9999.0000      -9999.0000      -9999.0000
      -9999.0000      -9999.0000      -9999.0000      -9999.0000      -9999.0000
      -9999.0000      -9999.0000      -9999.0000      -9999.0000      -9999.0000
      -9999.0000      -9999.0000      -9999.0000      -9999.0000      -9999.0000
      -9999.0000      -9999.0000      -9999.0000      -9999.0000      -9999.0000
      -9999.0000      -9999.0000      -9999.0000      -9999.0000      -9999.0000
      -9999.0000      -9999.0000      -9999.0000      -9999.0000      -9999.0000
      -9999.0000      -9999.0000      -9999.0000      -9999.0000      -9999.0000
      -9999.0000      -9999.0000      -9999.0000      -9999.0000      -9999.0000
      -9999.0000      -9999.0000      -9999.0000      -9999.0000      -9999.0000
      -9999.0000      -9999.0000      -9999.0000      -9999.0000      -9999.0000
      -9999.0000      -9999.0000      -9999.0000      -9999.0000      -9999.0000
      -9999.0000      -9999.0000      -9999.0000      -9999.0000      -9999.0000
      -9999.0000      -9999.0000      -9999.0000      -9999.0000      -9999.0000
      -9999.0000      -9999.0000      -9999.0000      -9999.0000      -9999.0000
      -9999.0000      -9999.0000      -9999.0000      -9999.0000      -9999.0000
      -9999.0000      -9999.0000      -9999.0000      -9999.0000      -9999.0000
      -9999.0000      -9999.0000      -9999.0000      -9999.0000      -9999.0000
      -9999.0000      -9999.0000      -9999.0000      -9999.0000      -9999.0000
      -9999.0000      -9999.0000      -9999.0000      -9999.0000      -9999.0000
      -9999.0000      -9999.0000      -9999.0000      -9999.0000      -9999.0000
      -9999.0000      -9999.0000      -9999.0000      -9999.0000      -9999.0000
      -9999.0000      -9999.0000      -9999.0000      -9999.0000      -9999.0000
      -9999.0000      -9999.0000      -9999.0000      -9999.0000      -9999.0000
      -9999.0000      -9999.0000      -9999.0000      -9999.0000      -9999.0000
      -9999.0000      -9999.0000      -9999.0000      -9999.0000      -9999.0000
      -9999.0000      -9999.0000      -9999.0000      -9999.0000      -9999.0000
      -9999.0000      -9999.0000      -9999.0000      -9999.0000      -9999.0000
      -9999.0000      -9999.0000      -9999.0000      -9999.0000      -9999.0000
      -9999.0000      -9999.0000      -9999.0000      -9999.0000      -9999.0000
      -9999.0000      -9999.0000      -9999.0000      -9999.0000      -9999.0000
      -9999.0000      -9999.0000      -9999.0000      -9999.0000      -9999.0000
      -9999.0000      -9999.0000      -9999.0000      -9999.0000      -9999.0000
      -9999.0000      -9999.0000      -9999.0000      -9999.0000      -9999.0000
      -9999.0000      -9999.0000      -9999.0000      -9999.0000      -9999.0000
      -9999.0000      -9999.0000      -9999.0000      -9999.0000      -9999.0000
      -9999.0000      -9999.0000      -9999.0000      -9999.0000      -9999.0000
      -9999.0000      -9999.0000      -9999.0000      -9999.0000      -9999.0000
      -9999.0000      -9999.0000      -9999.0000      -9999.0000      -9999.0000
      -9999.0000      -9999.0000      -9999.0000      -9999.0000      -9999.0000
      -9999.0000      -9999.0000      -9999.0000      -9999.0000      -9999.0000
      -9999.0000      -9999.0000      -9999.0000      -9999.0000      -9999.0000
      -9999.0000      -9999.0000      -9999.0000      -9999.0000      -9999.0000
      -9999.0000      -9999.0000      -9999.0000      -9999.0000      -9999.0000
      -9999.0000      -9999.0000      -9999.0000      -9999.0000      -9999.0000
      -9999.0000      -9999.0000      -9999.0000      -9999.0000      -9999.0000
      -9999.0000      -9999.0000      -9999.0000      -9999.0000      -9999.0000
      -9999.0000      -9999.0000      -9999.0000      -9999.0000      -9999.0000
      -9999.0000      -9999.0000      -9999.0000      -9999.0000      -9999.0000
      -9999.0000      -9999.0000      -9999.0000      -9999.0000      -9999.0000
      -9999.0000      -9999.0000      -9999.0000      -9999.0000      -9999.0000
      -9999.0000      -9999.0000      -9999.0000      -9999.0000      -9999.0000
      -9999.0000      -9999.0000      -9999.0000      -9999.0000      -9999.0000
      -9999.0000      -9999.0000      -9999.0000      -9999.0000      -9999.0000
      -9999.0000      -9999.0000      -9999.0000      -9999.0000      -9999.0000
      -9999.0000      -9999.0000      -9999.0000      -9999.0000      -9999.0000
      -9999.0000      -9999.0000      -9999.0000      -9999.0000      -9999.0000
      -9999.0000      -9999.0000      -9999.0000      -9999.0000      -9999.0000
      -9999.0000      -9999.0000      -9999.0000      -9999.0000      -9999.0000
      -9999.0000      -9999.0000      -9999.0000      -9999.0000      -9999.0000
      -9999.0000      -9999.0000      -9999.0000      -9999.0000      -9999.0000
      -9999.0000      -9999.0000      -9999.0000      -9999.0000      -9999.0000
      -9999.0000      -9999.0000      -9999.0000      -9999.0000      -9999.0000
      -9999.0000      -9999.0000      -9999.0000      -9999.0000      -9999.0000
      -9999.0000      -9999.0000      -9999.0000      -9999.0000      -9999.0000
      -9999.0000      -9999.0000      -9999.0000      -9999.0000      -9999.0000
      -9999.0000      -9999.0000      -9999.0000      -9999.0000      -9999.0000
      -9999.0000      -9999.0000      -9999.0000      -9999.0000      -9999.0000
      -9999.0000      -9999.0000      -9999.0000      -9999.0000      -9999.0000
      -9999.0000      -9999.0000      -9999.0000      -9999.0000      -9999.0000
      -9999.0000      -9999.0000      -9999.0000      -9999.0000      -9999.0000
      -9999.0000      -9999.0000      -9999.0000      -9999.0000      -9999.0000
      -9999.0000      -9999.0000      -9999.0000      -9999.0000      -9999.0000
      -9999.0000      -9999.0000      -9999.0000      -9999.0000      -9999.0000
      -9999.0000      -9999.0000      -9999.0000      -9999.0000      -9999.0000
      -9999.0000      -9999.0000      -9999.0000      -9999.0000      -9999.0000
      -9999.0000      -9999.0000      -9999.0000      -9999.0000      -9999.0000
      -9999.0000      -9999.0000      -9999.0000      -9999.0000      -9999.0000
      -9999.0000      -9999.0000      -9999.0000      -9999.0000      -9999.0000
      -9999.0000      -9999.0000      -9999.0000      -9999.0000      -9999.0000
      -9999.0000      -9999.0000      -9999.0000      -9999.0000      -9999.0000
      -9999.0000      -9999.0000      -9999.0000      -9999.0000      -9999.0000
      -9999.0000      -9999.0000      -9999.0000      -9999.0000      -9999.0000
      -9999.0000      -9999.0000      -9999.0000      -9999.0000      -9999.0000
      -9999.0000      -9999.0000      -9999.0000      -9999.0000      -9999.0000
      -9999.0000      -9999.0000      -9999.0000      -9999.0000      -9999.0000
      -9999.0000      -9999.0000      -9999.0000      -9999.0000      -9999.0000
      -9999.0000      -9999.0000      -9999.0000      -9999.0000      -9999.0000
      -9999.0000      -9999.0000      -9999.0000      -9999.0000      -9999.0000
      -9999.0000      -9999.0000      -9999.0000      -9999.0000      -9999.0000
      -9999.0000      -9999.0000      -9999.0000      -9999.0000      -9999.0000
      -9999.0000      -9999.0000      -9999.0000      -9999.0000      -9999.0000
      -9999.0000      -9999.0000      -9999.0000      -9999.0000      -9999.0000
      -9999.0000      -9999.0000      -9999.0000      -9999.0000      -9999.0000
      -9999.0000      -9999.0000      -9999.0000      -9999.0000      -9999.0000
      -9999.0000      -9999.0000      -9999.0000      -9999.0000      -9999.0000
      -9999.0000      -9999.0000      -9999.0000      -9999.0000      -9999.0000
      -9999.0000      -9999.0000      -9999.0000      -9999.0000      -9999.0000
      -9999.0000      -9999.0000      -9999.0000      -9999.0000      -9999.0000
      -9999.0000      -9999.0000      -9999.0000      -9999.0000      -9999.0000
      -9999.0000      -9999.0000      -9999.0000      -9999.0000      -9999.0000
      -9999.0000      -9999.0000      -9999.0000      -9999.0000      -9999.0000
      -9999.0000      -9999.0000      -9999.0000      -9999.0000      -9999.0000
      -9999.0000      -9999.0000      -9999.0000      -9999.0000      -9999.0000
      -9999.0000      -9999.0000      -9999.0000      -9999.0000      -9999.0000
      -9999.0000      -9999.0000      -9999.0000      -9999.0000      -9999.0000
      -9999.0000      -9999.0000      -9999.0000      -9999.0000      -9999.0000
      -9999.0000      -9999.0000      -9999.0000      -9999.0000      -9999.0000
      -9999.0000      -9999.0000      -9999.0000      -9999.0000      -9999.0000
      -9999.0000      -9999.0000      -9999.0000      -9999.0000      -9999.0000
      -9999.0000      -9999.0000      -9999.0000      -9999.0000      -9999.0000
      -9999.0000      -9999.0000      -9999.0000      -9999.0000      -9999.0000
      -9999.0000      -9999.0000      -9999.0000      -9999.0000      -9999.0000
      -9999.0000      -9999.0000      -9999.0000      -9999.0000      -9999.0000
      -9999.0000      -9999.0000      -9999.0000      -9999.0000      -9999.0000
      -9999.0000      -9999.0000      -9999.0000      -9999.0000      -9999.0000
      -9999.0000      -9999.0000      -9999.0000      -9999.0000      -9999.0000
      -9999.0000      -9999.0000      -9999.0000      -9999.0000      -9999.0000
      -9999.0000      -9999.0000      -9999.0000      -9999.0000      -9999.0000
      -9999.0000      -9999.0000      -9999.0000      -9999.0000      -9999.0000
      -9999.0000      -9999.0000      -9999.0000      -9999.0000      -9999.0000
      -9999.0000      -9999.0000      -9999.0000      -9999.0000      -9999.0000
      -9999.0000      -9999.0000      -9999.0000      -9999.0000      -9999.0000
      -9999.0000      -9999.0000      -9999.0000      -9999.0000      -9999.0000
      -9999.0000      -9999.0000      -9999.0000      -9999.0000      -9999.0000
      -9999.0000      -9999.0000      -9999.0000      -9999.0000      -9999.0000
      -9999.0000      -9999.0000      -9999.0000      -9999.0000      -9999.0000
      -9999.0000      -9999.0000      -9999.0000      -9999.0000      -9999.0000
      -9999.0000      -9999.0000      -9999.0000      -9999.0000      -9999.0000
      -9999.0000      -9999.0000      -9999.0000      -9999.0000      -9999.0000
      -9999.0000      -9999.0000      -9999.0000      -9999.0000      -9999.0000
      -9999.0000      -9999.0000      -9999.0000      -9999.0000      -9999.0000
      -9999.0000      -9999.0000      -9999.0000      -9999.0000      -9999.0000
      -9999.0000      -9999.0000      -9999.0000      -9999.0000      -9999.0000
      -9999.0000      -9999.0000      -9999.0000      -9999.0000      -9999.0000
      -9999.0000      -9999.0000      -9999.0000      -9999.0000      -9999.0000
      -9999.0000      -9999.0000      -9999.0000      -9999.0000      -9999.0000
      -9999.0000      -9999.0000      -9999.0000      -9999.0000      -9999.0000
      -9999.0000      -9999.0000      -9999.0000      -9999.0000      -9999.0000
      -9999.0000      -9999.0000      -9999.0000      -9999.0000      -9999.0000
      -9999.0000      -9999.0000      -9999.0000      -9999.0000      -9999.0000
      -9999.0000      -9999.0000      -9999.0000      -9999.0000      -9999.0000
      -9999.0000      -9999.0000      -9999.0000      -9999.0000      -9999.0000
      -9999.0000      -9999.0000      -9999.0000      -9999.0000      -9999.0000
      -9999.0000      -9999.0000      -9999.0000      -9999.0000      -9999.0000
      -9999.0000      -9999.0000      -9999.0000      -9999.0000      -9999.0000
      -9999.0000      -9999.0000      -9999.0000      -9999.0000      -9999.0000
      -9999.0000      -9999.0000      -9999.0000      -9999.0000      -9999.0000
      -9999.0000      -9999.0000      -9999.0000      -9999.0000      -9999.0000
      -9999.0000      -9999.0000      -9999.0000      -9999.0000      -9999.0000
      -9999.0000      -9999.0000      -9999.0000      -9999.0000      -9999.0000
      -9999.0000      -9999.0000      -9999.0000      -9999.0000      -9999.0000
      -9999.0000      -9999.0000      -9999.0000      -9999.0000      -9999.0000
      -9999.0000      -9999.0000      -9999.0000      -9999.0000      -9999.0000
      -9999.0000      -9999.0000      -9999.0000      -9999.0000      -9999.0000
      -9999.0000      -9999.0000      -9999.0000      -9999.0000      -9999.0000
      -9999.0000      -9999.0000      -9999.0000      -9999.0000      -9999.0000
      -9999.0000      -9999.0000      -9999.0000      -9999.0000      -9999.0000
      -9999.0000      -9999.0000      -9999.0000      -9999.0000      -9999.0000
      -9999.0000      -9999.0000      -9999.0000      -9999.0000      -9999.0000
      -9999.0000      -9999.0000      -9999.0000      -9999.0000      -9999.0000
      -9999.0000      -9999.0000      -9999.0000      -9999.0000      -9999.0000
      -9999.0000      -9999.0000      -9999.0000      -9999.0000      -9999.0000
      -9999.0000      -9999.0000      -9999.0000      -9999.0000      -9999.0000
      -9999.0000      -9999.0000      -9999.0000      -9999.0000      -9999.0000
      -9999.0000      -9999.0000      -9999.0000      -9999.0000      -9999.0000
      -9999.0000      -9999.0000      -9999.0000      -9999.0000      -9999.0000
      -9999.0000      -9999.0000      -9999.0000      -9999.0000      -9999.0000
      -9999.0000      -9999.0000      -9999.0000      -9999.0000      -9999.0000
      -9999.0000      -9999.0000      -9999.0000      -9999.0000      -9999.0000
      -9999.0000      -9999.0000      -9999.0000      -9999.0000      -9999.0000
      -9999.0000      -9999.0000      -9999.0000      -9999.0000      -9999.0000
      -9999.0000      -9999.0000      -9999.0000      -9999.0000      -9999.0000
      -9999.0000      -9999.0000      -9999.0000      -9999.0000      -9999.0000
      -9999.0000      -9999.0000      -9999.0000      -9999.0000      -9999.0000
      -9999.0000      -9999.0000      -9999.0000      -9999.0000      -9999.0000
      -9999.0000      -9999.0000      -9999.0000      -9999.0000      -9999.0000
      -9999.0000      -9999.0000      -9999.0000      -9999.0000      -9999.0000
      -9999.0000      -9999.0000      -9999.0000      -9999.0000      -9999.0000
      -9999.0000      -9999.0000      -9999.0000      -9999.0000      -9999.0000
      -9999.0000      -9999.0000      -9999.0000      -9999.0000      -9999.0000
      -9999.0000      -9999.0000      -9999.0000      -9999.0000      -9999.0000
      -9999.0000      -9999.0000      -9999.0000      -9999.0000      -9999.0000
      -9999.0000      -9999.0000      -9999.0000      -9999.0000      -9999.0000
      -9999.0000      -9999.0000      -9999.0000      -9999.0000      -9999.0000
      -9999.0000      -9999.0000      -9999.0000      -9999.0000      -9999.0000
      -9999.0000      -9999.0000      -9999.0000      -9999.0000      -9999.0000
      -9999.0000      -9999.0000      -9999.0000      -9999.0000      -9999.0000
      -9999.0000      -9999.0000      -9999.0000      -9999.0000      -9999.0000
      -9999.0000      -9999.0000      -9999.0000      -9999.0000      -9999.0000
      -9999.0000      -9999.0000      -9999.0000      -9999.0000      -9999.0000
      -9999.0000      -9999.0000      -9999.0000      -9999.0000      -9999.0000
      -9999.0000      -9999.0000      -9999.0000      -9999.0000      -9999.0000
      -9999.0000      -9999.0000      -9999.0000      -9999.0000      -9999.0000
      -9999.0000      -9999.0000      -9999.0000      -9999.0000      -9999.0000
      -9999.0000      -9999.0000      -9999.0000      -9999.0000      -9999.0000
      -9999.0000      -9999.0000      -9999.0000      -9999.0000      -9999.0000
      -9999.0000      -9999.0000      -9999.0000      -9999.0000      -9999.0000
      -9999.0000      -9999.0000      -9999.0000      -9999.0000      -9999.0000
      -9999.0000      -9999.0000      -9999.0000      -9999.0000      -9999.0000
      -9999.0000      -9999.0000      -9999.0000      -9999.0000      -9999.0000
      -9999.0000      -9999.0000      -9999.0000      -9999.0000      -9999.0000
      -9999.0000      -9999.0000      -9999.0000      -9999.0000      -9999.0000
      -9999.0000      -9999.0000      -9999.0000      -9999.0000      -9999.0000
      -9999.0000      -9999.0000      -9999.0000      -9999.0000      -9999.0000
      -9999.0000      -9999.0000      -9999.0000      -9999.0000      -9999.0000
      -9999.0000      -9999.0000      -9999.0000      -9999.0000      -9999.0000
      -9999.0000      -9999.0000      -9999.0000      -9999.0000      -9999.0000
      -9999.0000      -9999.0000      -9999.0000      -9999.0000      -9999.0000
      -9999.0000      -9999.0000      -9999.0000      -9999.0000      -9999.0000
      -9999.0000      -9999.0000      -9999.0000      -9999.0000      -9999.0000
      -9999.0000      -9999.0000      -9999.0000      -9999.0000      -9999.0000
      -9999.0000      -9999.0000      -9999.0000      -9999.0000      -9999.0000
      -9999.0000      -9999.0000      -9999.0000      -9999.0000      -9999.0000
      -9999.0000      -9999.0000      -9999.0000      -9999.0000      -9999.0000
      -9999.0000      -9999.0000      -9999.0000      -9999.0000      -9999.0000
      -9999.0000      -9999.0000      -9999.0000      -9999.0000      -9999.0000
      -9999.0000      -9999.0000      -9999.0000      -9999.0000      -9999.0000
      -9999.0000      -9999.0000      -9999.0000      -9999.0000      -9999.0000
      -9999.0000      -9999.0000      -9999.0000      -9999.0000      -9999.0000
      -9999.0000      -9999.0000      -9999.0000      -9999.0000      -9999.0000
      -9999.0000      -9999.0000      -9999.0000      -9999.0000      -9999.0000
      -9999.0000      -9999.0000      -9999.0000      -9999.0000      -9999.0000
      -9999.0000      -9999.0000      -9999.0000      -9999.0000      -9999.0000
      -9999.0000      -9999.0000      -9999.0000      -9999.0000      -9999.0000
      -9999.0000      -9999.0000      -9999.0000      -9999.0000      -9999.0000
      -9999.0000      -9999.0000      -9999.0000      -9999.0000      -9999.0000
      -9999.0000      -9999.0000      -9999.0000      -9999.0000      -9999.0000
      -9999.0000      -9999.0000      -9999.0000      -9999.0000      -9999.0000
      -9999.0000      -9999.0000      -9999.0000      -9999.0000      -9999.0000
      -9999.0000      -9999.0000      -9999.0000      -9999.0000      -9999.0000
      -9999.0000      -9999.0000      -9999.0000      -9999.0000      -9999.0000
      -9999.0000      -9999.0000      -9999.0000      -9999.0000      -9999.0000
      -9999.0000      -9999.0000      -9999.0000      -9999.0000      -9999.0000
      -9999.0000      -9999.0000      -9999.0000      -9999.0000      -9999.0000
      -9999.0000      -9999.0000      -9999.0000      -9999.0000      -9999.0000
      -9999.0000      -9999.0000      -9999.0000      -9999.0000      -9999.0000
      -9999.0000      -9999.0000      -9999.0000      -9999.0000      -9999.0000
      -9999.0000      -9999.0000      -9999.0000      -9999.0000      -9999.0000
      -9999.0000      -9999.0000      -9999.0000      -9999.0000      -9999.0000
      -9999.0000      -9999.0000      -9999.0000      -9999.0000      -9999.0000
      -9999.0000      -9999.0000      -9999.0000      -9999.0000      -9999.0000
      -9999.0000      -9999.0000      -9999.0000      -9999.0000      -9999.0000
      -9999.0000      -9999.0000      -9999.0000      -9999.0000      -9999.0000
      -9999.0000      -9999.0000      -9999.0000      -9999.0000      -9999.0000
      -9999.0000      -9999.0000      -9999.0000      -9999.0000      -9999.0000
      -9999.0000      -9999.0000      -9999.0000      -9999.0000      -9999.0000
      -9999.0000      -9999.0000      -9999.0000      -9999.0000      -9999.0000
      -9999.0000      -9999.0000      -9999.0000      -9999.0000      -9999.0000
      -9999.0000      -9999.0000      -9999.0000      -9999.0000      -9999.0000
      -9999.0000      -9999.0000      -9999.0000      -9999.0000      -9999.0000
      -9999.0000      -9999.0000      -9999.0000      -9999.0000      -9999.0000
      -9999.0000      -9999.0000      -9999.0000      -9999.0000      -9999.0000
      -9999.0000      -9999.0000      -9999.0000      -9999.0000      -9999.0000
      -9999.0000      -9999.0000      -9999.0000      -9999.0000      -9999.0000
      -9999.0000      -9999.0000      -9999.0000      -9999.0000      -9999.0000
      -9999.0000      -9999.0000      -9999.0000      -9999.0000      -9999.0000
      -9999.0000      -9999.0000      -9999.0000      -9999.0000      -9999.0000
      -9999.0000      -9999.0000      -9999.0000      -9999.0000      -9999.0000
      -9999.0000      -9999.0000      -9999.0000      -9999.0000      -9999.0000
      -9999.0000      -9999.0000      -9999.0000      -9999.0000      -9999.0000
      -9999.0000      -9999.0000      -9999.0000      -9999.0000      -9999.0000
      -9999.0000      -9999.0000      -9999.0000      -9999.0000      -9999.0000
      -9999.0000      -9999.0000      -9999.0000      -9999.0000      -9999.0000
      -9999.0000      -9999.0000      -9999.0000      -9999.0000      -9999.0000
      -9999.0000      -9999.0000      -9999.0000      -9999.0000      -9999.0000
      -9999.0000      -9999.0000      -9999.0000      -9999.0000      -9999.0000
      -9999.0000      -9999.0000      -9999.0000      -9999.0000      -9999.0000
