ncols        57
nrows        44
xllcorner    2632850.000000000000
yllcorner    1100410.000000000000
cellsize     10.000000000000
NODATA_value  -9999
      -9999.0000      -9999.0000      -9999.0000      -9999.0000      -9999.0000
      -9999.0000      -9999.0000      -9999.0000      -9999.0000      -9999.0000
      -9999.0000      -9999.0000      -9999.0000      -9999.0000      -9999.0000
      -9999.0000      -9999.0000      -9999.0000      -9999.0000      -9999.0000
      -9999.0000      -9999.0000      -9999.0000      -9999.0000      -9999.0000
      -9999.0000      -9999.0000      -9999.0000      -9999.0000      -9999.0000
      -9999.0000      -9999.0000      -9999.0000      -9999.0000      -9999.0000
      -9999.0000      -9999.0000      -9999.0000      -9999.0000      -9999.0000
      -9999.0000      -9999.0000      -9999.0000      -9999.0000      -9999.0000
      -9999.0000      -9999.0000      -9999.0000      -9999.0000      -9999.0000
      -9999.0000      -9999.0000      -9999.0000      -9999.0000      -9999.0000
      -9999.0000      -9999.0000
      -9999.0000      -9999.0000      -9999.0000      -9999.0000      -9999.0000
      -9999.0000      -9999.0000      -9999.0000      -9999.0000      -9999.0000
      -9999.0000      -9999.0000      -9999.0000      -9999.0000      -9999.0000
      -9999.0000      -9999.0000      -9999.0000      -9999.0000      -9999.0000
      -9999.0000      -9999.0000      -9999.0000      -9999.0000      -9999.0000
      -9999.0000      -9999.0000      -9999.0000      -9999.0000      -9999.0000
      -9999.0000      -9999.0000      -9999.0000      -9999.0000      -9999.0000
      -9999.0000      -9999.0000      -9999.0000      -9999.0000      -9999.0000
      -9999.0000      -9999.0000      -9999.0000      -9999.0000      -9999.0000
      -9999.0000      -9999.0000      -9999.0000      -9999.0000      -9999.0000
      -9999.0000      -9999.0000      -9999.0000      -9999.0000      -9999.0000
      -9999.0000      -9999.0000
      -9999.0000      -9999.0000      -9999.0000      -9999.0000      -9999.0000
      -9999.0000      -9999.0000      -9999.0000      -9999.0000      -9999.0000
      -9999.0000      -9999.0000      -9999.0000      -9999.0000      -9999.0000
      -9999.0000      -9999.0000      -9999.0000      -9999.0000      -9999.0000
      -9999.0000      -9999.0000      -9999.0000      -9999.0000      -9999.0000
      -9999.0000      -9999.0000      -9999.0000      -9999.0000      -9999.0000
      -9999.0000      -9999.0000      -9999.0000      -9999.0000      -9999.0000
      -9999.0000      -9999.0000      -9999.0000      -9999.0000      -9999.0000
      -9999.0000      -9999.0000      -9999.0000      -9999.0000      -9999.0000
      -9999.0000      -9999.0000      -9999.0000      -9999.0000      -9999.0000
      -9999.0000      -9999.0000      -9999.0000      -9999.0000      -9999.0000
      -9999.0000      -9999.0000
      -9999.0000      -9999.0000      -9999.0000      -9999.0000      -9999.0000
      -9999.0000      -9999.0000      -9999.0000      -9999.0000      -9999.0000
      -9999.0000      -9999.0000      -9999.0000      -9999.0000      -9999.0000
      -9999.0000      -9999.0000      -9999.0000      -9999.0000      -9999.0000
      -9999.0000      -9999.0000      -9999.0000      -9999.0000      -9999.0000
      -9999.0000      -9999.0000      -9999.0000      -9999.0000      -9999.0000
      -9999.0000      -9999.0000      -9999.0000      -9999.0000      -9999.0000
      -9999.0000      -9999.0000      -9999.0000      -9999.0000      -9999.0000
      -9999.0000      -9999.0000      -9999.0000      -9999.0000      -9999.0000
      -9999.0000      -9999.0000      -9999.0000      -9999.0000      -9999.0000
      -9999.0000      -9999.0000      -9999.0000      -9999.0000      -9999.0000
      -9999.0000      -9999.0000
      -9999.0000      -9999.0000      -9999.0000      -9999.0000      -9999.0000
      -9999.0000      -9999.0000      -9999.0000      -9999.0000      -9999.0000
      -9999.0000      -9999.0000      -9999.0000      -9999.0000      -9999.0000
      -9999.0000      -9999.0000      -9999.0000      -9999.0000      -9999.0000
      -9999.0000      -9999.0000      -9999.0000      -9999.0000      -9999.0000
      -9999.0000      -9999.0000      -9999.0000      -9999.0000      -9999.0000
      -9999.0000      -9999.0000      -9999.0000      -9999.0000      -9999.0000
      -9999.0000      -9999.0000      -9999.0000      -9999.0000      -9999.0000
      -9999.0000      -9999.0000      -9999.0000      -9999.0000      -9999.0000
      -9999.0000      -9999.0000      -9999.0000      -9999.0000      -9999.0000
      -9999.0000      -9999.0000      -9999.0000      -9999.0000      -9999.0000
      -9999.0000      -9999.0000
      -9999.0000      -9999.0000      -9999.0000      -9999.0000      -9999.0000
      -9999.0000      -9999.0000      -9999.0000      -9999.0000      -9999.0000
      -9999.0000      -9999.0000      -9999.0000      -9999.0000      -9999.0000
      -9999.0000      -9999.0000      -9999.0000      -9999.0000      -9999.0000
      -9999.0000      -9999.0000      -9999.0000      -9999.0000      -9999.0000
      -9999.0000      -9999.0000      -9999.0000      -9999.0000      -9999.0000
      -9999.0000      -9999.0000      -9999.0000      -9999.0000      -9999.0000
      -9999.0000      -9999.0000      -9999.0000      -9999.0000      -9999.0000
      -9999.0000      -9999.0000      -9999.0000      -9999.0000      -9999.0000
      -9999.0000      -9999.0000      -9999.0000      -9999.0000      -9999.0000
      -9999.0000      -9999.0000      -9999.0000      -9999.0000      -9999.0000
      -9999.0000      -9999.0000
      -9999.0000      -9999.0000      -9999.0000      -9999.0000      -9999.0000
      -9999.0000      -9999.0000      -9999.0000      -9999.0000      -9999.0000
      -9999.0000      -9999.0000      -9999.0000      -9999.0000      -9999.0000
      -9999.0000      -9999.0000      -9999.0000      -9999.0000      -9999.0000
      -9999.0000      -9999.0000      -9999.0000      -9999.0000      -9999.0000
      -9999.0000      -9999.0000      -9999.0000      -9999.0000      -9999.0000
      -9999.0000      -9999.0000      -9999.0000      -9999.0000      -9999.0000
      -9999.0000      -9999.0000      -9999.0000      -9999.0000      -9999.0000
      -9999.0000      -9999.0000      -9999.0000      -9999.0000      -9999.0000
      -9999.0000      -9999.0000      -9999.0000      -9999.0000      -9999.0000
      -9999.0000      -9999.0000      -9999.0000      -9999.0000      -9999.0000
      -9999.0000      -9999.0000
      -9999.0000      -9999.0000      -9999.0000      -9999.0000      -9999.0000
      -9999.0000      -9999.0000      -9999.0000      -9999.0000      -9999.0000
      -9999.0000      -9999.0000      -9999.0000      -9999.0000      -9999.0000
      -9999.0000      -9999.0000      -9999.0000      -9999.0000      -9999.0000
      -9999.0000      -9999.0000      -9999.0000      -9999.0000      -9999.0000
      -9999.0000      -9999.0000      -9999.0000      -9999.0000      -9999.0000
      -9999.0000      -9999.0000      -9999.0000      -9999.0000      -9999.0000
      -9999.0000      -9999.0000      -9999.0000      -9999.0000      -9999.0000
      -9999.0000      -9999.0000      -9999.0000      -9999.0000      -9999.0000
      -9999.0000      -9999.0000      -9999.0000      -9999.0000      -9999.0000
      -9999.0000      -9999.0000      -9999.0000      -9999.0000      -9999.0000
      -9999.0000      -9999.0000
      -9999.0000      -9999.0000      -9999.0000      -9999.0000      -9999.0000
      -9999.0000      -9999.0000      -9999.0000      -9999.0000      -9999.0000
      -9999.0000      -9999.0000      -9999.0000      -9999.0000      -9999.0000
      -9999.0000      -9999.0000      -9999.0000      -9999.0000      -9999.0000
      -9999.0000      -9999.0000      -9999.0000      -9999.0000      -9999.0000
      -9999.0000      -9999.0000      -9999.0000      -9999.0000      -9999.0000
      -9999.0000      -9999.0000      -9999.0000      -9999.0000      -9999.0000
      -9999.0000      -9999.0000      -9999.0000      -9999.0000      -9999.0000
      -9999.0000      -9999.0000      -9999.0000      -9999.0000      -9999.0000
      -9999.0000      -9999.0000      -9999.0000      -9999.0000      -9999.0000
      -9999.0000      -9999.0000      -9999.0000      -9999.0000      -9999.0000
      -9999.0000      -9999.0000
      -9999.0000      -9999.0000      -9999.0000      -9999.0000      -9999.0000
      -9999.0000      -9999.0000      -9999.0000      -9999.0000      -9999.0000
      -9999.0000      -9999.0000      -9999.0000      -9999.0000      -9999.0000
      -9999.0000      -9999.0000      -9999.0000      -9999.0000      -9999.0000
      -9999.0000      -9999.0000      -9999.0000      -9999.0000      -9999.0000
      -9999.0000      -9999.0000      -9999.0000      -9999.0000      -9999.0000
      -9999.0000      -9999.0000      -9999.0000      -9999.0000      -9999.0000
      -9999.0000      -9999.0000      -9999.0000      -9999.0000      -9999.0000
      -9999.0000      -9999.0000      -9999.0000      -9999.0000      -9999.0000
      -9999.0000      -9999.0000      -9999.0000      -9999.0000      -9999.0000
      -9999.0000      -9999.0000      -9999.0000      -9999.0000      -9999.0000
      -9999.0000      -9999.0000
      -9999.0000      -9999.0000      -9999.0000      -9999.0000      -9999.0000
      -9999.0000      -9999.0000      -9999.0000      -9999.0000      -9999.0000
      -9999.0000      -9999.0000      -9999.0000      -9999.0000      -9999.0000
      -9999.0000      -9999.0000      -9999.0000       16.971101       18.609857
       20.967945       21.747786      -9999.0000      -9999.0000      -9999.0000
      -9999.0000      -9999.0000      -9999.0000       14.822676       16.373820
       17.817368       18.802661       19.099967       18.989307      -9999.0000
      -9999.0000      -9999.0000      -9999.0000      -9999.0000      -9999.0000
      -9999.0000      -9999.0000      -9999.0000      -9999.0000      -9999.0000
      -9999.0000      -9999.0000      -9999.0000      -9999.0000      -9999.0000
      -9999.0000      -9999.0000      -9999.0000      -9999.0000      -9999.0000
      -9999.0000      -9999.0000
      -9999.0000      -9999.0000      -9999.0000      -9999.0000      -9999.0000
      -9999.0000      -9999.0000      -9999.0000      -9999.0000      -9999.0000
      -9999.0000      -9999.0000      -9999.0000      -9999.0000      -9999.0000
      -9999.0000       19.193836       18.464308       18.919357       19.105537
       18.902336       19.047024       19.146238       19.553561       19.526930
       19.664287       19.967319       20.204739       20.053657       19.553401
       19.487392       19.603539       19.572134       19.712797       19.585007
       18.232239       17.027391       17.326764       17.030617       16.901385
      -9999.0000      -9999.0000      -9999.0000      -9999.0000      -9999.0000
      -9999.0000      -9999.0000      -9999.0000      -9999.0000      -9999.0000
      -9999.0000      -9999.0000      -9999.0000      -9999.0000      -9999.0000
      -9999.0000      -9999.0000
      -9999.0000      -9999.0000      -9999.0000      -9999.0000      -9999.0000
      -9999.0000      -9999.0000      -9999.0000      -9999.0000      -9999.0000
      -9999.0000      -9999.0000      -9999.0000      -9999.0000      -9999.0000
      -9999.0000      -9999.0000       17.438205       17.706318       17.631628
       17.325716       17.455968       17.866178       18.191077       17.917880
       17.599189       18.048107       18.374391       18.276537       18.235013
       18.191733       18.158117       18.348461       18.980321       19.706959
       20.476872       21.159429       21.917451       22.547211       21.737959
       19.299567       17.073929       14.783341       13.102220      -9999.0000
      -9999.0000      -9999.0000      -9999.0000      -9999.0000      -9999.0000
      -9999.0000      -9999.0000      -9999.0000      -9999.0000      -9999.0000
      -9999.0000      -9999.0000
      -9999.0000      -9999.0000      -9999.0000      -9999.0000      -9999.0000
      -9999.0000      -9999.0000      -9999.0000      -9999.0000      -9999.0000
      -9999.0000      -9999.0000      -9999.0000      -9999.0000      -9999.0000
      -9999.0000      -9999.0000      -9999.0000       16.587169       16.362861
       16.578122       16.888964       17.082596       17.120078       17.067068
       17.009984       16.733530       16.317752       16.685605       17.125397
       17.308982       17.261303       17.538004       18.007015       18.461440
       19.016344       19.605779       20.174579       20.836343       21.585299
       22.393200       22.551497       19.994547       18.528458       18.536648
       18.215720      -9999.0000      -9999.0000      -9999.0000      -9999.0000
      -9999.0000      -9999.0000      -9999.0000      -9999.0000      -9999.0000
      -9999.0000      -9999.0000
      -9999.0000      -9999.0000      -9999.0000      -9999.0000      -9999.0000
      -9999.0000      -9999.0000      -9999.0000      -9999.0000      -9999.0000
      -9999.0000      -9999.0000      -9999.0000      -9999.0000      -9999.0000
       16.013371      -9999.0000       15.293030       15.093611       15.360663
       15.669665       15.770534       15.765130       15.890339       15.997167
       16.095469       16.061295       15.841397       16.014408       16.210804
       16.209089       16.379030       16.756281       17.024371       17.345468
       17.638359       18.128778       18.579609       19.172754       19.803755
       20.942202       21.927988       22.799421       21.477217       19.547928
       19.182546       16.473497      -9999.0000      -9999.0000      -9999.0000
      -9999.0000      -9999.0000      -9999.0000      -9999.0000      -9999.0000
      -9999.0000      -9999.0000
      -9999.0000      -9999.0000      -9999.0000      -9999.0000      -9999.0000
      -9999.0000      -9999.0000      -9999.0000      -9999.0000      -9999.0000
      -9999.0000      -9999.0000      -9999.0000      -9999.0000      -9999.0000
       14.832145       14.518151       14.243401       14.245915       14.638197
       14.679009       14.559695       14.423000       14.498499       14.980856
       15.433558       15.500211       15.451512       15.642881       15.915750
       15.871097       15.975048       16.104707       16.275075       16.350132
       16.626871       17.183852       17.638648       18.093985       18.518008
       19.285040       20.355603       21.447278       22.080558       21.274852
       19.874756       18.344533      -9999.0000      -9999.0000      -9999.0000
      -9999.0000      -9999.0000      -9999.0000      -9999.0000      -9999.0000
      -9999.0000      -9999.0000
      -9999.0000      -9999.0000      -9999.0000      -9999.0000      -9999.0000
      -9999.0000      -9999.0000      -9999.0000      -9999.0000      -9999.0000
      -9999.0000      -9999.0000      -9999.0000      -9999.0000       14.200385
       14.084795       13.942152       13.966098       13.940182       13.965253
       13.932738       13.819192       13.669417       13.826923       14.427106
       15.140222       15.160072       15.089627       15.127213       15.404676
       15.733736       15.776730       15.924868       15.978241       16.043137
       16.167331       16.571502       16.922515       17.339378       17.860235
       18.294741       18.935951       20.208136       21.477937       21.942365
       20.184031       18.963617      -9999.0000      -9999.0000      -9999.0000
      -9999.0000      -9999.0000      -9999.0000      -9999.0000      -9999.0000
      -9999.0000      -9999.0000
      -9999.0000      -9999.0000      -9999.0000      -9999.0000      -9999.0000
      -9999.0000      -9999.0000      -9999.0000      -9999.0000      -9999.0000
      -9999.0000      -9999.0000      -9999.0000       13.758847       13.817233
       13.517755       13.580100       13.645781       13.637440       13.558918
       13.377068       13.123073       12.885027       13.306397       14.084916
       14.674174       14.482340       14.591326       14.946308       15.276535
       15.326137       15.358947       15.497412       15.692316       15.866707
       15.931072       16.120145       16.259332       16.651496       17.102094
       17.569383       18.059144       18.956698       20.522516       21.787490
       20.926404       19.529841       17.959696      -9999.0000      -9999.0000
      -9999.0000      -9999.0000      -9999.0000      -9999.0000      -9999.0000
      -9999.0000      -9999.0000
      -9999.0000      -9999.0000      -9999.0000      -9999.0000      -9999.0000
      -9999.0000      -9999.0000      -9999.0000      -9999.0000      -9999.0000
      -9999.0000      -9999.0000       13.607645       13.459582       13.274025
       13.213575       13.363193       13.380017       13.237976       13.156864
       12.828061       12.573086       12.380242       12.706765       13.197837
       13.971711       14.260007       14.495404       14.671510       14.732157
       14.982192       15.095408       15.274381       15.489729       15.652459
       15.585422       15.570312       15.649214       15.871383       16.300318
       16.957552       17.440049       18.372768       19.456656       20.870253
       21.007833       19.869663      -9999.0000      -9999.0000      -9999.0000
      -9999.0000      -9999.0000      -9999.0000      -9999.0000      -9999.0000
      -9999.0000      -9999.0000
      -9999.0000      -9999.0000      -9999.0000      -9999.0000      -9999.0000
      -9999.0000      -9999.0000      -9999.0000      -9999.0000      -9999.0000
      -9999.0000      -9999.0000      -9999.0000       12.993133       12.956508
       13.023683       13.039873       13.135157       12.548530       12.112135
       12.425030       12.012167       11.873588       12.069990       12.380484
       12.971421       13.757584       14.154941       14.420870       14.387014
       14.509416       14.774100       14.889172       14.943287       14.989781
       15.032389       15.157575       15.184730       15.218377       15.433098
       16.045980       16.691478       17.508574       18.540796       19.991696
       20.842724       20.134125      -9999.0000      -9999.0000      -9999.0000
      -9999.0000      -9999.0000      -9999.0000      -9999.0000      -9999.0000
      -9999.0000      -9999.0000
      -9999.0000      -9999.0000      -9999.0000      -9999.0000      -9999.0000
      -9999.0000      -9999.0000      -9999.0000      -9999.0000      -9999.0000
      -9999.0000      -9999.0000      -9999.0000      -9999.0000       12.871245
       12.950239       12.829558       12.960906       11.096810       10.802785
       11.269797       11.719030       11.525587       11.568483       11.534925
       11.914982       12.853207       13.775794       13.996389       13.996430
       14.075370       14.254786       14.307547       14.362574       14.440530
       14.476162       14.522978       14.644083       14.697984       14.877807
       15.271949       15.847182       16.674899       17.802724       19.234172
       20.607000       20.524362      -9999.0000      -9999.0000      -9999.0000
      -9999.0000      -9999.0000      -9999.0000      -9999.0000      -9999.0000
      -9999.0000      -9999.0000
      -9999.0000      -9999.0000      -9999.0000      -9999.0000      -9999.0000
      -9999.0000      -9999.0000      -9999.0000      -9999.0000      -9999.0000
      -9999.0000      -9999.0000      -9999.0000      -9999.0000      -9999.0000
       13.303162       12.993443       12.519300       10.011326       9.3338460
       10.489999       11.706587       11.399397       11.144402       10.945831
       10.889523       11.481937       12.525057       13.371339       13.837058
       13.748994       13.805225       13.828984       13.895015       13.867175
       13.953279       14.006309       14.156865       14.239482       14.382620
       14.691591       15.207300       15.863524       16.847387       18.333506
       20.068900       20.821627       19.949974      -9999.0000      -9999.0000
      -9999.0000      -9999.0000      -9999.0000      -9999.0000      -9999.0000
      -9999.0000      -9999.0000
      -9999.0000      -9999.0000      -9999.0000      -9999.0000      -9999.0000
      -9999.0000      -9999.0000      -9999.0000      -9999.0000      -9999.0000
      -9999.0000      -9999.0000      -9999.0000      -9999.0000      -9999.0000
      -9999.0000       13.170633       12.671330       9.5788556       8.4550925
       9.7181961       10.878432       11.219029       10.694052       10.387821
       10.384364       10.620750       11.237523       11.990522       12.822646
       13.313712       13.442400       13.442271       13.379254       13.375791
       13.597521       13.605658       13.734261       13.839575       14.194104
       14.415155       14.880892       15.265799       16.099701       17.559447
       19.118050       20.126017       19.727957      -9999.0000      -9999.0000
      -9999.0000      -9999.0000      -9999.0000      -9999.0000      -9999.0000
      -9999.0000      -9999.0000
      -9999.0000      -9999.0000      -9999.0000      -9999.0000      -9999.0000
      -9999.0000      -9999.0000      -9999.0000      -9999.0000      -9999.0000
      -9999.0000      -9999.0000      -9999.0000      -9999.0000      -9999.0000
      -9999.0000      -9999.0000      -9999.0000      -9999.0000      -9999.0000
       8.2272702       9.5222553       9.9893373       10.255326       10.104916
       10.022836       10.155935       10.405289       10.804184       11.258331
       11.991891       12.609669       13.002580       13.022886       13.131623
       13.345090       13.512194       13.576954       13.587760       14.044926
       14.334483       14.879777       15.089521       15.739243       16.719818
       18.210586       19.557539       19.427624      -9999.0000      -9999.0000
      -9999.0000      -9999.0000      -9999.0000      -9999.0000      -9999.0000
      -9999.0000      -9999.0000
      -9999.0000      -9999.0000      -9999.0000      -9999.0000      -9999.0000
      -9999.0000      -9999.0000      -9999.0000      -9999.0000      -9999.0000
      -9999.0000      -9999.0000      -9999.0000      -9999.0000      -9999.0000
      -9999.0000      -9999.0000      -9999.0000      -9999.0000       6.5273415
       6.1052798       7.4755178       8.1836526       9.5428585       9.4686825
       9.4921051       9.4597811       9.6628610       9.8754720       10.173831
       10.532516       11.120750       12.006713       12.707777       13.042506
       13.198961       13.433821       13.531298       13.650027       13.982122
       14.251107       14.800527       15.175658       15.753553       16.460794
       17.554713       18.784440       19.093707       19.515671      -9999.0000
      -9999.0000      -9999.0000      -9999.0000      -9999.0000      -9999.0000
      -9999.0000      -9999.0000
      -9999.0000      -9999.0000      -9999.0000      -9999.0000      -9999.0000
      -9999.0000      -9999.0000      -9999.0000      -9999.0000      -9999.0000
      -9999.0000      -9999.0000      -9999.0000      -9999.0000      -9999.0000
      -9999.0000      -9999.0000      -9999.0000      -9999.0000       6.3840180
       3.1808375       4.8917974       7.2106862       8.3592333       8.7917302
       8.5699176       8.5240815       8.6963515       9.2299274       9.6184985
       9.8263813       10.237101       10.921617       11.793461       12.603578
       13.089769       13.396383       13.572161       13.641010       13.981544
       14.289121       14.756753       15.318920       15.846600       16.593890
       17.394604       18.172711       18.925859      -9999.0000      -9999.0000
      -9999.0000      -9999.0000      -9999.0000      -9999.0000      -9999.0000
      -9999.0000      -9999.0000
      -9999.0000      -9999.0000      -9999.0000      -9999.0000      -9999.0000
      -9999.0000      -9999.0000      -9999.0000      -9999.0000      -9999.0000
      -9999.0000      -9999.0000      -9999.0000      -9999.0000      -9999.0000
      -9999.0000      -9999.0000      -9999.0000      -9999.0000      -9999.0000
      -9999.0000       1.2125021       5.7075615       7.5058804       8.4756474
       8.1135175       8.0462085       8.2625005       8.7075405       9.3863084
       9.7846903       10.113891       10.697428       11.199154       11.643742
       12.069657       12.737351       13.436565       13.841077       14.075228
       14.417997       14.832606       15.462450       15.944407       16.732055
       17.428153       18.061235       18.951400      -9999.0000      -9999.0000
      -9999.0000      -9999.0000      -9999.0000      -9999.0000      -9999.0000
      -9999.0000      -9999.0000
      -9999.0000      -9999.0000      -9999.0000      -9999.0000      -9999.0000
      -9999.0000      -9999.0000      -9999.0000      -9999.0000      -9999.0000
      -9999.0000      -9999.0000      -9999.0000      -9999.0000      -9999.0000
      -9999.0000      -9999.0000      -9999.0000      -9999.0000      -9999.0000
      -9999.0000       0.0000000      0.26826064       6.0273270       7.7618667
       7.9730706       8.0086679       8.4309490       8.8932960       9.4432548
       9.9486700       10.415557       10.942433       11.191287       11.510560
       11.791682       12.213502       12.806306       13.283258       13.945418
       14.548151       15.158347       15.575705       15.971317       16.475678
       17.123488       18.175822       19.212430      -9999.0000      -9999.0000
      -9999.0000      -9999.0000      -9999.0000      -9999.0000      -9999.0000
      -9999.0000      -9999.0000
      -9999.0000      -9999.0000      -9999.0000      -9999.0000      -9999.0000
      -9999.0000      -9999.0000      -9999.0000      -9999.0000      -9999.0000
      -9999.0000      -9999.0000      -9999.0000      -9999.0000      -9999.0000
      -9999.0000      -9999.0000      -9999.0000      -9999.0000      -9999.0000
      -9999.0000      -9999.0000      -9999.0000       2.3702663       5.9140969
       8.1260069       8.5249900       8.8812255       9.4703137       9.8324632
       10.324928       10.707559       11.171128       11.493109       11.779244
       11.959818       12.340666       12.733542       13.204861       13.710928
       14.317860       15.133731       15.645286       16.113404       16.446546
       16.891431       18.147652       19.128926      -9999.0000      -9999.0000
      -9999.0000      -9999.0000      -9999.0000      -9999.0000      -9999.0000
      -9999.0000      -9999.0000
      -9999.0000      -9999.0000      -9999.0000      -9999.0000      -9999.0000
      -9999.0000      -9999.0000      -9999.0000      -9999.0000      -9999.0000
      -9999.0000      -9999.0000      -9999.0000      -9999.0000      -9999.0000
      -9999.0000      -9999.0000      -9999.0000      -9999.0000      -9999.0000
      -9999.0000      -9999.0000      -9999.0000      -9999.0000       0.0000000
       4.6969254       8.0577752       9.5205409       9.9567892       10.248414
       10.787708       11.215397       11.575170       11.928591       12.185640
       12.414952       12.632582       12.865448       13.325103       13.847485
       14.362464       14.814093       15.331533       15.925372       16.565522
       16.915441       17.884429       19.086920      -9999.0000      -9999.0000
      -9999.0000      -9999.0000      -9999.0000      -9999.0000      -9999.0000
      -9999.0000      -9999.0000
      -9999.0000      -9999.0000      -9999.0000      -9999.0000      -9999.0000
      -9999.0000      -9999.0000      -9999.0000      -9999.0000      -9999.0000
      -9999.0000      -9999.0000      -9999.0000      -9999.0000      -9999.0000
      -9999.0000      -9999.0000      -9999.0000      -9999.0000      -9999.0000
      -9999.0000      -9999.0000      -9999.0000      -9999.0000       0.0000000
     0.055026885       4.9199331       8.1512921       10.374352       10.558008
       10.941057       11.294612       11.781196       12.093898       12.457061
       12.584665       12.952589       13.282204       13.660409       13.963499
       14.361986       14.794351       15.195145       15.962471       16.466379
       16.895276       17.588624      -9999.0000      -9999.0000      -9999.0000
      -9999.0000      -9999.0000      -9999.0000      -9999.0000      -9999.0000
      -9999.0000      -9999.0000
      -9999.0000      -9999.0000      -9999.0000      -9999.0000      -9999.0000
      -9999.0000      -9999.0000      -9999.0000      -9999.0000      -9999.0000
      -9999.0000      -9999.0000      -9999.0000      -9999.0000      -9999.0000
      -9999.0000      -9999.0000      -9999.0000      -9999.0000      -9999.0000
      -9999.0000      -9999.0000      -9999.0000      -9999.0000      -9999.0000
      -9999.0000      -9999.0000       8.3252020       10.440263       11.247797
       11.427094       11.617305       11.692407       11.723587       11.985867
       12.346527       12.733279       13.285563       13.827998       14.249718
       14.551132       14.741872       15.155191       15.658773       16.173546
       16.897864       17.401725      -9999.0000      -9999.0000      -9999.0000
      -9999.0000      -9999.0000      -9999.0000      -9999.0000      -9999.0000
      -9999.0000      -9999.0000
      -9999.0000      -9999.0000      -9999.0000      -9999.0000      -9999.0000
      -9999.0000      -9999.0000      -9999.0000      -9999.0000      -9999.0000
      -9999.0000      -9999.0000      -9999.0000      -9999.0000      -9999.0000
      -9999.0000      -9999.0000      -9999.0000      -9999.0000      -9999.0000
      -9999.0000      -9999.0000      -9999.0000      -9999.0000      -9999.0000
      -9999.0000      -9999.0000      -9999.0000      -9999.0000       12.791505
       12.667576       12.212675       11.820906       11.630701       11.831416
       12.183209       12.572014       13.233653       13.881684       14.159749
       14.189475       14.437452       14.969244       15.415442       16.176126
       16.725475       16.647862      -9999.0000      -9999.0000      -9999.0000
      -9999.0000      -9999.0000      -9999.0000      -9999.0000      -9999.0000
      -9999.0000      -9999.0000
      -9999.0000      -9999.0000      -9999.0000      -9999.0000      -9999.0000
      -9999.0000      -9999.0000      -9999.0000      -9999.0000      -9999.0000
      -9999.0000      -9999.0000      -9999.0000      -9999.0000      -9999.0000
      -9999.0000      -9999.0000      -9999.0000      -9999.0000      -9999.0000
      -9999.0000      -9999.0000      -9999.0000      -9999.0000      -9999.0000
      -9999.0000      -9999.0000      -9999.0000      -9999.0000       14.171193
       13.867840       13.393042       12.780630       12.516939       12.481467
       12.548688       12.605672       13.056432       13.443748       13.607651
       13.776436       14.106014       14.662523       15.605417      -9999.0000
      -9999.0000      -9999.0000      -9999.0000      -9999.0000      -9999.0000
      -9999.0000      -9999.0000      -9999.0000      -9999.0000      -9999.0000
      -9999.0000      -9999.0000
      -9999.0000      -9999.0000      -9999.0000      -9999.0000      -9999.0000
      -9999.0000      -9999.0000      -9999.0000      -9999.0000      -9999.0000
      -9999.0000      -9999.0000      -9999.0000      -9999.0000      -9999.0000
      -9999.0000      -9999.0000      -9999.0000      -9999.0000      -9999.0000
      -9999.0000      -9999.0000      -9999.0000      -9999.0000      -9999.0000
      -9999.0000      -9999.0000      -9999.0000       12.166155       13.447585
      -9999.0000      -9999.0000      -9999.0000       12.813466       12.842549
       12.675917       12.887444       12.997819       12.872338       13.036626
       13.350746       13.692667       14.588966       15.422908      -9999.0000
      -9999.0000      -9999.0000      -9999.0000      -9999.0000      -9999.0000
      -9999.0000      -9999.0000      -9999.0000      -9999.0000      -9999.0000
      -9999.0000      -9999.0000
      -9999.0000      -9999.0000      -9999.0000      -9999.0000      -9999.0000
      -9999.0000      -9999.0000      -9999.0000      -9999.0000      -9999.0000
      -9999.0000      -9999.0000      -9999.0000      -9999.0000      -9999.0000
      -9999.0000      -9999.0000      -9999.0000      -9999.0000      -9999.0000
      -9999.0000      -9999.0000      -9999.0000      -9999.0000      -9999.0000
      -9999.0000      -9999.0000      -9999.0000      -9999.0000      -9999.0000
      -9999.0000      -9999.0000      -9999.0000      -9999.0000       11.921299
       12.238656       12.296767       12.025708       12.076321       12.002104
       12.110223       12.771406       13.523987      -9999.0000      -9999.0000
      -9999.0000      -9999.0000      -9999.0000      -9999.0000      -9999.0000
      -9999.0000      -9999.0000      -9999.0000      -9999.0000      -9999.0000
      -9999.0000      -9999.0000
      -9999.0000      -9999.0000      -9999.0000      -9999.0000      -9999.0000
      -9999.0000      -9999.0000      -9999.0000      -9999.0000      -9999.0000
      -9999.0000      -9999.0000      -9999.0000      -9999.0000      -9999.0000
      -9999.0000      -9999.0000      -9999.0000      -9999.0000      -9999.0000
      -9999.0000      -9999.0000      -9999.0000      -9999.0000      -9999.0000
      -9999.0000      -9999.0000      -9999.0000      -9999.0000      -9999.0000
      -9999.0000      -9999.0000      -9999.0000      -9999.0000      -9999.0000
      -9999.0000      -9999.0000       10.890698       10.618792       10.028513
       9.9392856       11.128026       10.595245      -9999.0000      -9999.0000
      -9999.0000      -9999.0000      -9999.0000      -9999.0000      -9999.0000
      -9999.0000      -9999.0000      -9999.0000      -9999.0000      -9999.0000
      -9999.0000      -9999.0000
      -9999.0000      -9999.0000      -9999.0000      -9999.0000      -9999.0000
      -9999.0000      -9999.0000      -9999.0000      -9999.0000      -9999.0000
      -9999.0000      -9999.0000      -9999.0000      -9999.0000      -9999.0000
      -9999.0000      -9999.0000      -9999.0000      -9999.0000      -9999.0000
      -9999.0000      -9999.0000      -9999.0000      -9999.0000      -9999.0000
      -9999.0000      -9999.0000      -9999.0000      -9999.0000      -9999.0000
      -9999.0000      -9999.0000      -9999.0000      -9999.0000      -9999.0000
      -9999.0000      -9999.0000      -9999.0000      -9999.0000      -9999.0000
      -9999.0000      -9999.0000      -9999.0000      -9999.0000      -9999.0000
      -9999.0000      -9999.0000      -9999.0000      -9999.0000      -9999.0000
      -9999.0000      -9999.0000      -9999.0000      -9999.0000      -9999.0000
      -9999.0000      -9999.0000
      -9999.0000      -9999.0000      -9999.0000      -9999.0000      -9999.0000
      -9999.0000      -9999.0000      -9999.0000      -9999.0000      -9999.0000
      -9999.0000      -9999.0000      -9999.0000      -9999.0000      -9999.0000
      -9999.0000      -9999.0000      -9999.0000      -9999.0000      -9999.0000
      -9999.0000      -9999.0000      -9999.0000      -9999.0000      -9999.0000
      -9999.0000      -9999.0000      -9999.0000      -9999.0000      -9999.0000
      -9999.0000      -9999.0000      -9999.0000      -9999.0000      -9999.0000
      -9999.0000      -9999.0000      -9999.0000      -9999.0000      -9999.0000
      -9999.0000      -9999.0000      -9999.0000      -9999.0000      -9999.0000
      -9999.0000      -9999.0000      -9999.0000      -9999.0000      -9999.0000
      -9999.0000      -9999.0000      -9999.0000      -9999.0000      -9999.0000
      -9999.0000      -9999.0000
      -9999.0000      -9999.0000      -9999.0000      -9999.0000      -9999.0000
      -9999.0000      -9999.0000      -9999.0000      -9999.0000      -9999.0000
      -9999.0000      -9999.0000      -9999.0000      -9999.0000      -9999.0000
      -9999.0000      -9999.0000      -9999.0000      -9999.0000      -9999.0000
      -9999.0000      -9999.0000      -9999.0000      -9999.0000      -9999.0000
      -9999.0000      -9999.0000      -9999.0000      -9999.0000      -9999.0000
      -9999.0000      -9999.0000      -9999.0000      -9999.0000      -9999.0000
      -9999.0000      -9999.0000      -9999.0000      -9999.0000      -9999.0000
      -9999.0000      -9999.0000      -9999.0000      -9999.0000      -9999.0000
      -9999.0000      -9999.0000      -9999.0000      -9999.0000      -9999.0000
      -9999.0000      -9999.0000      -9999.0000      -9999.0000      -9999.0000
      -9999.0000      -9999.0000
      -9999.0000      -9999.0000      -9999.0000      -9999.0000      -9999.0000
      -9999.0000      -9999.0000      -9999.0000      -9999.0000      -9999.0000
      -9999.0000      -9999.0000      -9999.0000      -9999.0000      -9999.0000
      -9999.0000      -9999.0000      -9999.0000      -9999.0000      -9999.0000
      -9999.0000      -9999.0000      -9999.0000      -9999.0000      -9999.0000
      -9999.0000      -9999.0000      -9999.0000      -9999.0000      -9999.0000
      -9999.0000      -9999.0000      -9999.0000      -9999.0000      -9999.0000
      -9999.0000      -9999.0000      -9999.0000      -9999.0000      -9999.0000
      -9999.0000      -9999.0000      -9999.0000      -9999.0000      -9999.0000
      -9999.0000      -9999.0000      -9999.0000      -9999.0000      -9999.0000
      -9999.0000      -9999.0000      -9999.0000      -9999.0000      -9999.0000
      -9999.0000      -9999.0000
      -9999.0000      -9999.0000      -9999.0000      -9999.0000      -9999.0000
      -9999.0000      -9999.0000      -9999.0000      -9999.0000      -9999.0000
      -9999.0000      -9999.0000      -9999.0000      -9999.0000      -9999.0000
      -9999.0000      -9999.0000      -9999.0000      -9999.0000      -9999.0000
      -9999.0000      -9999.0000      -9999.0000      -9999.0000      -9999.0000
      -9999.0000      -9999.0000      -9999.0000      -9999.0000      -9999.0000
      -9999.0000      -9999.0000      -9999.0000      -9999.0000      -9999.0000
      -9999.0000      -9999.0000      -9999.0000      -9999.0000      -9999.0000
      -9999.0000      -9999.0000      -9999.0000      -9999.0000      -9999.0000
      -9999.0000      -9999.0000      -9999.0000      -9999.0000      -9999.0000
      -9999.0000      -9999.0000      -9999.0000      -9999.0000      -9999.0000
      -9999.0000      -9999.0000
      -9999.0000      -9999.0000      -9999.0000      -9999.0000      -9999.0000
      -9999.0000      -9999.0000      -9999.0000      -9999.0000      -9999.0000
      -9999.0000      -9999.0000      -9999.0000      -9999.0000      -9999.0000
      -9999.0000      -9999.0000      -9999.0000      -9999.0000      -9999.0000
      -9999.0000      -9999.0000      -9999.0000      -9999.0000      -9999.0000
      -9999.0000      -9999.0000      -9999.0000      -9999.0000      -9999.0000
      -9999.0000      -9999.0000      -9999.0000      -9999.0000      -9999.0000
      -9999.0000      -9999.0000      -9999.0000      -9999.0000      -9999.0000
      -9999.0000      -9999.0000      -9999.0000      -9999.0000      -9999.0000
      -9999.0000      -9999.0000      -9999.0000      -9999.0000      -9999.0000
      -9999.0000      -9999.0000      -9999.0000      -9999.0000      -9999.0000
      -9999.0000      -9999.0000
      -9999.0000      -9999.0000      -9999.0000      -9999.0000      -9999.0000
      -9999.0000      -9999.0000      -9999.0000      -9999.0000      -9999.0000
      -9999.0000      -9999.0000      -9999.0000      -9999.0000      -9999.0000
      -9999.0000      -9999.0000      -9999.0000      -9999.0000      -9999.0000
      -9999.0000      -9999.0000      -9999.0000      -9999.0000      -9999.0000
      -9999.0000      -9999.0000      -9999.0000      -9999.0000      -9999.0000
      -9999.0000      -9999.0000      -9999.0000      -9999.0000      -9999.0000
      -9999.0000      -9999.0000      -9999.0000      -9999.0000      -9999.0000
      -9999.0000      -9999.0000      -9999.0000      -9999.0000      -9999.0000
      -9999.0000      -9999.0000      -9999.0000      -9999.0000      -9999.0000
      -9999.0000      -9999.0000      -9999.0000      -9999.0000      -9999.0000
      -9999.0000      -9999.0000
