ncols        57
nrows        44
xllcorner    2632850.000000000000
yllcorner    1100410.000000000000
cellsize     10.000000000000
NODATA_value  -9999
      -9999.0000      -9999.0000      -9999.0000      -9999.0000      -9999.0000
      -9999.0000      -9999.0000      -9999.0000      -9999.0000      -9999.0000
      -9999.0000      -9999.0000      -9999.0000      -9999.0000      -9999.0000
      -9999.0000      -9999.0000      -9999.0000      -9999.0000      -9999.0000
      -9999.0000      -9999.0000      -9999.0000      -9999.0000      -9999.0000
      -9999.0000      -9999.0000      -9999.0000      -9999.0000      -9999.0000
      -9999.0000      -9999.0000      -9999.0000      -9999.0000      -9999.0000
      -9999.0000      -9999.0000      -9999.0000      -9999.0000      -9999.0000
      -9999.0000      -9999.0000      -9999.0000      -9999.0000      -9999.0000
      -9999.0000      -9999.0000      -9999.0000      -9999.0000      -9999.0000
      -9999.0000      -9999.0000      -9999.0000      -9999.0000      -9999.0000
      -9999.0000      -9999.0000
      -9999.0000      -9999.0000      -9999.0000      -9999.0000      -9999.0000
      -9999.0000      -9999.0000      -9999.0000      -9999.0000      -9999.0000
      -9999.0000      -9999.0000      -9999.0000      -9999.0000      -9999.0000
      -9999.0000      -9999.0000      -9999.0000      -9999.0000      -9999.0000
      -9999.0000      -9999.0000      -9999.0000      -9999.0000      -9999.0000
      -9999.0000      -9999.0000      -9999.0000      -9999.0000      -9999.0000
      -9999.0000      -9999.0000      -9999.0000      -9999.0000      -9999.0000
      -9999.0000      -9999.0000      -9999.0000      -9999.0000      -9999.0000
      -9999.0000      -9999.0000      -9999.0000      -9999.0000      -9999.0000
      -9999.0000      -9999.0000      -9999.0000      -9999.0000      -9999.0000
      -9999.0000      -9999.0000      -9999.0000      -9999.0000      -9999.0000
      -9999.0000      -9999.0000
      -9999.0000      -9999.0000      -9999.0000      -9999.0000      -9999.0000
      -9999.0000      -9999.0000      -9999.0000      -9999.0000      -9999.0000
      -9999.0000      -9999.0000      -9999.0000      -9999.0000      -9999.0000
      -9999.0000      -9999.0000      -9999.0000      -9999.0000      -9999.0000
      -9999.0000      -9999.0000      -9999.0000      -9999.0000      -9999.0000
      -9999.0000      -9999.0000      -9999.0000      -9999.0000      -9999.0000
      -9999.0000      -9999.0000      -9999.0000      -9999.0000      -9999.0000
      -9999.0000      -9999.0000      -9999.0000      -9999.0000      -9999.0000
      -9999.0000      -9999.0000      -9999.0000      -9999.0000      -9999.0000
      -9999.0000      -9999.0000      -9999.0000      -9999.0000      -9999.0000
      -9999.0000      -9999.0000      -9999.0000      -9999.0000      -9999.0000
      -9999.0000      -9999.0000
      -9999.0000      -9999.0000      -9999.0000      -9999.0000      -9999.0000
      -9999.0000      -9999.0000      -9999.0000      -9999.0000      -9999.0000
      -9999.0000      -9999.0000      -9999.0000      -9999.0000      -9999.0000
      -9999.0000      -9999.0000      -9999.0000      -9999.0000      -9999.0000
      -9999.0000      -9999.0000      -9999.0000      -9999.0000      -9999.0000
      -9999.0000      -9999.0000      -9999.0000      -9999.0000      -9999.0000
      -9999.0000      -9999.0000      -9999.0000      -9999.0000      -9999.0000
      -9999.0000      -9999.0000      -9999.0000      -9999.0000      -9999.0000
      -9999.0000      -9999.0000      -9999.0000      -9999.0000      -9999.0000
      -9999.0000      -9999.0000      -9999.0000      -9999.0000      -9999.0000
      -9999.0000      -9999.0000      -9999.0000      -9999.0000      -9999.0000
      -9999.0000      -9999.0000
      -9999.0000      -9999.0000      -9999.0000      -9999.0000      -9999.0000
      -9999.0000      -9999.0000      -9999.0000      -9999.0000      -9999.0000
      -9999.0000      -9999.0000      -9999.0000      -9999.0000      -9999.0000
      -9999.0000      -9999.0000      -9999.0000      -9999.0000      -9999.0000
      -9999.0000      -9999.0000      -9999.0000      -9999.0000      -9999.0000
      -9999.0000      -9999.0000      -9999.0000      -9999.0000      -9999.0000
      -9999.0000      -9999.0000      -9999.0000      -9999.0000      -9999.0000
      -9999.0000      -9999.0000      -9999.0000      -9999.0000      -9999.0000
      -9999.0000      -9999.0000      -9999.0000      -9999.0000      -9999.0000
      -9999.0000      -9999.0000      -9999.0000      -9999.0000      -9999.0000
      -9999.0000      -9999.0000      -9999.0000      -9999.0000      -9999.0000
      -9999.0000      -9999.0000
      -9999.0000      -9999.0000      -9999.0000      -9999.0000      -9999.0000
      -9999.0000      -9999.0000      -9999.0000      -9999.0000      -9999.0000
      -9999.0000      -9999.0000      -9999.0000      -9999.0000      -9999.0000
      -9999.0000      -9999.0000      -9999.0000      -9999.0000      -9999.0000
      -9999.0000      -9999.0000      -9999.0000      -9999.0000      -9999.0000
      -9999.0000      -9999.0000      -9999.0000      -9999.0000      -9999.0000
      -9999.0000      -9999.0000      -9999.0000      -9999.0000      -9999.0000
      -9999.0000      -9999.0000      -9999.0000      -9999.0000      -9999.0000
      -9999.0000      -9999.0000      -9999.0000      -9999.0000      -9999.0000
      -9999.0000      -9999.0000      -9999.0000      -9999.0000      -9999.0000
      -9999.0000      -9999.0000      -9999.0000      -9999.0000      -9999.0000
      -9999.0000      -9999.0000
      -9999.0000      -9999.0000      -9999.0000      -9999.0000      -9999.0000
      -9999.0000      -9999.0000      -9999.0000      -9999.0000      -9999.0000
      -9999.0000      -9999.0000      -9999.0000      -9999.0000      -9999.0000
      -9999.0000      -9999.0000      -9999.0000      -9999.0000      -9999.0000
      -9999.0000      -9999.0000      -9999.0000      -9999.0000      -9999.0000
      -9999.0000      -9999.0000      -9999.0000      -9999.0000      -9999.0000
      -9999.0000      -9999.0000      -9999.0000      -9999.0000      -9999.0000
      -9999.0000      -9999.0000      -9999.0000      -9999.0000      -9999.0000
      -9999.0000      -9999.0000      -9999.0000      -9999.0000      -9999.0000
      -9999.0000      -9999.0000      -9999.0000      -9999.0000      -9999.0000
      -9999.0000      -9999.0000      -9999.0000      -9999.0000      -9999.0000
      -9999.0000      -9999.0000
      -9999.0000      -9999.0000      -9999.0000      -9999.0000      -9999.0000
      -9999.0000      -9999.0000      -9999.0000      -9999.0000      -9999.0000
      -9999.0000      -9999.0000      -9999.0000      -9999.0000      -9999.0000
      -9999.0000      -9999.0000      -9999.0000      -9999.0000      -9999.0000
      -9999.0000      -9999.0000      -9999.0000      -9999.0000      -9999.0000
      -9999.0000      -9999.0000      -9999.0000      -9999.0000      -9999.0000
      -9999.0000      -9999.0000      -9999.0000      -9999.0000      -9999.0000
      -9999.0000      -9999.0000      -9999.0000      -9999.0000      -9999.0000
      -9999.0000      -9999.0000      -9999.0000      -9999.0000      -9999.0000
      -9999.0000      -9999.0000      -9999.0000      -9999.0000      -9999.0000
      -9999.0000      -9999.0000      -9999.0000      -9999.0000      -9999.0000
      -9999.0000      -9999.0000
      -9999.0000      -9999.0000      -9999.0000      -9999.0000      -9999.0000
      -9999.0000      -9999.0000      -9999.0000      -9999.0000      -9999.0000
      -9999.0000      -9999.0000      -9999.0000      -9999.0000      -9999.0000
      -9999.0000      -9999.0000      -9999.0000      -9999.0000      -9999.0000
      -9999.0000      -9999.0000      -9999.0000      -9999.0000      -9999.0000
      -9999.0000      -9999.0000      -9999.0000      -9999.0000      -9999.0000
      -9999.0000      -9999.0000      -9999.0000      -9999.0000      -9999.0000
      -9999.0000      -9999.0000      -9999.0000      -9999.0000      -9999.0000
      -9999.0000      -9999.0000      -9999.0000      -9999.0000      -9999.0000
      -9999.0000      -9999.0000      -9999.0000      -9999.0000      -9999.0000
      -9999.0000      -9999.0000      -9999.0000      -9999.0000      -9999.0000
      -9999.0000      -9999.0000
      -9999.0000      -9999.0000      -9999.0000      -9999.0000      -9999.0000
      -9999.0000      -9999.0000      -9999.0000      -9999.0000      -9999.0000
      -9999.0000      -9999.0000      -9999.0000      -9999.0000      -9999.0000
      -9999.0000      -9999.0000      -9999.0000      -9999.0000      -9999.0000
      -9999.0000      -9999.0000      -9999.0000      -9999.0000      -9999.0000
      -9999.0000      -9999.0000      -9999.0000      -9999.0000      -9999.0000
      -9999.0000      -9999.0000      -9999.0000      -9999.0000      -9999.0000
      -9999.0000      -9999.0000      -9999.0000      -9999.0000      -9999.0000
      -9999.0000      -9999.0000      -9999.0000      -9999.0000      -9999.0000
      -9999.0000      -9999.0000      -9999.0000      -9999.0000      -9999.0000
      -9999.0000      -9999.0000      -9999.0000      -9999.0000      -9999.0000
      -9999.0000      -9999.0000
      -9999.0000      -9999.0000      -9999.0000      -9999.0000      -9999.0000
      -9999.0000      -9999.0000      -9999.0000      -9999.0000      -9999.0000
      -9999.0000      -9999.0000      -9999.0000      -9999.0000      -9999.0000
      -9999.0000      -9999.0000      -9999.0000       2.0251255       2.8536767
       3.7795922       8.1279780      -9999.0000      -9999.0000      -9999.0000
      -9999.0000      -9999.0000      -9999.0000       2.0371266       2.6543852
       3.1867544       3.5230008       6.1106592       6.1971697      -9999.0000
      -9999.0000      -9999.0000      -9999.0000      -9999.0000      -9999.0000
      -9999.0000      -9999.0000      -9999.0000      -9999.0000      -9999.0000
      -9999.0000      -9999.0000      -9999.0000      -9999.0000      -9999.0000
      -9999.0000      -9999.0000      -9999.0000      -9999.0000      -9999.0000
      -9999.0000      -9999.0000
      -9999.0000      -9999.0000      -9999.0000      -9999.0000      -9999.0000
      -9999.0000      -9999.0000      -9999.0000      -9999.0000      -9999.0000
      -9999.0000      -9999.0000      -9999.0000      -9999.0000      -9999.0000
      -9999.0000       2.3440295       2.2214814       2.3646067       2.8547263
       2.8860172       3.0045456       3.0844083       3.3412362       3.3928733
       3.4786040       3.6241952       3.7382458       3.7303381       3.6014338
       3.6042257       3.6738013       3.7061480       6.3353221       6.4192744
       3.4310455       3.0562434       3.1779869       3.1040439       3.1180240
      -9999.0000      -9999.0000      -9999.0000      -9999.0000      -9999.0000
      -9999.0000      -9999.0000      -9999.0000      -9999.0000      -9999.0000
      -9999.0000      -9999.0000      -9999.0000      -9999.0000      -9999.0000
      -9999.0000      -9999.0000
      -9999.0000      -9999.0000      -9999.0000      -9999.0000      -9999.0000
      -9999.0000      -9999.0000      -9999.0000      -9999.0000      -9999.0000
      -9999.0000      -9999.0000      -9999.0000      -9999.0000      -9999.0000
      -9999.0000      -9999.0000       1.9428472       2.0515692       2.1136858
       2.1081372       2.1696824       2.6415551       2.8011630       2.7828840
       2.7425372       2.9230451       3.0536484       3.0507049       3.1229607
       3.1220934       3.1328377       3.2253930       3.4683053       3.7482296
       6.7230510       8.6312389       10.082088       10.733294       10.216301
       6.5245243       3.1580472       2.4390750       1.9746132      -9999.0000
      -9999.0000      -9999.0000      -9999.0000      -9999.0000      -9999.0000
      -9999.0000      -9999.0000      -9999.0000      -9999.0000      -9999.0000
      -9999.0000      -9999.0000
      -9999.0000      -9999.0000      -9999.0000      -9999.0000      -9999.0000
      -9999.0000      -9999.0000      -9999.0000      -9999.0000      -9999.0000
      -9999.0000      -9999.0000      -9999.0000      -9999.0000      -9999.0000
      -9999.0000      -9999.0000      -9999.0000       1.6681432       1.7052981
       1.9093947       2.0212759       2.0999396       2.1614350       2.5119607
       2.5588917       2.5161350       2.2639694       2.5236992       2.6825374
       2.7529776       2.7598023       2.8701422       3.0977397       3.2792421
       3.4940053       3.7199553       6.5352084       8.3177986       9.8207262
       10.642989       10.924867       8.2616216       6.2175507       7.4731443
       7.4487526      -9999.0000      -9999.0000      -9999.0000      -9999.0000
      -9999.0000      -9999.0000      -9999.0000      -9999.0000      -9999.0000
      -9999.0000      -9999.0000
      -9999.0000      -9999.0000      -9999.0000      -9999.0000      -9999.0000
      -9999.0000      -9999.0000      -9999.0000      -9999.0000      -9999.0000
      -9999.0000      -9999.0000      -9999.0000      -9999.0000      -9999.0000
       1.3538046      -9999.0000       1.2257828       1.2665292       1.4109274
       1.5668395       1.6446924       1.7102022       1.8942341       1.9459742
       1.9995053       2.0128841       1.9660035       2.0102822       2.2304142
       2.2501881       2.4480712       2.6052359       2.7149509       2.8389290
       2.9531117       3.1927275       3.3714424       3.5968603       4.0869920
       8.5312849       10.195717       11.099372       10.196999       8.0484517
       7.9740242       3.1348803      -9999.0000      -9999.0000      -9999.0000
      -9999.0000      -9999.0000      -9999.0000      -9999.0000      -9999.0000
      -9999.0000      -9999.0000
      -9999.0000      -9999.0000      -9999.0000      -9999.0000      -9999.0000
      -9999.0000      -9999.0000      -9999.0000      -9999.0000      -9999.0000
      -9999.0000      -9999.0000      -9999.0000      -9999.0000      -9999.0000
       1.0500906       1.0266732       1.0059511       1.0154669       1.2016261
       1.2893634       1.3246816       1.3475581       1.4298390       1.5879814
       1.8310937       1.8576506       1.8488168       1.9040751       1.9852703
       1.9910405       2.1857543       2.2465788       2.4502601       2.5053890
       2.6237983       2.8155166       2.9785705       3.2068302       3.3735744
       3.6618093       6.8585110       9.7875883       10.510380       10.036236
       8.3563648       7.4365779      -9999.0000      -9999.0000      -9999.0000
      -9999.0000      -9999.0000      -9999.0000      -9999.0000      -9999.0000
      -9999.0000      -9999.0000
      -9999.0000      -9999.0000      -9999.0000      -9999.0000      -9999.0000
      -9999.0000      -9999.0000      -9999.0000      -9999.0000      -9999.0000
      -9999.0000      -9999.0000      -9999.0000      -9999.0000      0.97336110
      0.97106930      0.96561292      0.97614326      0.98100824      0.99503801
       1.0830575       1.1344956       1.1422150       1.2193225       1.4257126
       1.6293625       1.6509339       1.6429584       1.6788045       1.8546193
       1.9476536       1.9786933       2.1825104       2.2186152       2.3744472
       2.4474217       2.6125207       2.7436072       2.8882258       3.1240831
       3.3041452       3.5473230       6.7457374       9.8368683       10.433279
       8.4592142       7.7892171      -9999.0000      -9999.0000      -9999.0000
      -9999.0000      -9999.0000      -9999.0000      -9999.0000      -9999.0000
      -9999.0000      -9999.0000
      -9999.0000      -9999.0000      -9999.0000      -9999.0000      -9999.0000
      -9999.0000      -9999.0000      -9999.0000      -9999.0000      -9999.0000
      -9999.0000      -9999.0000      -9999.0000      0.92914967      0.93462978
      0.91485425      0.92595285      0.93969869      0.94832315      0.95381634
      0.94928483      0.93022581      0.90904053       1.0711752       1.2961499
       1.4793299       1.4243734       1.4793414       1.6300626       1.8254634
       1.8535461       1.8753097       1.9230835       2.1287422       2.1956807
       2.2340940       2.4381012       2.5089345       2.6580456       2.8133786
       3.0355352       3.2242576       3.5481516       8.1550846       10.141538
       9.6622284       8.0792454       7.2107935      -9999.0000      -9999.0000
      -9999.0000      -9999.0000      -9999.0000      -9999.0000      -9999.0000
      -9999.0000      -9999.0000
      -9999.0000      -9999.0000      -9999.0000      -9999.0000      -9999.0000
      -9999.0000      -9999.0000      -9999.0000      -9999.0000      -9999.0000
      -9999.0000      -9999.0000      0.91681606      0.90778819      0.89783875
      0.89702593      0.90716160      0.90988391      0.90549526      0.91425643
      0.89589460      0.87598634      0.85847892      0.89204297       1.0419771
       1.2526969       1.3485663       1.4579944       1.5503209       1.5935993
       1.6638987       1.8054945       1.8616397       1.9273683       2.1219228
       2.1233891       2.1395542       2.1757324       2.3753362       2.5506787
       2.7744578       2.9397097       3.3213595       3.7137584       8.5222267
       8.8426972       8.2603418      -9999.0000      -9999.0000      -9999.0000
      -9999.0000      -9999.0000      -9999.0000      -9999.0000      -9999.0000
      -9999.0000      -9999.0000
      -9999.0000      -9999.0000      -9999.0000      -9999.0000      -9999.0000
      -9999.0000      -9999.0000      -9999.0000      -9999.0000      -9999.0000
      -9999.0000      -9999.0000      -9999.0000      0.88062745      0.88054226
      0.88710705      0.88862883      0.89479322      0.86148532      0.83428659
      0.85431487      0.82686454      0.82006215      0.83099357      0.85788369
      0.94617093       1.2082929       1.3518972       1.4672433       1.4623036
       1.5006837       1.6009066       1.6494405       1.7822281       1.8063390
       1.8327060       1.8730304       1.8933707       2.0592169       2.1355409
       2.4545366       2.6877248       2.9543369       3.3765694       6.4808097
       8.5711826       8.3785357      -9999.0000      -9999.0000      -9999.0000
      -9999.0000      -9999.0000      -9999.0000      -9999.0000      -9999.0000
      -9999.0000      -9999.0000
      -9999.0000      -9999.0000      -9999.0000      -9999.0000      -9999.0000
      -9999.0000      -9999.0000      -9999.0000      -9999.0000      -9999.0000
      -9999.0000      -9999.0000      -9999.0000      -9999.0000      0.87582892
      0.88192366      0.87512861      0.88265332      0.78173760      0.76332705
      0.78614970      0.81184119      0.80267227      0.80518738      0.80314347
      0.82305930      0.92872708       1.2256736       1.3042790       1.3106426
       1.3398399       1.4048444       1.4463961       1.4940960       1.5247955
       1.5514954       1.5801253       1.6324380       1.7744318       1.8329429
       2.0847138       2.3838052       2.6758947       3.0969918       3.6084926
       8.2002049       8.5533147      -9999.0000      -9999.0000      -9999.0000
      -9999.0000      -9999.0000      -9999.0000      -9999.0000      -9999.0000
      -9999.0000      -9999.0000
      -9999.0000      -9999.0000      -9999.0000      -9999.0000      -9999.0000
      -9999.0000      -9999.0000      -9999.0000      -9999.0000      -9999.0000
      -9999.0000      -9999.0000      -9999.0000      -9999.0000      -9999.0000
      0.89554884      0.87980093      0.85654225      0.72457277      0.69539563
      0.74469594      0.81108977      0.79631887      0.78255352      0.77131564
      0.76863508      0.80131840      0.87167892       1.0972391       1.2246744
       1.2145922       1.2545695       1.2767589       1.3145939       1.3203397
       1.3593819       1.4001244       1.4772615       1.5166585       1.5727749
       1.7844961       2.0617169       2.3879232       2.7246943       3.2775527
       6.2446379       8.6090331       9.0545625      -9999.0000      -9999.0000
      -9999.0000      -9999.0000      -9999.0000      -9999.0000      -9999.0000
      -9999.0000      -9999.0000
      -9999.0000      -9999.0000      -9999.0000      -9999.0000      -9999.0000
      -9999.0000      -9999.0000      -9999.0000      -9999.0000      -9999.0000
      -9999.0000      -9999.0000      -9999.0000      -9999.0000      -9999.0000
      -9999.0000      0.88413754      0.86152381      0.70846018      0.64765932
      0.70648145      0.76654829      0.78663544      0.75879598      0.74258846
      0.74309628      0.75686959      0.79118604      0.83251689      0.89779380
       1.0407499       1.1210207       1.1337629       1.1331088       1.1466661
       1.2400906       1.2610413       1.3118732       1.3675845       1.4993934
       1.5774347       1.8187497       2.0761996       2.4667522       2.9416797
       3.5595110       6.6184249       8.0326675      -9999.0000      -9999.0000
      -9999.0000      -9999.0000      -9999.0000      -9999.0000      -9999.0000
      -9999.0000      -9999.0000
      -9999.0000      -9999.0000      -9999.0000      -9999.0000      -9999.0000
      -9999.0000      -9999.0000      -9999.0000      -9999.0000      -9999.0000
      -9999.0000      -9999.0000      -9999.0000      -9999.0000      -9999.0000
      -9999.0000      -9999.0000      -9999.0000      -9999.0000      -9999.0000
      0.63761112      0.69785415      0.72263575      0.73726682      0.72992879
      0.72677417      0.73556334      0.74969204      0.77237579      0.79806157
      0.83795634      0.87524343      0.94515866      0.96909492       1.0571753
       1.1284264       1.2088481       1.2422604       1.2659195       1.4299265
       1.5292708       1.7931241       1.8591224       2.1993764       2.6645391
       3.2274924       3.7442286       6.3771519      -9999.0000      -9999.0000
      -9999.0000      -9999.0000      -9999.0000      -9999.0000      -9999.0000
      -9999.0000      -9999.0000
      -9999.0000      -9999.0000      -9999.0000      -9999.0000      -9999.0000
      -9999.0000      -9999.0000      -9999.0000      -9999.0000      -9999.0000
      -9999.0000      -9999.0000      -9999.0000      -9999.0000      -9999.0000
      -9999.0000      -9999.0000      -9999.0000      -9999.0000      0.55361127
      0.53037985      0.59937613      0.63635155      0.70263487      0.69910899
      0.70219320      0.70211622      0.71377059      0.72679455      0.74379065
      0.76279169      0.79446225      0.84249410      0.88663282      0.97689313
       1.0660601       1.1415851       1.2012728       1.2510384       1.3689994
       1.4802765       1.7492385       1.8560654       2.1748712       2.5598275
       2.9345240       3.4527869       3.6673246       7.9454930      -9999.0000
      -9999.0000      -9999.0000      -9999.0000      -9999.0000      -9999.0000
      -9999.0000      -9999.0000
      -9999.0000      -9999.0000      -9999.0000      -9999.0000      -9999.0000
      -9999.0000      -9999.0000      -9999.0000      -9999.0000      -9999.0000
      -9999.0000      -9999.0000      -9999.0000      -9999.0000      -9999.0000
      -9999.0000      -9999.0000      -9999.0000      -9999.0000      0.54466068
      0.40689748      0.49571287      0.58190976      0.64575353      0.67259869
      0.66288374      0.66225467      0.67330058      0.69368093      0.71505926
      0.72598488      0.74768941      0.78402681      0.83138923      0.87581146
      0.98802363       1.1082398       1.1647978       1.2223853       1.3433205
       1.4481551       1.6179112       1.8712125       2.1747995       2.5698375
       2.8613514       3.2268411       3.5907644      -9999.0000      -9999.0000
      -9999.0000      -9999.0000      -9999.0000      -9999.0000      -9999.0000
      -9999.0000      -9999.0000
      -9999.0000      -9999.0000      -9999.0000      -9999.0000      -9999.0000
      -9999.0000      -9999.0000      -9999.0000      -9999.0000      -9999.0000
      -9999.0000      -9999.0000      -9999.0000      -9999.0000      -9999.0000
      -9999.0000      -9999.0000      -9999.0000      -9999.0000      -9999.0000
      -9999.0000      0.35365243      0.50477128      0.59952320      0.65658651
      0.63952706      0.63759924      0.65094537      0.67611847      0.70343147
      0.72432824      0.74212367      0.77273248      0.79934233      0.82321923
      0.84666691      0.89043884       1.1047527       1.2370021       1.3352180
       1.4531016       1.5998335       1.8786222       2.1751547       2.5769928
       2.8387795       3.1582238       3.5894172      -9999.0000      -9999.0000
      -9999.0000      -9999.0000      -9999.0000      -9999.0000      -9999.0000
      -9999.0000      -9999.0000
      -9999.0000      -9999.0000      -9999.0000      -9999.0000      -9999.0000
      -9999.0000      -9999.0000      -9999.0000      -9999.0000      -9999.0000
      -9999.0000      -9999.0000      -9999.0000      -9999.0000      -9999.0000
      -9999.0000      -9999.0000      -9999.0000      -9999.0000      -9999.0000
      -9999.0000      0.19126753      0.33665595      0.52735759      0.62018357
      0.63467181      0.63777512      0.66168306      0.68807567      0.70800098
      0.73407427      0.75881703      0.78705898      0.79993929      0.81722251
      0.83346783      0.85619449      0.89774424       1.0532570       1.2585697
       1.4501856       1.6573140       1.8788661       2.0009436       2.4522873
       2.7061554       3.1603073       3.6814733      -9999.0000      -9999.0000
      -9999.0000      -9999.0000      -9999.0000      -9999.0000      -9999.0000
      -9999.0000      -9999.0000
      -9999.0000      -9999.0000      -9999.0000      -9999.0000      -9999.0000
      -9999.0000      -9999.0000      -9999.0000      -9999.0000      -9999.0000
      -9999.0000      -9999.0000      -9999.0000      -9999.0000      -9999.0000
      -9999.0000      -9999.0000      -9999.0000      -9999.0000      -9999.0000
      -9999.0000      -9999.0000      -9999.0000      0.37431847      0.52556841
      0.64310746      0.66579576      0.68654763      0.71068342      0.72825470
      0.75454222      0.77493988      0.79957799      0.81646813      0.83228186
      0.84228549      0.86372020      0.88672559      0.97986372       1.1565479
       1.3653704       1.6230594       1.8689714       2.0080003       2.2760380
       2.6055068       3.1226975       3.6341674      -9999.0000      -9999.0000
      -9999.0000      -9999.0000      -9999.0000      -9999.0000      -9999.0000
      -9999.0000      -9999.0000
      -9999.0000      -9999.0000      -9999.0000      -9999.0000      -9999.0000
      -9999.0000      -9999.0000      -9999.0000      -9999.0000      -9999.0000
      -9999.0000      -9999.0000      -9999.0000      -9999.0000      -9999.0000
      -9999.0000      -9999.0000      -9999.0000      -9999.0000      -9999.0000
      -9999.0000      -9999.0000      -9999.0000      -9999.0000      0.25261640
      0.48977456      0.63987095      0.71232226      0.73552975      0.75061450
      0.77917015      0.80219113      0.82144736      0.84032207      0.85481677
      0.86722963      0.87987902      0.89665656      0.97954465       1.1631816
       1.3380738       1.4858002       1.6735406       1.9357282       2.2776139
       2.5824817       2.9650969       3.5978509      -9999.0000      -9999.0000
      -9999.0000      -9999.0000      -9999.0000      -9999.0000      -9999.0000
      -9999.0000      -9999.0000
      -9999.0000      -9999.0000      -9999.0000      -9999.0000      -9999.0000
      -9999.0000      -9999.0000      -9999.0000      -9999.0000      -9999.0000
      -9999.0000      -9999.0000      -9999.0000      -9999.0000      -9999.0000
      -9999.0000      -9999.0000      -9999.0000      -9999.0000      -9999.0000
      -9999.0000      -9999.0000      -9999.0000      -9999.0000      0.18209622
      0.32170152      0.50427426      0.64624857      0.75750077      0.76641116
      0.78762252      0.80603758      0.83253397      0.84999048      0.86988530
      0.87671870      0.89850292      0.93334167       1.0410460       1.1649110
       1.2930762       1.4501988       1.5940226       1.9160338       2.0717897
       2.5505635       2.8916395      -9999.0000      -9999.0000      -9999.0000
      -9999.0000      -9999.0000      -9999.0000      -9999.0000      -9999.0000
      -9999.0000      -9999.0000
      -9999.0000      -9999.0000      -9999.0000      -9999.0000      -9999.0000
      -9999.0000      -9999.0000      -9999.0000      -9999.0000      -9999.0000
      -9999.0000      -9999.0000      -9999.0000      -9999.0000      -9999.0000
      -9999.0000      -9999.0000      -9999.0000      -9999.0000      -9999.0000
      -9999.0000      -9999.0000      -9999.0000      -9999.0000      -9999.0000
      -9999.0000      -9999.0000      0.65316618      0.75919664      0.80236160
      0.81191968      0.82244664      0.82770291      0.83069769      0.84517985
      0.86374984      0.88411846      0.92925221       1.0580573       1.2114829
       1.3123980       1.3982771       1.5379355       1.8316367       1.9855526
       2.5399545       2.8490003      -9999.0000      -9999.0000      -9999.0000
      -9999.0000      -9999.0000      -9999.0000      -9999.0000      -9999.0000
      -9999.0000      -9999.0000
      -9999.0000      -9999.0000      -9999.0000      -9999.0000      -9999.0000
      -9999.0000      -9999.0000      -9999.0000      -9999.0000      -9999.0000
      -9999.0000      -9999.0000      -9999.0000      -9999.0000      -9999.0000
      -9999.0000      -9999.0000      -9999.0000      -9999.0000      -9999.0000
      -9999.0000      -9999.0000      -9999.0000      -9999.0000      -9999.0000
      -9999.0000      -9999.0000      -9999.0000      -9999.0000      0.87615118
      0.87163072      0.84978352      0.83175140      0.82326187      0.83439935
      0.85325925      0.87398038      0.91938518       1.0490318       1.1611228
       1.1862764       1.2759388       1.4604984       1.6358903       1.9858730
       2.5129426       2.6318451      -9999.0000      -9999.0000      -9999.0000
      -9999.0000      -9999.0000      -9999.0000      -9999.0000      -9999.0000
      -9999.0000      -9999.0000
      -9999.0000      -9999.0000      -9999.0000      -9999.0000      -9999.0000
      -9999.0000      -9999.0000      -9999.0000      -9999.0000      -9999.0000
      -9999.0000      -9999.0000      -9999.0000      -9999.0000      -9999.0000
      -9999.0000      -9999.0000      -9999.0000      -9999.0000      -9999.0000
      -9999.0000      -9999.0000      -9999.0000      -9999.0000      -9999.0000
      -9999.0000      -9999.0000      -9999.0000      -9999.0000       1.0692091
       1.0041686      0.94010359      0.87371379      0.86315631      0.86351925
      0.86862083      0.87259451      0.89966413      0.94008049      0.95942803
       1.0338191       1.1632937       1.3462138       1.6775261      -9999.0000
      -9999.0000      -9999.0000      -9999.0000      -9999.0000      -9999.0000
      -9999.0000      -9999.0000      -9999.0000      -9999.0000      -9999.0000
      -9999.0000      -9999.0000
      -9999.0000      -9999.0000      -9999.0000      -9999.0000      -9999.0000
      -9999.0000      -9999.0000      -9999.0000      -9999.0000      -9999.0000
      -9999.0000      -9999.0000      -9999.0000      -9999.0000      -9999.0000
      -9999.0000      -9999.0000      -9999.0000      -9999.0000      -9999.0000
      -9999.0000      -9999.0000      -9999.0000      -9999.0000      -9999.0000
      -9999.0000      -9999.0000      -9999.0000      0.83148805      0.93567756
      -9999.0000      -9999.0000      -9999.0000      0.87449887      0.88033645
      0.87409149      0.88681569      0.89309646      0.88672161      0.89646949
      0.92881099      0.96830095       1.3006835       1.6404848      -9999.0000
      -9999.0000      -9999.0000      -9999.0000      -9999.0000      -9999.0000
      -9999.0000      -9999.0000      -9999.0000      -9999.0000      -9999.0000
      -9999.0000      -9999.0000
      -9999.0000      -9999.0000      -9999.0000      -9999.0000      -9999.0000
      -9999.0000      -9999.0000      -9999.0000      -9999.0000      -9999.0000
      -9999.0000      -9999.0000      -9999.0000      -9999.0000      -9999.0000
      -9999.0000      -9999.0000      -9999.0000      -9999.0000      -9999.0000
      -9999.0000      -9999.0000      -9999.0000      -9999.0000      -9999.0000
      -9999.0000      -9999.0000      -9999.0000      -9999.0000      -9999.0000
      -9999.0000      -9999.0000      -9999.0000      -9999.0000      0.83459093
      0.85340259      0.85836732      0.84472301      0.84763882      0.84274728
      0.84761392      0.88118120      0.99831703      -9999.0000      -9999.0000
      -9999.0000      -9999.0000      -9999.0000      -9999.0000      -9999.0000
      -9999.0000      -9999.0000      -9999.0000      -9999.0000      -9999.0000
      -9999.0000      -9999.0000
      -9999.0000      -9999.0000      -9999.0000      -9999.0000      -9999.0000
      -9999.0000      -9999.0000      -9999.0000      -9999.0000      -9999.0000
      -9999.0000      -9999.0000      -9999.0000      -9999.0000      -9999.0000
      -9999.0000      -9999.0000      -9999.0000      -9999.0000      -9999.0000
      -9999.0000      -9999.0000      -9999.0000      -9999.0000      -9999.0000
      -9999.0000      -9999.0000      -9999.0000      -9999.0000      -9999.0000
      -9999.0000      -9999.0000      -9999.0000      -9999.0000      -9999.0000
      -9999.0000      -9999.0000      0.78517997      0.76961021      0.73730009
      0.73148242      0.79085448      0.75747119      -9999.0000      -9999.0000
      -9999.0000      -9999.0000      -9999.0000      -9999.0000      -9999.0000
      -9999.0000      -9999.0000      -9999.0000      -9999.0000      -9999.0000
      -9999.0000      -9999.0000
      -9999.0000      -9999.0000      -9999.0000      -9999.0000      -9999.0000
      -9999.0000      -9999.0000      -9999.0000      -9999.0000      -9999.0000
      -9999.0000      -9999.0000      -9999.0000      -9999.0000      -9999.0000
      -9999.0000      -9999.0000      -9999.0000      -9999.0000      -9999.0000
      -9999.0000      -9999.0000      -9999.0000      -9999.0000      -9999.0000
      -9999.0000      -9999.0000      -9999.0000      -9999.0000      -9999.0000
      -9999.0000      -9999.0000      -9999.0000      -9999.0000      -9999.0000
      -9999.0000      -9999.0000      -9999.0000      -9999.0000      -9999.0000
      -9999.0000      -9999.0000      -9999.0000      -9999.0000      -9999.0000
      -9999.0000      -9999.0000      -9999.0000      -9999.0000      -9999.0000
      -9999.0000      -9999.0000      -9999.0000      -9999.0000      -9999.0000
      -9999.0000      -9999.0000
      -9999.0000      -9999.0000      -9999.0000      -9999.0000      -9999.0000
      -9999.0000      -9999.0000      -9999.0000      -9999.0000      -9999.0000
      -9999.0000      -9999.0000      -9999.0000      -9999.0000      -9999.0000
      -9999.0000      -9999.0000      -9999.0000      -9999.0000      -9999.0000
      -9999.0000      -9999.0000      -9999.0000      -9999.0000      -9999.0000
      -9999.0000      -9999.0000      -9999.0000      -9999.0000      -9999.0000
      -9999.0000      -9999.0000      -9999.0000      -9999.0000      -9999.0000
      -9999.0000      -9999.0000      -9999.0000      -9999.0000      -9999.0000
      -9999.0000      -9999.0000      -9999.0000      -9999.0000      -9999.0000
      -9999.0000      -9999.0000      -9999.0000      -9999.0000      -9999.0000
      -9999.0000      -9999.0000      -9999.0000      -9999.0000      -9999.0000
      -9999.0000      -9999.0000
      -9999.0000      -9999.0000      -9999.0000      -9999.0000      -9999.0000
      -9999.0000      -9999.0000      -9999.0000      -9999.0000      -9999.0000
      -9999.0000      -9999.0000      -9999.0000      -9999.0000      -9999.0000
      -9999.0000      -9999.0000      -9999.0000      -9999.0000      -9999.0000
      -9999.0000      -9999.0000      -9999.0000      -9999.0000      -9999.0000
      -9999.0000      -9999.0000      -9999.0000      -9999.0000      -9999.0000
      -9999.0000      -9999.0000      -9999.0000      -9999.0000      -9999.0000
      -9999.0000      -9999.0000      -9999.0000      -9999.0000      -9999.0000
      -9999.0000      -9999.0000      -9999.0000      -9999.0000      -9999.0000
      -9999.0000      -9999.0000      -9999.0000      -9999.0000      -9999.0000
      -9999.0000      -9999.0000      -9999.0000      -9999.0000      -9999.0000
      -9999.0000      -9999.0000
      -9999.0000      -9999.0000      -9999.0000      -9999.0000      -9999.0000
      -9999.0000      -9999.0000      -9999.0000      -9999.0000      -9999.0000
      -9999.0000      -9999.0000      -9999.0000      -9999.0000      -9999.0000
      -9999.0000      -9999.0000      -9999.0000      -9999.0000      -9999.0000
      -9999.0000      -9999.0000      -9999.0000      -9999.0000      -9999.0000
      -9999.0000      -9999.0000      -9999.0000      -9999.0000      -9999.0000
      -9999.0000      -9999.0000      -9999.0000      -9999.0000      -9999.0000
      -9999.0000      -9999.0000      -9999.0000      -9999.0000      -9999.0000
      -9999.0000      -9999.0000      -9999.0000      -9999.0000      -9999.0000
      -9999.0000      -9999.0000      -9999.0000      -9999.0000      -9999.0000
      -9999.0000      -9999.0000      -9999.0000      -9999.0000      -9999.0000
      -9999.0000      -9999.0000
      -9999.0000      -9999.0000      -9999.0000      -9999.0000      -9999.0000
      -9999.0000      -9999.0000      -9999.0000      -9999.0000      -9999.0000
      -9999.0000      -9999.0000      -9999.0000      -9999.0000      -9999.0000
      -9999.0000      -9999.0000      -9999.0000      -9999.0000      -9999.0000
      -9999.0000      -9999.0000      -9999.0000      -9999.0000      -9999.0000
      -9999.0000      -9999.0000      -9999.0000      -9999.0000      -9999.0000
      -9999.0000      -9999.0000      -9999.0000      -9999.0000      -9999.0000
      -9999.0000      -9999.0000      -9999.0000      -9999.0000      -9999.0000
      -9999.0000      -9999.0000      -9999.0000      -9999.0000      -9999.0000
      -9999.0000      -9999.0000      -9999.0000      -9999.0000      -9999.0000
      -9999.0000      -9999.0000      -9999.0000      -9999.0000      -9999.0000
      -9999.0000      -9999.0000
      -9999.0000      -9999.0000      -9999.0000      -9999.0000      -9999.0000
      -9999.0000      -9999.0000      -9999.0000      -9999.0000      -9999.0000
      -9999.0000      -9999.0000      -9999.0000      -9999.0000      -9999.0000
      -9999.0000      -9999.0000      -9999.0000      -9999.0000      -9999.0000
      -9999.0000      -9999.0000      -9999.0000      -9999.0000      -9999.0000
      -9999.0000      -9999.0000      -9999.0000      -9999.0000      -9999.0000
      -9999.0000      -9999.0000      -9999.0000      -9999.0000      -9999.0000
      -9999.0000      -9999.0000      -9999.0000      -9999.0000      -9999.0000
      -9999.0000      -9999.0000      -9999.0000      -9999.0000      -9999.0000
      -9999.0000      -9999.0000      -9999.0000      -9999.0000      -9999.0000
      -9999.0000      -9999.0000      -9999.0000      -9999.0000      -9999.0000
      -9999.0000      -9999.0000
      -9999.0000      -9999.0000      -9999.0000      -9999.0000      -9999.0000
      -9999.0000      -9999.0000      -9999.0000      -9999.0000      -9999.0000
      -9999.0000      -9999.0000      -9999.0000      -9999.0000      -9999.0000
      -9999.0000      -9999.0000      -9999.0000      -9999.0000      -9999.0000
      -9999.0000      -9999.0000      -9999.0000      -9999.0000      -9999.0000
      -9999.0000      -9999.0000      -9999.0000      -9999.0000      -9999.0000
      -9999.0000      -9999.0000      -9999.0000      -9999.0000      -9999.0000
      -9999.0000      -9999.0000      -9999.0000      -9999.0000      -9999.0000
      -9999.0000      -9999.0000      -9999.0000      -9999.0000      -9999.0000
      -9999.0000      -9999.0000      -9999.0000      -9999.0000      -9999.0000
      -9999.0000      -9999.0000      -9999.0000      -9999.0000      -9999.0000
      -9999.0000      -9999.0000
