ncols        110
nrows        150
xllcorner    782900.000000000000
yllcorner    142850.000000000000
cellsize     10.000000000000
NODATA_value  -9999
      -9999.0000      -9999.0000      -9999.0000      -9999.0000      -9999.0000
      -9999.0000      -9999.0000      -9999.0000      -9999.0000      -9999.0000
      -9999.0000      -9999.0000      -9999.0000      -9999.0000      -9999.0000
      -9999.0000      -9999.0000      -9999.0000      -9999.0000      -9999.0000
      -9999.0000      -9999.0000      -9999.0000      -9999.0000      -9999.0000
      -9999.0000      -9999.0000      -9999.0000      -9999.0000      -9999.0000
      -9999.0000      -9999.0000      -9999.0000      -9999.0000      -9999.0000
      -9999.0000      -9999.0000      -9999.0000      -9999.0000      -9999.0000
      -9999.0000      -9999.0000      -9999.0000      -9999.0000      -9999.0000
      -9999.0000      -9999.0000      -9999.0000      -9999.0000      -9999.0000
      -9999.0000      -9999.0000      -9999.0000      -9999.0000      -9999.0000
      -9999.0000      -9999.0000      -9999.0000      -9999.0000      -9999.0000
      -9999.0000      -9999.0000      -9999.0000      -9999.0000      -9999.0000
      -9999.0000      -9999.0000      -9999.0000      -9999.0000      -9999.0000
      -9999.0000      -9999.0000      -9999.0000      -9999.0000      -9999.0000
      -9999.0000      -9999.0000      -9999.0000      -9999.0000      -9999.0000
      -9999.0000      -9999.0000      -9999.0000      -9999.0000      -9999.0000
      -9999.0000      -9999.0000      -9999.0000      -9999.0000      -9999.0000
      -9999.0000      -9999.0000      -9999.0000      -9999.0000      -9999.0000
      -9999.0000      -9999.0000      -9999.0000      -9999.0000      -9999.0000
      -9999.0000      -9999.0000      -9999.0000      -9999.0000      -9999.0000
      -9999.0000      -9999.0000      -9999.0000      -9999.0000      -9999.0000
      -9999.0000      -9999.0000      -9999.0000      -9999.0000      -9999.0000
      -9999.0000      -9999.0000      -9999.0000      -9999.0000      -9999.0000
      -9999.0000      -9999.0000      -9999.0000      -9999.0000      -9999.0000
      -9999.0000      -9999.0000      -9999.0000      -9999.0000      -9999.0000
      -9999.0000      -9999.0000      -9999.0000      -9999.0000      -9999.0000
      -9999.0000      -9999.0000      -9999.0000      -9999.0000      -9999.0000
      -9999.0000      -9999.0000      -9999.0000      -9999.0000      -9999.0000
      -9999.0000      -9999.0000      -9999.0000      -9999.0000      -9999.0000
      -9999.0000      -9999.0000      -9999.0000      -9999.0000      -9999.0000
      -9999.0000      -9999.0000      -9999.0000      -9999.0000      -9999.0000
      -9999.0000      -9999.0000      -9999.0000      -9999.0000      -9999.0000
      -9999.0000      -9999.0000      -9999.0000      -9999.0000      -9999.0000
      -9999.0000      -9999.0000      -9999.0000      -9999.0000      -9999.0000
      -9999.0000      -9999.0000      -9999.0000      -9999.0000      -9999.0000
      -9999.0000      -9999.0000      -9999.0000      -9999.0000      -9999.0000
      -9999.0000      -9999.0000      -9999.0000      -9999.0000      -9999.0000
      -9999.0000      -9999.0000      -9999.0000      -9999.0000      -9999.0000
      -9999.0000      -9999.0000      -9999.0000      -9999.0000      -9999.0000
      -9999.0000      -9999.0000      -9999.0000      -9999.0000      -9999.0000
      -9999.0000      -9999.0000      -9999.0000      -9999.0000      -9999.0000
      -9999.0000      -9999.0000      -9999.0000      -9999.0000      -9999.0000
      -9999.0000      -9999.0000      -9999.0000      -9999.0000      -9999.0000
      -9999.0000      -9999.0000      -9999.0000      -9999.0000      -9999.0000
      -9999.0000      -9999.0000      -9999.0000      -9999.0000      -9999.0000
      -9999.0000      -9999.0000      -9999.0000      -9999.0000      -9999.0000
      -9999.0000      -9999.0000      -9999.0000      -9999.0000      -9999.0000
      -9999.0000      -9999.0000      -9999.0000      -9999.0000      -9999.0000
      -9999.0000      -9999.0000      -9999.0000      -9999.0000      -9999.0000
      -9999.0000      -9999.0000      -9999.0000      -9999.0000      -9999.0000
      -9999.0000      -9999.0000      -9999.0000      -9999.0000      -9999.0000
      -9999.0000      -9999.0000      -9999.0000      -9999.0000      -9999.0000
      -9999.0000      -9999.0000      -9999.0000      -9999.0000      -9999.0000
      -9999.0000      -9999.0000      -9999.0000      -9999.0000      -9999.0000
      -9999.0000      -9999.0000      -9999.0000      -9999.0000      -9999.0000
      -9999.0000      -9999.0000      -9999.0000      -9999.0000      -9999.0000
      -9999.0000      -9999.0000      -9999.0000      -9999.0000      -9999.0000
      -9999.0000      -9999.0000      -9999.0000      -9999.0000      -9999.0000
      -9999.0000      -9999.0000      -9999.0000      -9999.0000      -9999.0000
      -9999.0000      -9999.0000      -9999.0000      -9999.0000      -9999.0000
      -9999.0000      -9999.0000      -9999.0000      -9999.0000      -9999.0000
      -9999.0000      -9999.0000      -9999.0000      -9999.0000      -9999.0000
      -9999.0000      -9999.0000      -9999.0000      -9999.0000      -9999.0000
      -9999.0000      -9999.0000      -9999.0000      -9999.0000      -9999.0000
      -9999.0000      -9999.0000      -9999.0000      -9999.0000      -9999.0000
      -9999.0000      -9999.0000      -9999.0000      -9999.0000      -9999.0000
      -9999.0000      -9999.0000      -9999.0000      -9999.0000      -9999.0000
      -9999.0000      -9999.0000      -9999.0000      -9999.0000      -9999.0000
      -9999.0000      -9999.0000      -9999.0000      -9999.0000      -9999.0000
      -9999.0000      -9999.0000      -9999.0000      -9999.0000      -9999.0000
      -9999.0000      -9999.0000      -9999.0000      -9999.0000      -9999.0000
      -9999.0000      -9999.0000      -9999.0000      -9999.0000      -9999.0000
      -9999.0000      -9999.0000      -9999.0000      -9999.0000      -9999.0000
      -9999.0000      -9999.0000      -9999.0000      -9999.0000      -9999.0000
      -9999.0000      -9999.0000      -9999.0000      -9999.0000      -9999.0000
      -9999.0000      -9999.0000      -9999.0000      -9999.0000      -9999.0000
      -9999.0000      -9999.0000      -9999.0000      -9999.0000      -9999.0000
      -9999.0000      -9999.0000      -9999.0000      -9999.0000      -9999.0000
      -9999.0000      -9999.0000      -9999.0000      -9999.0000      -9999.0000
      -9999.0000      -9999.0000      -9999.0000      -9999.0000      -9999.0000
      -9999.0000      -9999.0000      -9999.0000      -9999.0000      -9999.0000
      -9999.0000      -9999.0000      -9999.0000      -9999.0000      -9999.0000
      -9999.0000      -9999.0000      -9999.0000      -9999.0000      -9999.0000
      -9999.0000      -9999.0000      -9999.0000      -9999.0000      -9999.0000
      -9999.0000      -9999.0000      -9999.0000      -9999.0000      -9999.0000
      -9999.0000      -9999.0000      -9999.0000      -9999.0000      -9999.0000
      -9999.0000      -9999.0000      -9999.0000      -9999.0000      -9999.0000
      -9999.0000      -9999.0000      -9999.0000      -9999.0000      -9999.0000
      -9999.0000      -9999.0000      -9999.0000      -9999.0000      -9999.0000
      -9999.0000      -9999.0000      -9999.0000      -9999.0000      -9999.0000
      -9999.0000      -9999.0000      -9999.0000      -9999.0000      -9999.0000
      -9999.0000      -9999.0000      -9999.0000      -9999.0000      -9999.0000
      -9999.0000      -9999.0000      -9999.0000      -9999.0000      -9999.0000
      -9999.0000      -9999.0000      -9999.0000      -9999.0000      -9999.0000
      -9999.0000      -9999.0000      -9999.0000      -9999.0000      -9999.0000
      -9999.0000      -9999.0000      -9999.0000      -9999.0000      -9999.0000
      -9999.0000      -9999.0000      -9999.0000      -9999.0000      -9999.0000
      -9999.0000      -9999.0000      -9999.0000      -9999.0000      -9999.0000
      -9999.0000      -9999.0000      -9999.0000      -9999.0000      -9999.0000
      -9999.0000      -9999.0000      -9999.0000      -9999.0000      -9999.0000
      -9999.0000      -9999.0000      -9999.0000      -9999.0000      -9999.0000
      -9999.0000      -9999.0000      -9999.0000      -9999.0000      -9999.0000
      -9999.0000      -9999.0000      -9999.0000      -9999.0000      -9999.0000
      -9999.0000      -9999.0000      -9999.0000      -9999.0000      -9999.0000
      -9999.0000      -9999.0000      -9999.0000      -9999.0000      -9999.0000
      -9999.0000      -9999.0000      -9999.0000      -9999.0000      -9999.0000
      -9999.0000      -9999.0000      -9999.0000      -9999.0000      -9999.0000
      -9999.0000      -9999.0000      -9999.0000      -9999.0000      -9999.0000
      -9999.0000      -9999.0000      -9999.0000      -9999.0000      -9999.0000
      -9999.0000      -9999.0000      -9999.0000      -9999.0000      -9999.0000
      -9999.0000      -9999.0000      -9999.0000      -9999.0000      -9999.0000
      -9999.0000      -9999.0000      -9999.0000      -9999.0000      -9999.0000
      -9999.0000      -9999.0000      -9999.0000      -9999.0000      -9999.0000
      -9999.0000      -9999.0000      -9999.0000      -9999.0000      -9999.0000
      -9999.0000      -9999.0000      -9999.0000      -9999.0000      -9999.0000
      -9999.0000      -9999.0000      -9999.0000      -9999.0000      -9999.0000
      -9999.0000      -9999.0000      -9999.0000      -9999.0000      -9999.0000
      -9999.0000      -9999.0000      -9999.0000      -9999.0000      -9999.0000
      -9999.0000      -9999.0000      -9999.0000      -9999.0000      -9999.0000
      -9999.0000      -9999.0000      -9999.0000      -9999.0000      -9999.0000
      -9999.0000      -9999.0000      -9999.0000      -9999.0000      -9999.0000
      -9999.0000      -9999.0000      -9999.0000      -9999.0000      -9999.0000
      -9999.0000      -9999.0000      -9999.0000      -9999.0000      -9999.0000
      -9999.0000      -9999.0000      -9999.0000      -9999.0000      -9999.0000
      -9999.0000      -9999.0000      -9999.0000      -9999.0000      -9999.0000
      -9999.0000      -9999.0000      -9999.0000      -9999.0000      -9999.0000
      -9999.0000      -9999.0000      -9999.0000      -9999.0000      -9999.0000
      -9999.0000      -9999.0000      -9999.0000      -9999.0000      -9999.0000
      -9999.0000      -9999.0000      -9999.0000      -9999.0000      -9999.0000
      -9999.0000      -9999.0000      -9999.0000      -9999.0000      -9999.0000
      -9999.0000      -9999.0000      -9999.0000      -9999.0000      -9999.0000
      -9999.0000      -9999.0000      -9999.0000      -9999.0000      -9999.0000
      -9999.0000      -9999.0000      -9999.0000      -9999.0000      -9999.0000
      -9999.0000      -9999.0000      -9999.0000      -9999.0000      -9999.0000
      -9999.0000      -9999.0000      -9999.0000      -9999.0000      -9999.0000
      -9999.0000      -9999.0000      -9999.0000      -9999.0000      -9999.0000
      -9999.0000      -9999.0000      -9999.0000      -9999.0000      -9999.0000
      -9999.0000      -9999.0000      -9999.0000      -9999.0000      -9999.0000
      -9999.0000      -9999.0000      -9999.0000      -9999.0000      -9999.0000
      -9999.0000      -9999.0000      -9999.0000      -9999.0000      -9999.0000
      -9999.0000      -9999.0000      -9999.0000      -9999.0000      -9999.0000
      -9999.0000      -9999.0000      -9999.0000      -9999.0000      -9999.0000
      -9999.0000      -9999.0000      -9999.0000      -9999.0000      -9999.0000
      -9999.0000      -9999.0000      -9999.0000      -9999.0000      -9999.0000
      -9999.0000      -9999.0000      -9999.0000      -9999.0000      -9999.0000
      -9999.0000      -9999.0000      -9999.0000      -9999.0000      -9999.0000
      -9999.0000      -9999.0000      -9999.0000      -9999.0000      -9999.0000
      -9999.0000      -9999.0000      -9999.0000      -9999.0000      -9999.0000
      -9999.0000      -9999.0000      -9999.0000      -9999.0000      -9999.0000
      -9999.0000      -9999.0000      -9999.0000      -9999.0000      -9999.0000
      -9999.0000      -9999.0000      -9999.0000      -9999.0000      -9999.0000
      -9999.0000      -9999.0000      -9999.0000      -9999.0000      -9999.0000
      -9999.0000      -9999.0000      -9999.0000      -9999.0000      -9999.0000
      -9999.0000      -9999.0000      -9999.0000      -9999.0000      -9999.0000
      -9999.0000      -9999.0000      -9999.0000      -9999.0000      -9999.0000
      -9999.0000      -9999.0000      -9999.0000      -9999.0000      -9999.0000
      -9999.0000      -9999.0000      -9999.0000      -9999.0000      -9999.0000
      -9999.0000      -9999.0000      -9999.0000      -9999.0000      -9999.0000
      -9999.0000      -9999.0000      -9999.0000      -9999.0000      -9999.0000
      -9999.0000      -9999.0000      -9999.0000      -9999.0000      -9999.0000
      -9999.0000      -9999.0000      -9999.0000      -9999.0000      -9999.0000
      -9999.0000      -9999.0000      -9999.0000      -9999.0000      -9999.0000
      -9999.0000      -9999.0000      -9999.0000      -9999.0000      -9999.0000
      -9999.0000      -9999.0000      -9999.0000      -9999.0000      -9999.0000
      -9999.0000      -9999.0000      -9999.0000      -9999.0000      -9999.0000
      -9999.0000      -9999.0000      -9999.0000      -9999.0000      -9999.0000
      -9999.0000      -9999.0000      -9999.0000      -9999.0000      -9999.0000
      -9999.0000      -9999.0000      -9999.0000      -9999.0000      -9999.0000
      -9999.0000      -9999.0000      -9999.0000      -9999.0000      -9999.0000
      -9999.0000      -9999.0000      -9999.0000      -9999.0000      -9999.0000
      -9999.0000      -9999.0000      -9999.0000      -9999.0000      -9999.0000
      -9999.0000      -9999.0000      -9999.0000      -9999.0000      -9999.0000
      -9999.0000      -9999.0000      -9999.0000      -9999.0000      -9999.0000
      -9999.0000      -9999.0000      -9999.0000      -9999.0000      -9999.0000
      -9999.0000      -9999.0000      -9999.0000      -9999.0000      -9999.0000
      -9999.0000      -9999.0000      -9999.0000      -9999.0000      -9999.0000
      -9999.0000      -9999.0000      -9999.0000      -9999.0000      -9999.0000
      -9999.0000      -9999.0000      -9999.0000      -9999.0000      -9999.0000
      -9999.0000      -9999.0000      -9999.0000      -9999.0000      -9999.0000
      -9999.0000      -9999.0000      -9999.0000      -9999.0000      -9999.0000
      -9999.0000      -9999.0000      -9999.0000      -9999.0000      -9999.0000
      -9999.0000      -9999.0000      -9999.0000      -9999.0000      -9999.0000
      -9999.0000      -9999.0000      -9999.0000      -9999.0000      -9999.0000
      -9999.0000      -9999.0000      -9999.0000      -9999.0000      -9999.0000
      -9999.0000      -9999.0000      -9999.0000      -9999.0000      -9999.0000
      -9999.0000      -9999.0000      -9999.0000      -9999.0000      -9999.0000
      -9999.0000      -9999.0000      -9999.0000      -9999.0000      -9999.0000
      -9999.0000      -9999.0000      -9999.0000      -9999.0000      -9999.0000
      -9999.0000      -9999.0000      -9999.0000      -9999.0000      -9999.0000
      -9999.0000      -9999.0000      -9999.0000      -9999.0000      -9999.0000
      -9999.0000      -9999.0000      -9999.0000      -9999.0000      -9999.0000
      -9999.0000      -9999.0000      -9999.0000      -9999.0000      -9999.0000
      -9999.0000      -9999.0000      -9999.0000      -9999.0000      -9999.0000
      -9999.0000      -9999.0000      -9999.0000      -9999.0000      -9999.0000
      -9999.0000      -9999.0000      -9999.0000      -9999.0000      -9999.0000
      -9999.0000      -9999.0000      -9999.0000      -9999.0000      -9999.0000
      -9999.0000      -9999.0000      -9999.0000      -9999.0000      -9999.0000
      -9999.0000      -9999.0000      -9999.0000      -9999.0000      -9999.0000
      -9999.0000      -9999.0000      -9999.0000      -9999.0000      -9999.0000
      -9999.0000      -9999.0000      -9999.0000      -9999.0000      -9999.0000
      -9999.0000      -9999.0000      -9999.0000      -9999.0000      -9999.0000
      -9999.0000      -9999.0000      -9999.0000      -9999.0000      -9999.0000
      -9999.0000      -9999.0000      -9999.0000      -9999.0000      -9999.0000
      -9999.0000      -9999.0000      -9999.0000      -9999.0000      -9999.0000
      -9999.0000      -9999.0000      -9999.0000      -9999.0000      -9999.0000
      -9999.0000      -9999.0000      -9999.0000      -9999.0000      -9999.0000
      -9999.0000      -9999.0000      -9999.0000      -9999.0000      -9999.0000
      -9999.0000      -9999.0000      -9999.0000      -9999.0000      -9999.0000
      -9999.0000      -9999.0000      -9999.0000      -9999.0000      -9999.0000
      -9999.0000      -9999.0000      -9999.0000      -9999.0000      -9999.0000
      -9999.0000      -9999.0000      -9999.0000      -9999.0000      -9999.0000
      -9999.0000      -9999.0000      -9999.0000      -9999.0000      -9999.0000
      -9999.0000      -9999.0000      -9999.0000      -9999.0000      -9999.0000
      -9999.0000      -9999.0000      -9999.0000      -9999.0000      -9999.0000
      -9999.0000      -9999.0000      -9999.0000      -9999.0000      -9999.0000
      -9999.0000      -9999.0000      -9999.0000      -9999.0000      -9999.0000
      -9999.0000      -9999.0000      -9999.0000      -9999.0000      -9999.0000
      -9999.0000      -9999.0000      -9999.0000      -9999.0000      -9999.0000
      -9999.0000      -9999.0000      -9999.0000      -9999.0000      -9999.0000
      -9999.0000      -9999.0000      -9999.0000      -9999.0000      -9999.0000
      -9999.0000      -9999.0000      -9999.0000      -9999.0000      -9999.0000
      -9999.0000      -9999.0000      -9999.0000      -9999.0000      -9999.0000
      -9999.0000      -9999.0000      -9999.0000      -9999.0000      -9999.0000
      -9999.0000      -9999.0000      -9999.0000      -9999.0000      -9999.0000
      -9999.0000      -9999.0000      -9999.0000      -9999.0000      -9999.0000
      -9999.0000      -9999.0000      -9999.0000      -9999.0000      -9999.0000
      -9999.0000      -9999.0000      -9999.0000      -9999.0000      -9999.0000
      -9999.0000      -9999.0000      -9999.0000      -9999.0000      -9999.0000
      -9999.0000      -9999.0000      -9999.0000      -9999.0000      -9999.0000
      -9999.0000      -9999.0000      -9999.0000      -9999.0000      -9999.0000
      -9999.0000      -9999.0000      -9999.0000      -9999.0000      -9999.0000
      -9999.0000      -9999.0000      -9999.0000      -9999.0000      -9999.0000
      -9999.0000      -9999.0000      -9999.0000      -9999.0000      -9999.0000
      -9999.0000      -9999.0000      -9999.0000      -9999.0000      -9999.0000
      -9999.0000      -9999.0000      -9999.0000      -9999.0000      -9999.0000
      -9999.0000      -9999.0000      -9999.0000      -9999.0000      -9999.0000
      -9999.0000      -9999.0000      -9999.0000      -9999.0000      -9999.0000
      -9999.0000      -9999.0000      -9999.0000      -9999.0000      -9999.0000
      -9999.0000      -9999.0000      -9999.0000      -9999.0000      -9999.0000
      -9999.0000      -9999.0000      -9999.0000      -9999.0000      -9999.0000
      -9999.0000      -9999.0000      -9999.0000      -9999.0000      -9999.0000
      -9999.0000      -9999.0000      -9999.0000      -9999.0000      -9999.0000
      -9999.0000      -9999.0000      -9999.0000      -9999.0000      -9999.0000
      -9999.0000      -9999.0000      -9999.0000      -9999.0000      -9999.0000
      -9999.0000      -9999.0000      -9999.0000      -9999.0000      -9999.0000
      -9999.0000      -9999.0000      -9999.0000      -9999.0000      -9999.0000
      -9999.0000      -9999.0000      -9999.0000      -9999.0000      -9999.0000
      -9999.0000      -9999.0000      -9999.0000      -9999.0000      -9999.0000
      -9999.0000      -9999.0000      -9999.0000      -9999.0000      -9999.0000
      -9999.0000      -9999.0000      -9999.0000      -9999.0000      -9999.0000
      -9999.0000      -9999.0000      -9999.0000      -9999.0000      -9999.0000
      -9999.0000      -9999.0000      -9999.0000      -9999.0000      -9999.0000
      -9999.0000      -9999.0000      -9999.0000      -9999.0000      -9999.0000
      -9999.0000      -9999.0000      -9999.0000      -9999.0000      -9999.0000
      -9999.0000      -9999.0000      -9999.0000      -9999.0000      -9999.0000
      -9999.0000      -9999.0000      -9999.0000      -9999.0000      -9999.0000
      -9999.0000      -9999.0000      -9999.0000      -9999.0000      -9999.0000
      -9999.0000      -9999.0000      -9999.0000      -9999.0000      -9999.0000
      -9999.0000      -9999.0000      -9999.0000      -9999.0000      -9999.0000
      -9999.0000      -9999.0000      -9999.0000      -9999.0000      -9999.0000
      -9999.0000      -9999.0000      -9999.0000      -9999.0000      -9999.0000
      -9999.0000      -9999.0000      -9999.0000      -9999.0000      -9999.0000
      -9999.0000      -9999.0000      -9999.0000      -9999.0000      -9999.0000
      -9999.0000      -9999.0000      -9999.0000      -9999.0000      -9999.0000
      -9999.0000      -9999.0000      -9999.0000      -9999.0000      -9999.0000
      -9999.0000      -9999.0000      -9999.0000      -9999.0000      -9999.0000
      -9999.0000      -9999.0000      -9999.0000      -9999.0000      -9999.0000
      -9999.0000      -9999.0000      -9999.0000      -9999.0000      -9999.0000
      -9999.0000      -9999.0000      -9999.0000      -9999.0000      -9999.0000
      -9999.0000      -9999.0000      -9999.0000      -9999.0000      -9999.0000
      -9999.0000      -9999.0000      -9999.0000      -9999.0000      -9999.0000
      -9999.0000      -9999.0000      -9999.0000      -9999.0000      -9999.0000
      -9999.0000      -9999.0000      -9999.0000      -9999.0000      -9999.0000
      -9999.0000      -9999.0000      -9999.0000      -9999.0000      -9999.0000
      -9999.0000      -9999.0000      -9999.0000      -9999.0000      -9999.0000
      -9999.0000      -9999.0000      -9999.0000      -9999.0000      -9999.0000
      -9999.0000      -9999.0000      -9999.0000      -9999.0000      -9999.0000
      -9999.0000      -9999.0000      -9999.0000      -9999.0000      -9999.0000
      -9999.0000      -9999.0000      -9999.0000      -9999.0000      -9999.0000
      -9999.0000      -9999.0000      -9999.0000      -9999.0000      -9999.0000
      -9999.0000      -9999.0000      -9999.0000      -9999.0000      -9999.0000
      -9999.0000      -9999.0000      -9999.0000      -9999.0000      -9999.0000
      -9999.0000      -9999.0000      -9999.0000      -9999.0000      -9999.0000
      -9999.0000      -9999.0000      -9999.0000      -9999.0000      -9999.0000
      -9999.0000      -9999.0000      -9999.0000      -9999.0000      -9999.0000
      -9999.0000      -9999.0000      -9999.0000      -9999.0000      -9999.0000
      -9999.0000      -9999.0000      -9999.0000      -9999.0000      -9999.0000
      -9999.0000      -9999.0000      -9999.0000      -9999.0000      -9999.0000
      -9999.0000      -9999.0000      -9999.0000      -9999.0000      -9999.0000
      -9999.0000      -9999.0000      -9999.0000      -9999.0000      -9999.0000
      -9999.0000      -9999.0000      -9999.0000      -9999.0000      -9999.0000
      -9999.0000      -9999.0000      -9999.0000      -9999.0000      -9999.0000
      -9999.0000      -9999.0000      -9999.0000      -9999.0000      -9999.0000
      -9999.0000      -9999.0000      -9999.0000      -9999.0000      -9999.0000
      -9999.0000      -9999.0000      -9999.0000      -9999.0000      -9999.0000
      -9999.0000      -9999.0000      -9999.0000      -9999.0000      -9999.0000
      -9999.0000      -9999.0000      -9999.0000      -9999.0000      -9999.0000
      -9999.0000      -9999.0000      -9999.0000      -9999.0000      -9999.0000
      -9999.0000      -9999.0000      -9999.0000      -9999.0000      -9999.0000
      -9999.0000      -9999.0000      -9999.0000      -9999.0000      -9999.0000
      -9999.0000      -9999.0000      -9999.0000      -9999.0000      -9999.0000
      -9999.0000      -9999.0000      -9999.0000      -9999.0000      -9999.0000
      -9999.0000      -9999.0000      -9999.0000      -9999.0000      -9999.0000
      -9999.0000      -9999.0000      -9999.0000      -9999.0000      -9999.0000
      -9999.0000      -9999.0000      -9999.0000      -9999.0000      -9999.0000
      -9999.0000      -9999.0000      -9999.0000      -9999.0000      -9999.0000
      -9999.0000      -9999.0000      -9999.0000      -9999.0000      -9999.0000
      -9999.0000      -9999.0000      -9999.0000      -9999.0000      -9999.0000
      -9999.0000      -9999.0000      -9999.0000      -9999.0000      -9999.0000
      -9999.0000      -9999.0000      -9999.0000      -9999.0000      -9999.0000
      -9999.0000      -9999.0000      -9999.0000      -9999.0000      -9999.0000
      -9999.0000      -9999.0000      -9999.0000      -9999.0000      -9999.0000
      -9999.0000      -9999.0000      -9999.0000      -9999.0000      -9999.0000
      -9999.0000      -9999.0000      -9999.0000      -9999.0000      -9999.0000
      -9999.0000      -9999.0000      -9999.0000      -9999.0000      -9999.0000
      -9999.0000      -9999.0000      -9999.0000      -9999.0000      -9999.0000
      -9999.0000      -9999.0000      -9999.0000      -9999.0000      -9999.0000
      -9999.0000      -9999.0000      -9999.0000      -9999.0000      -9999.0000
      -9999.0000      -9999.0000      -9999.0000      -9999.0000      -9999.0000
      -9999.0000      -9999.0000      -9999.0000      -9999.0000      -9999.0000
      -9999.0000      -9999.0000      -9999.0000      -9999.0000      -9999.0000
      -9999.0000      -9999.0000      -9999.0000      -9999.0000      -9999.0000
      -9999.0000      -9999.0000      -9999.0000      -9999.0000      -9999.0000
      -9999.0000      -9999.0000      -9999.0000      -9999.0000      -9999.0000
      -9999.0000      -9999.0000      -9999.0000      -9999.0000      -9999.0000
      -9999.0000      -9999.0000      -9999.0000      -9999.0000      -9999.0000
      -9999.0000      -9999.0000      -9999.0000      -9999.0000      -9999.0000
      -9999.0000      -9999.0000      -9999.0000      -9999.0000      -9999.0000
      -9999.0000      -9999.0000      -9999.0000      -9999.0000      -9999.0000
      -9999.0000      -9999.0000      -9999.0000      -9999.0000      -9999.0000
      -9999.0000      -9999.0000      -9999.0000      -9999.0000      -9999.0000
      -9999.0000      -9999.0000      -9999.0000      -9999.0000      -9999.0000
      -9999.0000      -9999.0000      -9999.0000      -9999.0000      -9999.0000
      -9999.0000      -9999.0000      -9999.0000      -9999.0000      -9999.0000
      -9999.0000      -9999.0000      -9999.0000      -9999.0000      -9999.0000
      -9999.0000      -9999.0000      -9999.0000      -9999.0000      -9999.0000
      -9999.0000      -9999.0000      -9999.0000      -9999.0000      -9999.0000
      -9999.0000      -9999.0000      -9999.0000      -9999.0000      -9999.0000
      -9999.0000      -9999.0000      -9999.0000      -9999.0000      -9999.0000
      -9999.0000      -9999.0000      -9999.0000      -9999.0000      -9999.0000
      -9999.0000      -9999.0000      -9999.0000      -9999.0000      -9999.0000
      -9999.0000      -9999.0000      -9999.0000      -9999.0000      -9999.0000
      -9999.0000      -9999.0000      -9999.0000      -9999.0000      -9999.0000
      -9999.0000      -9999.0000      -9999.0000      -9999.0000      -9999.0000
      -9999.0000      -9999.0000      -9999.0000      -9999.0000      -9999.0000
      -9999.0000      -9999.0000      -9999.0000      -9999.0000      -9999.0000
      -9999.0000      -9999.0000      -9999.0000      -9999.0000      -9999.0000
      -9999.0000      -9999.0000      -9999.0000      -9999.0000      -9999.0000
      -9999.0000      -9999.0000      -9999.0000      -9999.0000      -9999.0000
      -9999.0000      -9999.0000      -9999.0000      -9999.0000      -9999.0000
      -9999.0000      -9999.0000      -9999.0000      -9999.0000      -9999.0000
      -9999.0000      -9999.0000      -9999.0000      -9999.0000      -9999.0000
      -9999.0000      -9999.0000      -9999.0000      -9999.0000      -9999.0000
      -9999.0000      -9999.0000      -9999.0000      -9999.0000      -9999.0000
      -9999.0000      -9999.0000      -9999.0000      -9999.0000      -9999.0000
      -9999.0000      -9999.0000      -9999.0000      -9999.0000      -9999.0000
      -9999.0000      -9999.0000      -9999.0000      -9999.0000      -9999.0000
      -9999.0000      -9999.0000      -9999.0000      -9999.0000      -9999.0000
      -9999.0000      -9999.0000      -9999.0000      -9999.0000      -9999.0000
      -9999.0000      -9999.0000      -9999.0000      -9999.0000      -9999.0000
      -9999.0000      -9999.0000      -9999.0000      -9999.0000      -9999.0000
      -9999.0000      -9999.0000      -9999.0000      -9999.0000      -9999.0000
      -9999.0000      -9999.0000      -9999.0000      -9999.0000      -9999.0000
      -9999.0000      -9999.0000      -9999.0000      -9999.0000      -9999.0000
      -9999.0000      -9999.0000      -9999.0000      -9999.0000      -9999.0000
      -9999.0000      -9999.0000      -9999.0000      -9999.0000      -9999.0000
      -9999.0000      -9999.0000      -9999.0000      -9999.0000      -9999.0000
      -9999.0000      -9999.0000      -9999.0000      -9999.0000      -9999.0000
      -9999.0000      -9999.0000      -9999.0000      -9999.0000      -9999.0000
      -9999.0000      -9999.0000      -9999.0000      -9999.0000      -9999.0000
      -9999.0000      -9999.0000      -9999.0000      -9999.0000      -9999.0000
      -9999.0000      -9999.0000      -9999.0000      -9999.0000      -9999.0000
      -9999.0000      -9999.0000      -9999.0000      -9999.0000      -9999.0000
      -9999.0000      -9999.0000      -9999.0000      -9999.0000      -9999.0000
      -9999.0000      -9999.0000      -9999.0000      -9999.0000      -9999.0000
      -9999.0000      -9999.0000      -9999.0000      -9999.0000      -9999.0000
      -9999.0000      -9999.0000      -9999.0000      -9999.0000      -9999.0000
      -9999.0000      -9999.0000      -9999.0000      -9999.0000      -9999.0000
      -9999.0000      -9999.0000      -9999.0000      -9999.0000      -9999.0000
      -9999.0000      -9999.0000      -9999.0000      -9999.0000      -9999.0000
      -9999.0000      -9999.0000      -9999.0000      -9999.0000      -9999.0000
      -9999.0000      -9999.0000      -9999.0000      -9999.0000      -9999.0000
      -9999.0000      -9999.0000      -9999.0000      -9999.0000      -9999.0000
      -9999.0000      -9999.0000      -9999.0000      -9999.0000      -9999.0000
      -9999.0000      -9999.0000      -9999.0000      -9999.0000      -9999.0000
      -9999.0000      -9999.0000      -9999.0000      -9999.0000      -9999.0000
      -9999.0000      -9999.0000      -9999.0000      -9999.0000      -9999.0000
      -9999.0000      -9999.0000      -9999.0000      -9999.0000      -9999.0000
      -9999.0000      -9999.0000      -9999.0000      -9999.0000      -9999.0000
      -9999.0000      -9999.0000      -9999.0000      -9999.0000      -9999.0000
      -9999.0000      -9999.0000      -9999.0000      -9999.0000      -9999.0000
      -9999.0000      -9999.0000      -9999.0000      -9999.0000      -9999.0000
      -9999.0000      -9999.0000      -9999.0000      -9999.0000      -9999.0000
      -9999.0000      -9999.0000      -9999.0000      -9999.0000      -9999.0000
      -9999.0000      -9999.0000      -9999.0000      -9999.0000      -9999.0000
      -9999.0000      -9999.0000      -9999.0000      -9999.0000      -9999.0000
      -9999.0000      -9999.0000      -9999.0000      -9999.0000      -9999.0000
      -9999.0000      -9999.0000      -9999.0000      -9999.0000      -9999.0000
      -9999.0000      -9999.0000      -9999.0000      -9999.0000      -9999.0000
      -9999.0000      -9999.0000      -9999.0000      -9999.0000      -9999.0000
      -9999.0000      -9999.0000      -9999.0000      -9999.0000      -9999.0000
      -9999.0000      -9999.0000      -9999.0000      -9999.0000      -9999.0000
      -9999.0000      -9999.0000      -9999.0000      -9999.0000      -9999.0000
      -9999.0000      -9999.0000      -9999.0000      -9999.0000      -9999.0000
      -9999.0000      -9999.0000      -9999.0000      -9999.0000      -9999.0000
      -9999.0000      -9999.0000      -9999.0000      -9999.0000      -9999.0000
      -9999.0000      -9999.0000      -9999.0000      -9999.0000      -9999.0000
      -9999.0000      -9999.0000      -9999.0000      -9999.0000      -9999.0000
      -9999.0000      -9999.0000      -9999.0000      -9999.0000      -9999.0000
      -9999.0000      -9999.0000      -9999.0000      -9999.0000      -9999.0000
      -9999.0000      -9999.0000      -9999.0000      -9999.0000      -9999.0000
      -9999.0000      -9999.0000      -9999.0000      -9999.0000      -9999.0000
      -9999.0000      -9999.0000      -9999.0000      -9999.0000      -9999.0000
      -9999.0000      -9999.0000      -9999.0000      -9999.0000      -9999.0000
      -9999.0000      -9999.0000      -9999.0000      -9999.0000      -9999.0000
      -9999.0000      -9999.0000      -9999.0000      -9999.0000      -9999.0000
      -9999.0000      -9999.0000      -9999.0000      -9999.0000      -9999.0000
      -9999.0000      -9999.0000      -9999.0000      -9999.0000      -9999.0000
      -9999.0000      -9999.0000      -9999.0000      -9999.0000      -9999.0000
      -9999.0000      -9999.0000      -9999.0000      -9999.0000      -9999.0000
      -9999.0000      -9999.0000      -9999.0000      -9999.0000      -9999.0000
      -9999.0000      -9999.0000      -9999.0000      -9999.0000      -9999.0000
      -9999.0000      -9999.0000      -9999.0000      -9999.0000      -9999.0000
      -9999.0000      -9999.0000      -9999.0000      -9999.0000      -9999.0000
      -9999.0000      -9999.0000      -9999.0000      -9999.0000      -9999.0000
      -9999.0000      -9999.0000      -9999.0000      -9999.0000      -9999.0000
      -9999.0000      -9999.0000      -9999.0000      -9999.0000      -9999.0000
      -9999.0000      -9999.0000      -9999.0000      -9999.0000      -9999.0000
      -9999.0000      -9999.0000      -9999.0000      -9999.0000      -9999.0000
      -9999.0000      -9999.0000      -9999.0000      -9999.0000      -9999.0000
      -9999.0000      -9999.0000      -9999.0000      -9999.0000      -9999.0000
      -9999.0000      -9999.0000      -9999.0000      -9999.0000      -9999.0000
      -9999.0000      -9999.0000      -9999.0000      -9999.0000      -9999.0000
      -9999.0000      -9999.0000      -9999.0000      -9999.0000      -9999.0000
      -9999.0000      -9999.0000      -9999.0000      -9999.0000      -9999.0000
      -9999.0000      -9999.0000      -9999.0000      -9999.0000      -9999.0000
      -9999.0000      -9999.0000      -9999.0000      -9999.0000      -9999.0000
      -9999.0000      -9999.0000      -9999.0000      -9999.0000      -9999.0000
      -9999.0000      -9999.0000      -9999.0000      -9999.0000      -9999.0000
      -9999.0000      -9999.0000      -9999.0000      -9999.0000      -9999.0000
      -9999.0000      -9999.0000      -9999.0000      -9999.0000      -9999.0000
      -9999.0000      -9999.0000      -9999.0000      -9999.0000      -9999.0000
      -9999.0000      -9999.0000      -9999.0000      -9999.0000      -9999.0000
      -9999.0000      -9999.0000      -9999.0000      -9999.0000      -9999.0000
      -9999.0000      -9999.0000      -9999.0000      -9999.0000      -9999.0000
      -9999.0000      -9999.0000      -9999.0000      -9999.0000      -9999.0000
      -9999.0000      -9999.0000      -9999.0000      -9999.0000      -9999.0000
      -9999.0000      -9999.0000      -9999.0000      -9999.0000      -9999.0000
      -9999.0000      -9999.0000      -9999.0000      -9999.0000      -9999.0000
      -9999.0000      -9999.0000      -9999.0000      -9999.0000      -9999.0000
      -9999.0000      -9999.0000      -9999.0000      -9999.0000      -9999.0000
      -9999.0000      -9999.0000      -9999.0000      -9999.0000      -9999.0000
      -9999.0000      -9999.0000      -9999.0000      -9999.0000      -9999.0000
      -9999.0000      -9999.0000      -9999.0000      -9999.0000      -9999.0000
      -9999.0000      -9999.0000      -9999.0000      -9999.0000      -9999.0000
      -9999.0000      -9999.0000      -9999.0000      -9999.0000      -9999.0000
      -9999.0000      -9999.0000      -9999.0000      -9999.0000      -9999.0000
      -9999.0000      -9999.0000      -9999.0000      -9999.0000      -9999.0000
      -9999.0000      -9999.0000      -9999.0000      -9999.0000      -9999.0000
      -9999.0000      -9999.0000      -9999.0000      -9999.0000      -9999.0000
      -9999.0000      -9999.0000      -9999.0000      -9999.0000      -9999.0000
      -9999.0000      -9999.0000      -9999.0000      -9999.0000      -9999.0000
      -9999.0000      -9999.0000      -9999.0000      -9999.0000      -9999.0000
      -9999.0000      -9999.0000      -9999.0000      -9999.0000      -9999.0000
      -9999.0000      -9999.0000      -9999.0000      -9999.0000      -9999.0000
      -9999.0000      -9999.0000      -9999.0000      -9999.0000      -9999.0000
      -9999.0000      -9999.0000      -9999.0000      -9999.0000      -9999.0000
      -9999.0000      -9999.0000      -9999.0000      -9999.0000      -9999.0000
      -9999.0000      -9999.0000      -9999.0000      -9999.0000      -9999.0000
      -9999.0000      -9999.0000      -9999.0000      -9999.0000      -9999.0000
      -9999.0000      -9999.0000      -9999.0000      -9999.0000      -9999.0000
      -9999.0000      -9999.0000      -9999.0000      -9999.0000      -9999.0000
      -9999.0000      -9999.0000      -9999.0000      -9999.0000      -9999.0000
      -9999.0000      -9999.0000      -9999.0000      -9999.0000      -9999.0000
      -9999.0000      -9999.0000      -9999.0000      -9999.0000      -9999.0000
      -9999.0000      -9999.0000      -9999.0000      -9999.0000      -9999.0000
      -9999.0000      -9999.0000      -9999.0000      -9999.0000      -9999.0000
      -9999.0000      -9999.0000      -9999.0000      -9999.0000      -9999.0000
      -9999.0000      -9999.0000      -9999.0000      -9999.0000      -9999.0000
      -9999.0000      -9999.0000      -9999.0000      -9999.0000      -9999.0000
      -9999.0000      -9999.0000      -9999.0000      -9999.0000      -9999.0000
      -9999.0000      -9999.0000      -9999.0000      -9999.0000      -9999.0000
      -9999.0000      -9999.0000      -9999.0000      -9999.0000      -9999.0000
      -9999.0000      -9999.0000      -9999.0000      -9999.0000      -9999.0000
      -9999.0000      -9999.0000      -9999.0000      -9999.0000      -9999.0000
      -9999.0000      -9999.0000      -9999.0000      -9999.0000      -9999.0000
      -9999.0000      -9999.0000      -9999.0000      -9999.0000      -9999.0000
      -9999.0000      -9999.0000      -9999.0000      -9999.0000      -9999.0000
      -9999.0000      -9999.0000      -9999.0000      -9999.0000      -9999.0000
      -9999.0000      -9999.0000      -9999.0000      -9999.0000      -9999.0000
      -9999.0000      -9999.0000      -9999.0000      -9999.0000      -9999.0000
      -9999.0000      -9999.0000      -9999.0000      -9999.0000      -9999.0000
      -9999.0000      -9999.0000      -9999.0000      -9999.0000      -9999.0000
      -9999.0000      -9999.0000      -9999.0000      -9999.0000      -9999.0000
      -9999.0000      -9999.0000      -9999.0000      -9999.0000      -9999.0000
      -9999.0000      -9999.0000      -9999.0000      -9999.0000      -9999.0000
      -9999.0000      -9999.0000      -9999.0000      -9999.0000      -9999.0000
      -9999.0000      -9999.0000      -9999.0000      -9999.0000      -9999.0000
      -9999.0000      -9999.0000      -9999.0000      -9999.0000      -9999.0000
      -9999.0000      -9999.0000      -9999.0000      -9999.0000      -9999.0000
      -9999.0000      -9999.0000      -9999.0000      -9999.0000      -9999.0000
      -9999.0000      -9999.0000      -9999.0000      -9999.0000      -9999.0000
      -9999.0000      -9999.0000      -9999.0000      -9999.0000      -9999.0000
      -9999.0000      -9999.0000      -9999.0000      -9999.0000      -9999.0000
      -9999.0000      -9999.0000      -9999.0000      -9999.0000      -9999.0000
      -9999.0000      -9999.0000      -9999.0000      -9999.0000      -9999.0000
      -9999.0000      -9999.0000      -9999.0000      -9999.0000      -9999.0000
      -9999.0000      -9999.0000      -9999.0000      -9999.0000      -9999.0000
      -9999.0000      -9999.0000      -9999.0000      -9999.0000      -9999.0000
      -9999.0000      -9999.0000      -9999.0000      -9999.0000      -9999.0000
      -9999.0000      -9999.0000      -9999.0000      -9999.0000      -9999.0000
      -9999.0000      -9999.0000      -9999.0000      -9999.0000      -9999.0000
      -9999.0000      -9999.0000      -9999.0000      -9999.0000      -9999.0000
      -9999.0000      -9999.0000      -9999.0000      -9999.0000      -9999.0000
      -9999.0000      -9999.0000      -9999.0000      -9999.0000      -9999.0000
      -9999.0000      -9999.0000      -9999.0000      -9999.0000      -9999.0000
      -9999.0000      -9999.0000      -9999.0000      -9999.0000      -9999.0000
      -9999.0000      -9999.0000      -9999.0000      -9999.0000      -9999.0000
      -9999.0000      -9999.0000      -9999.0000      -9999.0000      -9999.0000
      -9999.0000      -9999.0000      -9999.0000      -9999.0000      -9999.0000
      -9999.0000      -9999.0000      -9999.0000      -9999.0000      -9999.0000
      -9999.0000      -9999.0000      -9999.0000      -9999.0000      -9999.0000
      -9999.0000      -9999.0000      -9999.0000      -9999.0000      -9999.0000
      -9999.0000      -9999.0000      -9999.0000      -9999.0000      -9999.0000
      -9999.0000      -9999.0000      -9999.0000      -9999.0000      -9999.0000
      -9999.0000      -9999.0000      -9999.0000      -9999.0000      -9999.0000
      -9999.0000      -9999.0000      -9999.0000      -9999.0000      -9999.0000
      -9999.0000      -9999.0000      -9999.0000      -9999.0000      -9999.0000
      -9999.0000      -9999.0000      -9999.0000      -9999.0000      -9999.0000
      -9999.0000      -9999.0000      -9999.0000      -9999.0000      -9999.0000
      -9999.0000      -9999.0000      -9999.0000      -9999.0000      -9999.0000
      -9999.0000      -9999.0000      -9999.0000      -9999.0000      -9999.0000
      -9999.0000      -9999.0000      -9999.0000      -9999.0000      -9999.0000
      -9999.0000      -9999.0000      -9999.0000      -9999.0000      -9999.0000
      -9999.0000      -9999.0000      -9999.0000      -9999.0000      -9999.0000
      -9999.0000      -9999.0000      -9999.0000      -9999.0000      -9999.0000
      -9999.0000      -9999.0000      -9999.0000      -9999.0000      -9999.0000
      -9999.0000      -9999.0000      -9999.0000      -9999.0000      -9999.0000
      -9999.0000      -9999.0000      -9999.0000      -9999.0000      -9999.0000
      -9999.0000      -9999.0000      -9999.0000      -9999.0000      -9999.0000
      -9999.0000      -9999.0000      -9999.0000      -9999.0000      -9999.0000
      -9999.0000      -9999.0000      -9999.0000      -9999.0000      -9999.0000
      -9999.0000      -9999.0000      -9999.0000      -9999.0000      -9999.0000
      -9999.0000      -9999.0000      -9999.0000      -9999.0000      -9999.0000
      -9999.0000      -9999.0000      -9999.0000      -9999.0000      -9999.0000
      -9999.0000      -9999.0000      -9999.0000      -9999.0000      -9999.0000
      -9999.0000      -9999.0000      -9999.0000      -9999.0000      -9999.0000
      -9999.0000      -9999.0000      -9999.0000      -9999.0000      -9999.0000
      -9999.0000      -9999.0000      -9999.0000      -9999.0000      -9999.0000
      -9999.0000      -9999.0000      -9999.0000      -9999.0000      -9999.0000
      -9999.0000      -9999.0000      -9999.0000      -9999.0000      -9999.0000
      -9999.0000      -9999.0000      -9999.0000      -9999.0000      -9999.0000
      -9999.0000      -9999.0000      -9999.0000      -9999.0000      -9999.0000
      -9999.0000      -9999.0000      -9999.0000      -9999.0000      -9999.0000
      -9999.0000      -9999.0000      -9999.0000      -9999.0000      -9999.0000
      -9999.0000      -9999.0000      -9999.0000      -9999.0000      -9999.0000
      -9999.0000      -9999.0000      -9999.0000      -9999.0000      -9999.0000
      -9999.0000      -9999.0000      -9999.0000      -9999.0000      -9999.0000
      -9999.0000      -9999.0000      -9999.0000      -9999.0000      -9999.0000
      -9999.0000      -9999.0000      -9999.0000      -9999.0000      -9999.0000
      -9999.0000      -9999.0000      -9999.0000      -9999.0000      -9999.0000
      -9999.0000      -9999.0000      -9999.0000      -9999.0000      -9999.0000
      -9999.0000      -9999.0000      -9999.0000      -9999.0000      -9999.0000
      -9999.0000      -9999.0000      -9999.0000      -9999.0000      -9999.0000
      -9999.0000      -9999.0000      -9999.0000      -9999.0000      -9999.0000
      -9999.0000      -9999.0000      -9999.0000      -9999.0000      -9999.0000
      -9999.0000      -9999.0000      -9999.0000      -9999.0000      -9999.0000
      -9999.0000      -9999.0000      -9999.0000      -9999.0000      -9999.0000
      -9999.0000      -9999.0000      -9999.0000      -9999.0000      -9999.0000
      -9999.0000      -9999.0000      -9999.0000      -9999.0000      -9999.0000
      -9999.0000      -9999.0000      -9999.0000      -9999.0000      -9999.0000
      -9999.0000      -9999.0000      -9999.0000      -9999.0000      -9999.0000
      -9999.0000      -9999.0000      -9999.0000      -9999.0000      -9999.0000
      -9999.0000      -9999.0000      -9999.0000      -9999.0000      -9999.0000
      -9999.0000      -9999.0000      -9999.0000      -9999.0000      -9999.0000
      -9999.0000      -9999.0000      -9999.0000      -9999.0000      -9999.0000
      -9999.0000      -9999.0000      -9999.0000      -9999.0000      -9999.0000
      -9999.0000      -9999.0000      -9999.0000      -9999.0000      -9999.0000
      -9999.0000      -9999.0000      -9999.0000      -9999.0000      -9999.0000
      -9999.0000      -9999.0000      -9999.0000      -9999.0000      -9999.0000
      -9999.0000      -9999.0000      -9999.0000      -9999.0000      -9999.0000
      -9999.0000      -9999.0000      -9999.0000      -9999.0000      -9999.0000
      -9999.0000      -9999.0000      -9999.0000      -9999.0000      -9999.0000
      -9999.0000      -9999.0000      -9999.0000      -9999.0000      -9999.0000
      -9999.0000      -9999.0000      -9999.0000      -9999.0000      -9999.0000
      -9999.0000      -9999.0000      -9999.0000      -9999.0000      -9999.0000
      -9999.0000      -9999.0000      -9999.0000      -9999.0000      -9999.0000
      -9999.0000      -9999.0000      -9999.0000      -9999.0000      -9999.0000
      -9999.0000      -9999.0000      -9999.0000      -9999.0000      -9999.0000
      -9999.0000      -9999.0000      -9999.0000      -9999.0000      -9999.0000
      -9999.0000      -9999.0000      -9999.0000      -9999.0000      -9999.0000
      -9999.0000      -9999.0000      -9999.0000      -9999.0000      -9999.0000
      -9999.0000      -9999.0000      -9999.0000      -9999.0000      -9999.0000
      -9999.0000      -9999.0000      -9999.0000      -9999.0000      -9999.0000
      -9999.0000      -9999.0000      -9999.0000      -9999.0000      -9999.0000
      -9999.0000      -9999.0000      -9999.0000      -9999.0000      -9999.0000
      -9999.0000      -9999.0000      -9999.0000      -9999.0000      -9999.0000
      -9999.0000      -9999.0000      -9999.0000      -9999.0000      -9999.0000
      -9999.0000      -9999.0000      -9999.0000      -9999.0000      -9999.0000
      -9999.0000      -9999.0000      -9999.0000      -9999.0000      -9999.0000
      -9999.0000      -9999.0000      -9999.0000      -9999.0000      -9999.0000
      -9999.0000      -9999.0000      -9999.0000      -9999.0000      -9999.0000
      -9999.0000      -9999.0000      -9999.0000      -9999.0000      -9999.0000
      -9999.0000      -9999.0000      -9999.0000      -9999.0000      -9999.0000
      -9999.0000      -9999.0000      -9999.0000      -9999.0000      -9999.0000
      -9999.0000      -9999.0000      -9999.0000      -9999.0000      -9999.0000
      -9999.0000      -9999.0000      -9999.0000      -9999.0000      -9999.0000
      -9999.0000      -9999.0000      -9999.0000      -9999.0000      -9999.0000
      -9999.0000      -9999.0000      -9999.0000      -9999.0000      -9999.0000
      -9999.0000      -9999.0000      -9999.0000      -9999.0000      -9999.0000
      -9999.0000      -9999.0000      -9999.0000      -9999.0000      -9999.0000
      -9999.0000      -9999.0000      -9999.0000      -9999.0000      -9999.0000
      -9999.0000      -9999.0000      -9999.0000      -9999.0000      -9999.0000
      -9999.0000      -9999.0000      -9999.0000      -9999.0000      -9999.0000
      -9999.0000      -9999.0000      -9999.0000      -9999.0000      -9999.0000
      -9999.0000      -9999.0000      -9999.0000      -9999.0000      -9999.0000
      -9999.0000      -9999.0000      -9999.0000      -9999.0000      -9999.0000
      -9999.0000      -9999.0000      -9999.0000      -9999.0000      -9999.0000
      -9999.0000      -9999.0000      -9999.0000      -9999.0000      -9999.0000
      -9999.0000      -9999.0000      -9999.0000      -9999.0000      -9999.0000
      -9999.0000      -9999.0000      -9999.0000      -9999.0000      -9999.0000
      -9999.0000      -9999.0000      -9999.0000      -9999.0000      -9999.0000
      -9999.0000      -9999.0000      -9999.0000      -9999.0000      -9999.0000
      -9999.0000      -9999.0000      -9999.0000      -9999.0000      -9999.0000
      -9999.0000      -9999.0000      -9999.0000      -9999.0000      -9999.0000
      -9999.0000      -9999.0000      -9999.0000      -9999.0000      -9999.0000
      -9999.0000      -9999.0000      -9999.0000      -9999.0000      -9999.0000
      -9999.0000      -9999.0000      -9999.0000      -9999.0000      -9999.0000
      -9999.0000      -9999.0000      -9999.0000      -9999.0000      -9999.0000
      -9999.0000      -9999.0000      -9999.0000      -9999.0000      -9999.0000
      -9999.0000      -9999.0000      -9999.0000      -9999.0000      -9999.0000
      -9999.0000      -9999.0000      -9999.0000      -9999.0000      -9999.0000
      -9999.0000      -9999.0000      -9999.0000      -9999.0000      -9999.0000
      -9999.0000      -9999.0000      -9999.0000      -9999.0000      -9999.0000
      -9999.0000      -9999.0000      -9999.0000      -9999.0000      -9999.0000
      -9999.0000      -9999.0000      -9999.0000      -9999.0000      -9999.0000
      -9999.0000      -9999.0000      -9999.0000      -9999.0000      -9999.0000
      -9999.0000      -9999.0000      -9999.0000      -9999.0000      -9999.0000
      -9999.0000      -9999.0000      -9999.0000      -9999.0000      -9999.0000
      -9999.0000      -9999.0000      -9999.0000      -9999.0000      -9999.0000
      -9999.0000      -9999.0000      -9999.0000      -9999.0000      -9999.0000
      -9999.0000      -9999.0000      -9999.0000      -9999.0000      -9999.0000
      -9999.0000      -9999.0000      -9999.0000      -9999.0000      -9999.0000
      -9999.0000      -9999.0000      -9999.0000      -9999.0000      -9999.0000
      -9999.0000      -9999.0000      -9999.0000      -9999.0000      -9999.0000
      -9999.0000      -9999.0000      -9999.0000      -9999.0000      -9999.0000
      -9999.0000      -9999.0000      -9999.0000      -9999.0000      -9999.0000
      -9999.0000      -9999.0000      -9999.0000      -9999.0000      -9999.0000
      -9999.0000      -9999.0000      -9999.0000      -9999.0000      -9999.0000
      -9999.0000      -9999.0000      -9999.0000      -9999.0000      -9999.0000
      -9999.0000      -9999.0000      -9999.0000      -9999.0000      -9999.0000
      -9999.0000      -9999.0000      -9999.0000      -9999.0000      -9999.0000
      -9999.0000      -9999.0000      -9999.0000      -9999.0000      -9999.0000
      -9999.0000      -9999.0000      -9999.0000      -9999.0000      -9999.0000
      -9999.0000      -9999.0000      -9999.0000      -9999.0000      -9999.0000
      -9999.0000      -9999.0000      -9999.0000      -9999.0000      -9999.0000
      -9999.0000      -9999.0000      -9999.0000      -9999.0000      -9999.0000
      -9999.0000      -9999.0000      -9999.0000      -9999.0000      -9999.0000
      -9999.0000      -9999.0000      -9999.0000      -9999.0000      -9999.0000
      -9999.0000      -9999.0000      -9999.0000      -9999.0000      -9999.0000
      -9999.0000      -9999.0000      -9999.0000      -9999.0000      -9999.0000
      -9999.0000      -9999.0000      -9999.0000      -9999.0000      -9999.0000
      -9999.0000      -9999.0000      -9999.0000      -9999.0000      -9999.0000
      -9999.0000      -9999.0000      -9999.0000      -9999.0000      -9999.0000
      -9999.0000      -9999.0000      -9999.0000      -9999.0000      -9999.0000
      -9999.0000      -9999.0000      -9999.0000      -9999.0000      -9999.0000
      -9999.0000      -9999.0000      -9999.0000      -9999.0000      -9999.0000
      -9999.0000      -9999.0000      -9999.0000      -9999.0000      -9999.0000
      -9999.0000      -9999.0000      -9999.0000      -9999.0000      -9999.0000
      -9999.0000      -9999.0000      -9999.0000      -9999.0000      -9999.0000
      -9999.0000      -9999.0000      -9999.0000      -9999.0000      -9999.0000
      -9999.0000      -9999.0000      -9999.0000      -9999.0000      -9999.0000
      -9999.0000      -9999.0000      -9999.0000      -9999.0000      -9999.0000
      -9999.0000      -9999.0000      -9999.0000      -9999.0000      -9999.0000
      -9999.0000      -9999.0000      -9999.0000      -9999.0000      -9999.0000
      -9999.0000      -9999.0000      -9999.0000      -9999.0000      -9999.0000
      -9999.0000      -9999.0000      -9999.0000      -9999.0000      -9999.0000
      -9999.0000      -9999.0000      -9999.0000      -9999.0000      -9999.0000
      -9999.0000      -9999.0000      -9999.0000      -9999.0000      -9999.0000
      -9999.0000      -9999.0000      -9999.0000      -9999.0000      -9999.0000
      -9999.0000      -9999.0000      -9999.0000      -9999.0000      -9999.0000
      -9999.0000      -9999.0000      -9999.0000      -9999.0000      -9999.0000
      -9999.0000      -9999.0000      -9999.0000      -9999.0000      -9999.0000
      -9999.0000      -9999.0000      -9999.0000      -9999.0000      -9999.0000
      -9999.0000      -9999.0000      -9999.0000      -9999.0000      -9999.0000
      -9999.0000      -9999.0000      -9999.0000      -9999.0000      -9999.0000
      -9999.0000      -9999.0000      -9999.0000      -9999.0000      -9999.0000
      -9999.0000      -9999.0000      -9999.0000      -9999.0000      -9999.0000
      -9999.0000      -9999.0000      -9999.0000      -9999.0000      -9999.0000
      -9999.0000      -9999.0000      -9999.0000      -9999.0000      -9999.0000
      -9999.0000      -9999.0000      -9999.0000      -9999.0000      -9999.0000
      -9999.0000      -9999.0000      -9999.0000      -9999.0000      -9999.0000
      -9999.0000      -9999.0000      -9999.0000      -9999.0000      -9999.0000
      -9999.0000      -9999.0000      -9999.0000      -9999.0000      -9999.0000
      -9999.0000      -9999.0000      -9999.0000      -9999.0000      -9999.0000
      -9999.0000      -9999.0000      -9999.0000      -9999.0000      -9999.0000
      -9999.0000      -9999.0000      -9999.0000      -9999.0000      -9999.0000
      -9999.0000      -9999.0000      -9999.0000      -9999.0000      -9999.0000
      -9999.0000      -9999.0000      -9999.0000      -9999.0000      -9999.0000
      -9999.0000      -9999.0000      -9999.0000      -9999.0000      -9999.0000
      -9999.0000      -9999.0000      -9999.0000      -9999.0000      -9999.0000
      -9999.0000      -9999.0000      -9999.0000      -9999.0000      -9999.0000
      -9999.0000      -9999.0000      -9999.0000      -9999.0000      -9999.0000
      -9999.0000      -9999.0000      -9999.0000      -9999.0000      -9999.0000
      -9999.0000      -9999.0000      -9999.0000      -9999.0000      -9999.0000
      -9999.0000      -9999.0000      -9999.0000      -9999.0000      -9999.0000
      -9999.0000      -9999.0000      -9999.0000      -9999.0000      -9999.0000
      -9999.0000      -9999.0000      -9999.0000      -9999.0000      -9999.0000
      -9999.0000      -9999.0000      -9999.0000      -9999.0000      -9999.0000
      -9999.0000      -9999.0000      -9999.0000      -9999.0000      -9999.0000
      -9999.0000      -9999.0000      -9999.0000      -9999.0000      -9999.0000
      -9999.0000      -9999.0000      -9999.0000      -9999.0000      -9999.0000
      -9999.0000      -9999.0000      -9999.0000      -9999.0000      -9999.0000
      -9999.0000      -9999.0000      -9999.0000      -9999.0000      -9999.0000
      -9999.0000      -9999.0000      -9999.0000      -9999.0000      -9999.0000
      -9999.0000      -9999.0000      -9999.0000      -9999.0000      -9999.0000
      -9999.0000      -9999.0000      -9999.0000      -9999.0000      -9999.0000
      -9999.0000      -9999.0000      -9999.0000      -9999.0000      -9999.0000
      -9999.0000      -9999.0000      -9999.0000      -9999.0000      -9999.0000
      -9999.0000      -9999.0000      -9999.0000      -9999.0000      -9999.0000
      -9999.0000      -9999.0000      -9999.0000      -9999.0000      -9999.0000
      -9999.0000      -9999.0000      -9999.0000      -9999.0000      -9999.0000
      -9999.0000      -9999.0000      -9999.0000      -9999.0000      -9999.0000
      -9999.0000      -9999.0000      -9999.0000      -9999.0000      -9999.0000
      -9999.0000      -9999.0000      -9999.0000      -9999.0000      -9999.0000
      -9999.0000      -9999.0000      -9999.0000      -9999.0000      -9999.0000
      -9999.0000      -9999.0000      -9999.0000      -9999.0000      -9999.0000
      -9999.0000      -9999.0000      -9999.0000      -9999.0000      -9999.0000
      -9999.0000      -9999.0000      -9999.0000      -9999.0000      -9999.0000
      -9999.0000      -9999.0000      -9999.0000      -9999.0000      -9999.0000
      -9999.0000      -9999.0000      -9999.0000      -9999.0000      -9999.0000
      -9999.0000      -9999.0000      -9999.0000      -9999.0000      -9999.0000
      -9999.0000      -9999.0000      -9999.0000      -9999.0000      -9999.0000
      -9999.0000      -9999.0000      -9999.0000      -9999.0000      -9999.0000
      -9999.0000      -9999.0000      -9999.0000      -9999.0000      -9999.0000
      -9999.0000      -9999.0000      -9999.0000      -9999.0000      -9999.0000
      -9999.0000      -9999.0000      -9999.0000      -9999.0000      -9999.0000
      -9999.0000      -9999.0000      -9999.0000      -9999.0000      -9999.0000
      -9999.0000      -9999.0000      -9999.0000      -9999.0000      -9999.0000
      -9999.0000      -9999.0000      -9999.0000      -9999.0000      -9999.0000
      -9999.0000      -9999.0000      -9999.0000      -9999.0000      -9999.0000
      -9999.0000      -9999.0000      -9999.0000      -9999.0000      -9999.0000
      -9999.0000      -9999.0000      -9999.0000      -9999.0000      -9999.0000
      -9999.0000      -9999.0000      -9999.0000      -9999.0000      -9999.0000
      -9999.0000      -9999.0000      -9999.0000      -9999.0000      -9999.0000
      -9999.0000      -9999.0000      -9999.0000      -9999.0000      -9999.0000
      -9999.0000      -9999.0000      -9999.0000      -9999.0000      -9999.0000
      -9999.0000      -9999.0000      -9999.0000      -9999.0000      -9999.0000
      -9999.0000      -9999.0000      -9999.0000      -9999.0000      -9999.0000
      -9999.0000      -9999.0000      -9999.0000      -9999.0000      -9999.0000
      -9999.0000      -9999.0000      -9999.0000      -9999.0000      -9999.0000
      -9999.0000      -9999.0000      -9999.0000      -9999.0000      -9999.0000
      -9999.0000      -9999.0000      -9999.0000      -9999.0000      -9999.0000
      -9999.0000      -9999.0000      -9999.0000      -9999.0000      -9999.0000
      -9999.0000      -9999.0000      -9999.0000      -9999.0000      -9999.0000
      -9999.0000      -9999.0000      -9999.0000      -9999.0000      -9999.0000
      -9999.0000      -9999.0000      -9999.0000      -9999.0000      -9999.0000
      -9999.0000      -9999.0000      -9999.0000      -9999.0000      -9999.0000
      -9999.0000      -9999.0000      -9999.0000      -9999.0000      -9999.0000
      -9999.0000      -9999.0000      -9999.0000      -9999.0000      -9999.0000
      -9999.0000      -9999.0000      -9999.0000      -9999.0000      -9999.0000
      -9999.0000      -9999.0000      -9999.0000      -9999.0000      -9999.0000
      -9999.0000      -9999.0000      -9999.0000      -9999.0000      -9999.0000
      -9999.0000      -9999.0000      -9999.0000      -9999.0000      -9999.0000
      -9999.0000      -9999.0000      -9999.0000      -9999.0000      -9999.0000
      -9999.0000      -9999.0000      -9999.0000      -9999.0000      -9999.0000
      -9999.0000      -9999.0000      -9999.0000      -9999.0000      -9999.0000
      -9999.0000      -9999.0000      -9999.0000      -9999.0000      -9999.0000
      -9999.0000      -9999.0000      -9999.0000      -9999.0000      -9999.0000
      -9999.0000      -9999.0000      -9999.0000      -9999.0000      -9999.0000
      -9999.0000      -9999.0000      -9999.0000      -9999.0000      -9999.0000
      -9999.0000      -9999.0000      -9999.0000      -9999.0000      -9999.0000
      -9999.0000      -9999.0000      -9999.0000      -9999.0000      -9999.0000
      -9999.0000      -9999.0000      -9999.0000      -9999.0000      -9999.0000
      -9999.0000      -9999.0000      -9999.0000      -9999.0000      -9999.0000
      -9999.0000      -9999.0000      -9999.0000      -9999.0000      -9999.0000
      -9999.0000      -9999.0000      -9999.0000      -9999.0000      -9999.0000
      -9999.0000      -9999.0000      -9999.0000      -9999.0000      -9999.0000
      -9999.0000      -9999.0000      -9999.0000      -9999.0000      -9999.0000
      -9999.0000      -9999.0000      -9999.0000      -9999.0000      -9999.0000
      -9999.0000      -9999.0000      -9999.0000      -9999.0000      -9999.0000
      -9999.0000      -9999.0000      -9999.0000      -9999.0000      -9999.0000
      -9999.0000      -9999.0000      -9999.0000      -9999.0000      -9999.0000
      -9999.0000      -9999.0000      -9999.0000      -9999.0000      -9999.0000
      -9999.0000      -9999.0000      -9999.0000      -9999.0000      -9999.0000
      -9999.0000      -9999.0000      -9999.0000      -9999.0000      -9999.0000
      -9999.0000      -9999.0000      -9999.0000      -9999.0000      -9999.0000
      -9999.0000      -9999.0000      -9999.0000      -9999.0000      -9999.0000
      -9999.0000      -9999.0000      -9999.0000      -9999.0000      -9999.0000
      -9999.0000      -9999.0000      -9999.0000      -9999.0000      -9999.0000
      -9999.0000      -9999.0000      -9999.0000      -9999.0000      -9999.0000
      -9999.0000      -9999.0000      -9999.0000      -9999.0000      -9999.0000
      -9999.0000      -9999.0000      -9999.0000      -9999.0000      -9999.0000
      -9999.0000      -9999.0000      -9999.0000      -9999.0000      -9999.0000
      -9999.0000      -9999.0000      -9999.0000      -9999.0000      -9999.0000
      -9999.0000      -9999.0000      -9999.0000      -9999.0000      -9999.0000
      -9999.0000      -9999.0000      -9999.0000      -9999.0000      -9999.0000
      -9999.0000      -9999.0000      -9999.0000      -9999.0000      -9999.0000
      -9999.0000      -9999.0000      -9999.0000      -9999.0000      -9999.0000
      -9999.0000      -9999.0000      -9999.0000      -9999.0000      -9999.0000
      -9999.0000      -9999.0000      -9999.0000      -9999.0000      -9999.0000
      -9999.0000      -9999.0000      -9999.0000      -9999.0000      -9999.0000
      -9999.0000      -9999.0000      -9999.0000      -9999.0000      -9999.0000
      -9999.0000      -9999.0000      -9999.0000      -9999.0000      -9999.0000
      -9999.0000      -9999.0000      -9999.0000      -9999.0000      -9999.0000
      -9999.0000      -9999.0000      -9999.0000      -9999.0000      -9999.0000
      -9999.0000      -9999.0000      -9999.0000      -9999.0000      -9999.0000
      -9999.0000      -9999.0000      -9999.0000      -9999.0000      -9999.0000
      -9999.0000      -9999.0000      -9999.0000      -9999.0000      -9999.0000
      -9999.0000      -9999.0000      -9999.0000      -9999.0000      -9999.0000
      -9999.0000      -9999.0000      -9999.0000      -9999.0000      -9999.0000
      -9999.0000      -9999.0000      -9999.0000      -9999.0000      -9999.0000
      -9999.0000      -9999.0000      -9999.0000      -9999.0000      -9999.0000
      -9999.0000      -9999.0000      -9999.0000      -9999.0000      -9999.0000
      -9999.0000      -9999.0000      -9999.0000      -9999.0000      -9999.0000
      -9999.0000      -9999.0000      -9999.0000      -9999.0000      -9999.0000
      -9999.0000      -9999.0000      -9999.0000      -9999.0000      -9999.0000
      -9999.0000      -9999.0000      -9999.0000      -9999.0000      -9999.0000
      -9999.0000      -9999.0000      -9999.0000      -9999.0000      -9999.0000
      -9999.0000      -9999.0000      -9999.0000      -9999.0000      -9999.0000
      -9999.0000      -9999.0000      -9999.0000      -9999.0000      -9999.0000
      -9999.0000      -9999.0000      -9999.0000      -9999.0000      -9999.0000
      -9999.0000      -9999.0000      -9999.0000      -9999.0000      -9999.0000
      -9999.0000      -9999.0000      -9999.0000      -9999.0000      -9999.0000
      -9999.0000      -9999.0000      -9999.0000      -9999.0000      -9999.0000
      -9999.0000      -9999.0000      -9999.0000      -9999.0000      -9999.0000
      -9999.0000      -9999.0000      -9999.0000      -9999.0000      -9999.0000
      -9999.0000      -9999.0000      -9999.0000      -9999.0000      -9999.0000
      -9999.0000      -9999.0000      -9999.0000      -9999.0000      -9999.0000
      -9999.0000      -9999.0000      -9999.0000      -9999.0000      -9999.0000
      -9999.0000      -9999.0000      -9999.0000      -9999.0000      -9999.0000
      -9999.0000      -9999.0000      -9999.0000      -9999.0000      -9999.0000
      -9999.0000      -9999.0000      -9999.0000      -9999.0000      -9999.0000
      -9999.0000      -9999.0000      -9999.0000      -9999.0000      -9999.0000
      -9999.0000      -9999.0000      -9999.0000      -9999.0000      -9999.0000
      -9999.0000      -9999.0000      -9999.0000      -9999.0000      -9999.0000
      -9999.0000      -9999.0000      -9999.0000      -9999.0000      -9999.0000
      -9999.0000      -9999.0000      -9999.0000      -9999.0000      -9999.0000
      -9999.0000      -9999.0000      -9999.0000      -9999.0000      -9999.0000
      -9999.0000      -9999.0000      -9999.0000      -9999.0000      -9999.0000
      -9999.0000      -9999.0000      -9999.0000      -9999.0000      -9999.0000
      -9999.0000      -9999.0000      -9999.0000      -9999.0000      -9999.0000
      -9999.0000      -9999.0000      -9999.0000      -9999.0000      -9999.0000
      -9999.0000      -9999.0000      -9999.0000      -9999.0000      -9999.0000
      -9999.0000      -9999.0000      -9999.0000      -9999.0000      -9999.0000
      -9999.0000      -9999.0000      -9999.0000      -9999.0000      -9999.0000
      -9999.0000      -9999.0000      -9999.0000      -9999.0000      -9999.0000
      -9999.0000      -9999.0000      -9999.0000      -9999.0000      -9999.0000
      -9999.0000      -9999.0000      -9999.0000      -9999.0000      -9999.0000
      -9999.0000      -9999.0000      -9999.0000      -9999.0000      -9999.0000
      -9999.0000      -9999.0000      -9999.0000      -9999.0000      -9999.0000
      -9999.0000      -9999.0000      -9999.0000      -9999.0000      -9999.0000
      -9999.0000      -9999.0000      -9999.0000      -9999.0000      -9999.0000
      -9999.0000      -9999.0000      -9999.0000      -9999.0000      -9999.0000
      -9999.0000      -9999.0000      -9999.0000      -9999.0000      -9999.0000
      -9999.0000      -9999.0000      -9999.0000      -9999.0000      -9999.0000
      -9999.0000      -9999.0000      -9999.0000      -9999.0000      -9999.0000
      -9999.0000      -9999.0000      -9999.0000      -9999.0000      -9999.0000
      -9999.0000      -9999.0000      -9999.0000      -9999.0000      -9999.0000
      -9999.0000      -9999.0000      -9999.0000      -9999.0000      -9999.0000
      -9999.0000      -9999.0000      -9999.0000      -9999.0000      -9999.0000
      -9999.0000      -9999.0000      -9999.0000      -9999.0000      -9999.0000
      -9999.0000      -9999.0000      -9999.0000      -9999.0000      -9999.0000
      -9999.0000      -9999.0000      -9999.0000      -9999.0000      -9999.0000
      -9999.0000      -9999.0000      -9999.0000      -9999.0000      -9999.0000
      -9999.0000      -9999.0000      -9999.0000      -9999.0000      -9999.0000
      -9999.0000      -9999.0000      -9999.0000      -9999.0000      -9999.0000
      -9999.0000      -9999.0000      -9999.0000      -9999.0000      -9999.0000
      -9999.0000      -9999.0000      -9999.0000      -9999.0000      -9999.0000
      -9999.0000      -9999.0000      -9999.0000      -9999.0000      -9999.0000
      -9999.0000      -9999.0000      -9999.0000      -9999.0000      -9999.0000
      -9999.0000      -9999.0000      -9999.0000      -9999.0000      -9999.0000
      -9999.0000      -9999.0000      -9999.0000      -9999.0000      -9999.0000
      -9999.0000      -9999.0000      -9999.0000      -9999.0000      -9999.0000
      -9999.0000      -9999.0000      -9999.0000      -9999.0000      -9999.0000
      -9999.0000      -9999.0000      -9999.0000      -9999.0000      -9999.0000
      -9999.0000      -9999.0000      -9999.0000      -9999.0000      -9999.0000
      -9999.0000      -9999.0000      -9999.0000      -9999.0000      -9999.0000
      -9999.0000      -9999.0000      -9999.0000      -9999.0000      -9999.0000
      -9999.0000      -9999.0000      -9999.0000      -9999.0000      -9999.0000
      -9999.0000      -9999.0000      -9999.0000      -9999.0000      -9999.0000
      -9999.0000      -9999.0000      -9999.0000      -9999.0000      -9999.0000
      -9999.0000      -9999.0000      -9999.0000      -9999.0000      -9999.0000
      -9999.0000      -9999.0000      -9999.0000      -9999.0000      -9999.0000
      -9999.0000      -9999.0000      -9999.0000      -9999.0000      -9999.0000
      -9999.0000      -9999.0000      -9999.0000      -9999.0000      -9999.0000
      -9999.0000      -9999.0000      -9999.0000      -9999.0000      -9999.0000
      -9999.0000      -9999.0000      -9999.0000      -9999.0000      -9999.0000
      -9999.0000      -9999.0000      -9999.0000      -9999.0000      -9999.0000
      -9999.0000      -9999.0000      -9999.0000      -9999.0000      -9999.0000
      -9999.0000      -9999.0000      -9999.0000      -9999.0000      -9999.0000
      -9999.0000      -9999.0000      -9999.0000      -9999.0000      -9999.0000
      -9999.0000      -9999.0000      -9999.0000      -9999.0000      -9999.0000
      -9999.0000      -9999.0000      -9999.0000      -9999.0000      -9999.0000
      -9999.0000      -9999.0000      -9999.0000      -9999.0000      -9999.0000
      -9999.0000      -9999.0000      -9999.0000      -9999.0000      -9999.0000
      -9999.0000      -9999.0000      -9999.0000      -9999.0000      -9999.0000
      -9999.0000      -9999.0000      -9999.0000      -9999.0000      -9999.0000
      -9999.0000      -9999.0000      -9999.0000      -9999.0000      -9999.0000
      -9999.0000      -9999.0000      -9999.0000      -9999.0000      -9999.0000
      -9999.0000      -9999.0000      -9999.0000      -9999.0000      -9999.0000
      -9999.0000      -9999.0000      -9999.0000      -9999.0000      -9999.0000
      -9999.0000      -9999.0000      -9999.0000      -9999.0000      -9999.0000
      -9999.0000      -9999.0000      -9999.0000      -9999.0000      -9999.0000
      -9999.0000      -9999.0000      -9999.0000      -9999.0000      -9999.0000
      -9999.0000      -9999.0000      -9999.0000      -9999.0000      -9999.0000
      -9999.0000      -9999.0000      -9999.0000      -9999.0000      -9999.0000
      -9999.0000      -9999.0000      -9999.0000      -9999.0000      -9999.0000
      -9999.0000      -9999.0000      -9999.0000      -9999.0000      -9999.0000
      -9999.0000      -9999.0000      -9999.0000      -9999.0000      -9999.0000
      -9999.0000      -9999.0000      -9999.0000      -9999.0000      -9999.0000
      -9999.0000      -9999.0000      -9999.0000      -9999.0000      -9999.0000
      -9999.0000      -9999.0000      -9999.0000      -9999.0000      -9999.0000
      -9999.0000      -9999.0000      -9999.0000      -9999.0000      -9999.0000
      -9999.0000      -9999.0000      -9999.0000      -9999.0000      -9999.0000
      -9999.0000      -9999.0000      -9999.0000      -9999.0000      -9999.0000
      -9999.0000      -9999.0000      -9999.0000      -9999.0000      -9999.0000
      -9999.0000      -9999.0000      -9999.0000      -9999.0000      -9999.0000
      -9999.0000      -9999.0000      -9999.0000      -9999.0000      -9999.0000
      -9999.0000      -9999.0000      -9999.0000      -9999.0000      -9999.0000
      -9999.0000      -9999.0000      -9999.0000      -9999.0000      -9999.0000
      -9999.0000      -9999.0000      -9999.0000      -9999.0000      -9999.0000
      -9999.0000      -9999.0000      -9999.0000      -9999.0000      -9999.0000
      -9999.0000      -9999.0000      -9999.0000      -9999.0000      -9999.0000
      -9999.0000      -9999.0000      -9999.0000      -9999.0000      -9999.0000
      -9999.0000      -9999.0000      -9999.0000      -9999.0000      -9999.0000
      -9999.0000      -9999.0000      -9999.0000      -9999.0000      -9999.0000
      -9999.0000      -9999.0000      -9999.0000      -9999.0000      -9999.0000
      -9999.0000      -9999.0000      -9999.0000      -9999.0000      -9999.0000
      -9999.0000      -9999.0000      -9999.0000      -9999.0000      -9999.0000
      -9999.0000      -9999.0000      -9999.0000      -9999.0000      -9999.0000
      -9999.0000      -9999.0000      -9999.0000      -9999.0000      -9999.0000
      -9999.0000      -9999.0000      -9999.0000      -9999.0000      -9999.0000
      -9999.0000      -9999.0000      -9999.0000      -9999.0000      -9999.0000
      -9999.0000      -9999.0000      -9999.0000      -9999.0000      -9999.0000
      -9999.0000      -9999.0000      -9999.0000      -9999.0000      -9999.0000
      -9999.0000      -9999.0000      -9999.0000      -9999.0000      -9999.0000
      -9999.0000      -9999.0000      -9999.0000      -9999.0000      -9999.0000
      -9999.0000      -9999.0000      -9999.0000      -9999.0000      -9999.0000
      -9999.0000      -9999.0000      -9999.0000      -9999.0000      -9999.0000
      -9999.0000      -9999.0000      -9999.0000      -9999.0000      -9999.0000
      -9999.0000      -9999.0000      -9999.0000      -9999.0000      -9999.0000
      -9999.0000      -9999.0000      -9999.0000      -9999.0000      -9999.0000
      -9999.0000      -9999.0000      -9999.0000      -9999.0000      -9999.0000
      -9999.0000      -9999.0000      -9999.0000      -9999.0000      -9999.0000
      -9999.0000      -9999.0000      -9999.0000      -9999.0000      -9999.0000
      -9999.0000      -9999.0000      -9999.0000      -9999.0000      -9999.0000
      -9999.0000      -9999.0000      -9999.0000      -9999.0000      -9999.0000
      -9999.0000      -9999.0000      -9999.0000      -9999.0000      -9999.0000
      -9999.0000      -9999.0000      -9999.0000      -9999.0000      -9999.0000
      -9999.0000      -9999.0000      -9999.0000      -9999.0000      -9999.0000
      -9999.0000      -9999.0000      -9999.0000      -9999.0000      -9999.0000
      -9999.0000      -9999.0000      -9999.0000      -9999.0000      -9999.0000
      -9999.0000      -9999.0000      -9999.0000      -9999.0000      -9999.0000
      -9999.0000      -9999.0000      -9999.0000      -9999.0000      -9999.0000
      -9999.0000      -9999.0000      -9999.0000      -9999.0000      -9999.0000
      -9999.0000      -9999.0000      -9999.0000      -9999.0000      -9999.0000
      -9999.0000      -9999.0000      -9999.0000      -9999.0000      -9999.0000
      -9999.0000      -9999.0000      -9999.0000      -9999.0000      -9999.0000
      -9999.0000      -9999.0000      -9999.0000      -9999.0000      -9999.0000
      -9999.0000      -9999.0000      -9999.0000      -9999.0000      -9999.0000
      -9999.0000      -9999.0000      -9999.0000      -9999.0000      -9999.0000
      -9999.0000      -9999.0000      -9999.0000      -9999.0000      -9999.0000
      -9999.0000      -9999.0000      -9999.0000      -9999.0000      -9999.0000
      -9999.0000      -9999.0000      -9999.0000      -9999.0000      -9999.0000
      -9999.0000      -9999.0000      -9999.0000      -9999.0000      -9999.0000
      -9999.0000      -9999.0000      -9999.0000      -9999.0000      -9999.0000
      -9999.0000      -9999.0000      -9999.0000      -9999.0000      -9999.0000
      -9999.0000      -9999.0000      -9999.0000      -9999.0000      -9999.0000
      -9999.0000      -9999.0000      -9999.0000      -9999.0000      -9999.0000
      -9999.0000      -9999.0000      -9999.0000      -9999.0000      -9999.0000
      -9999.0000      -9999.0000      -9999.0000      -9999.0000      -9999.0000
      -9999.0000      -9999.0000      -9999.0000      -9999.0000      -9999.0000
      -9999.0000      -9999.0000      -9999.0000      -9999.0000      -9999.0000
      -9999.0000      -9999.0000      -9999.0000      -9999.0000      -9999.0000
      -9999.0000      -9999.0000      -9999.0000      -9999.0000      -9999.0000
      -9999.0000      -9999.0000      -9999.0000      -9999.0000      -9999.0000
      -9999.0000      -9999.0000      -9999.0000      -9999.0000      -9999.0000
      -9999.0000      -9999.0000      -9999.0000      -9999.0000      -9999.0000
      -9999.0000      -9999.0000      -9999.0000      -9999.0000      -9999.0000
      -9999.0000      -9999.0000      -9999.0000      -9999.0000      -9999.0000
      -9999.0000      -9999.0000      -9999.0000      -9999.0000      -9999.0000
      -9999.0000      -9999.0000      -9999.0000      -9999.0000      -9999.0000
      -9999.0000      -9999.0000      -9999.0000      -9999.0000      -9999.0000
      -9999.0000      -9999.0000      -9999.0000      -9999.0000      -9999.0000
      -9999.0000      -9999.0000      -9999.0000      -9999.0000      -9999.0000
      -9999.0000      -9999.0000      -9999.0000      -9999.0000      -9999.0000
      -9999.0000      -9999.0000      -9999.0000      -9999.0000      -9999.0000
      -9999.0000      -9999.0000      -9999.0000      -9999.0000      -9999.0000
      -9999.0000      -9999.0000      -9999.0000      -9999.0000      -9999.0000
      -9999.0000      -9999.0000      -9999.0000      -9999.0000      -9999.0000
      -9999.0000      -9999.0000      -9999.0000      -9999.0000      -9999.0000
      -9999.0000      -9999.0000      -9999.0000      -9999.0000      -9999.0000
      -9999.0000      -9999.0000      -9999.0000      -9999.0000      -9999.0000
      -9999.0000      -9999.0000      -9999.0000      -9999.0000      -9999.0000
      -9999.0000      -9999.0000      -9999.0000      -9999.0000      -9999.0000
      -9999.0000      -9999.0000      -9999.0000      -9999.0000      -9999.0000
      -9999.0000      -9999.0000      -9999.0000      -9999.0000      -9999.0000
      -9999.0000      -9999.0000      -9999.0000      -9999.0000      -9999.0000
      -9999.0000      -9999.0000      -9999.0000      -9999.0000      -9999.0000
      -9999.0000      -9999.0000      -9999.0000      -9999.0000      -9999.0000
      -9999.0000      -9999.0000      -9999.0000      -9999.0000      -9999.0000
      -9999.0000      -9999.0000      -9999.0000      -9999.0000      -9999.0000
      -9999.0000      -9999.0000      -9999.0000      -9999.0000      -9999.0000
      -9999.0000      -9999.0000      -9999.0000      -9999.0000      -9999.0000
      -9999.0000      -9999.0000      -9999.0000      -9999.0000      -9999.0000
      -9999.0000      -9999.0000      -9999.0000      -9999.0000      -9999.0000
      -9999.0000      -9999.0000      -9999.0000      -9999.0000      -9999.0000
      -9999.0000      -9999.0000      -9999.0000      -9999.0000      -9999.0000
      -9999.0000      -9999.0000      -9999.0000      -9999.0000      -9999.0000
      -9999.0000      -9999.0000      -9999.0000      -9999.0000      -9999.0000
      -9999.0000      -9999.0000      -9999.0000      -9999.0000      -9999.0000
      -9999.0000      -9999.0000      -9999.0000      -9999.0000      -9999.0000
      -9999.0000      -9999.0000      -9999.0000      -9999.0000      -9999.0000
      -9999.0000      -9999.0000      -9999.0000      -9999.0000      -9999.0000
      -9999.0000      -9999.0000      -9999.0000      -9999.0000      -9999.0000
      -9999.0000      -9999.0000      -9999.0000      -9999.0000      -9999.0000
      -9999.0000      -9999.0000      -9999.0000      -9999.0000      -9999.0000
      -9999.0000      -9999.0000      -9999.0000      -9999.0000      -9999.0000
      -9999.0000      -9999.0000      -9999.0000      -9999.0000      -9999.0000
      -9999.0000      -9999.0000      -9999.0000      -9999.0000      -9999.0000
      -9999.0000      -9999.0000      -9999.0000      -9999.0000      -9999.0000
      -9999.0000      -9999.0000      -9999.0000      -9999.0000      -9999.0000
      -9999.0000      -9999.0000      -9999.0000      -9999.0000      -9999.0000
      -9999.0000      -9999.0000      -9999.0000      -9999.0000      -9999.0000
      -9999.0000      -9999.0000      -9999.0000      -9999.0000      -9999.0000
      -9999.0000      -9999.0000      -9999.0000      -9999.0000      -9999.0000
      -9999.0000      -9999.0000      -9999.0000      -9999.0000      -9999.0000
      -9999.0000      -9999.0000      -9999.0000      -9999.0000      -9999.0000
      -9999.0000      -9999.0000      -9999.0000      -9999.0000      -9999.0000
      -9999.0000      -9999.0000      -9999.0000      -9999.0000      -9999.0000
      -9999.0000      -9999.0000      -9999.0000      -9999.0000      -9999.0000
      -9999.0000      -9999.0000      -9999.0000      -9999.0000      -9999.0000
      -9999.0000      -9999.0000      -9999.0000      -9999.0000      -9999.0000
      -9999.0000      -9999.0000      -9999.0000      -9999.0000      -9999.0000
      -9999.0000      -9999.0000      -9999.0000      -9999.0000      -9999.0000
      -9999.0000      -9999.0000      -9999.0000      -9999.0000      -9999.0000
      -9999.0000      -9999.0000      -9999.0000      -9999.0000      -9999.0000
      -9999.0000      -9999.0000      -9999.0000      -9999.0000      -9999.0000
      -9999.0000      -9999.0000      -9999.0000      -9999.0000      -9999.0000
      -9999.0000      -9999.0000      -9999.0000      -9999.0000      -9999.0000
      -9999.0000      -9999.0000      -9999.0000      -9999.0000      -9999.0000
      -9999.0000      -9999.0000      -9999.0000      -9999.0000      -9999.0000
      -9999.0000      -9999.0000      -9999.0000      -9999.0000      -9999.0000
      -9999.0000      -9999.0000      -9999.0000      -9999.0000      -9999.0000
      -9999.0000      -9999.0000      -9999.0000      -9999.0000      -9999.0000
      -9999.0000      -9999.0000      -9999.0000      -9999.0000      -9999.0000
      -9999.0000      -9999.0000      -9999.0000      -9999.0000      -9999.0000
      -9999.0000      -9999.0000      -9999.0000      -9999.0000      -9999.0000
      -9999.0000      -9999.0000      -9999.0000      -9999.0000      -9999.0000
      -9999.0000      -9999.0000      -9999.0000      -9999.0000      -9999.0000
      -9999.0000      -9999.0000      -9999.0000      -9999.0000      -9999.0000
      -9999.0000      -9999.0000      -9999.0000      -9999.0000      -9999.0000
      -9999.0000      -9999.0000      -9999.0000      -9999.0000      -9999.0000
      -9999.0000      -9999.0000      -9999.0000      -9999.0000      -9999.0000
      -9999.0000      -9999.0000      -9999.0000      -9999.0000      -9999.0000
      -9999.0000      -9999.0000      -9999.0000      -9999.0000      -9999.0000
      -9999.0000      -9999.0000      -9999.0000      -9999.0000      -9999.0000
      -9999.0000      -9999.0000      -9999.0000      -9999.0000      -9999.0000
      -9999.0000      -9999.0000      -9999.0000      -9999.0000      -9999.0000
      -9999.0000      -9999.0000      -9999.0000      -9999.0000      -9999.0000
      -9999.0000      -9999.0000      -9999.0000      -9999.0000      -9999.0000
      -9999.0000      -9999.0000      -9999.0000      -9999.0000      -9999.0000
      -9999.0000      -9999.0000      -9999.0000      -9999.0000      -9999.0000
      -9999.0000      -9999.0000      -9999.0000      -9999.0000      -9999.0000
      -9999.0000      -9999.0000      -9999.0000      -9999.0000      -9999.0000
      -9999.0000      -9999.0000      -9999.0000      -9999.0000      -9999.0000
      -9999.0000      -9999.0000      -9999.0000      -9999.0000      -9999.0000
      -9999.0000      -9999.0000      -9999.0000      -9999.0000      -9999.0000
      -9999.0000      -9999.0000      -9999.0000      -9999.0000      -9999.0000
      -9999.0000      -9999.0000      -9999.0000      -9999.0000      -9999.0000
      -9999.0000      -9999.0000      -9999.0000      -9999.0000      -9999.0000
      -9999.0000      -9999.0000      -9999.0000      -9999.0000      -9999.0000
      -9999.0000      -9999.0000      -9999.0000      -9999.0000      -9999.0000
      -9999.0000      -9999.0000      -9999.0000      -9999.0000      -9999.0000
      -9999.0000      -9999.0000      -9999.0000      -9999.0000      -9999.0000
      -9999.0000      -9999.0000      -9999.0000      -9999.0000      -9999.0000
      -9999.0000      -9999.0000      -9999.0000      -9999.0000      -9999.0000
      -9999.0000      -9999.0000      -9999.0000      -9999.0000      -9999.0000
      -9999.0000      -9999.0000      -9999.0000      -9999.0000      -9999.0000
      -9999.0000      -9999.0000      -9999.0000      -9999.0000      -9999.0000
      -9999.0000      -9999.0000      -9999.0000      -9999.0000      -9999.0000
      -9999.0000      -9999.0000      -9999.0000      -9999.0000      -9999.0000
      -9999.0000      -9999.0000      -9999.0000      -9999.0000      -9999.0000
      -9999.0000      -9999.0000      -9999.0000      -9999.0000      -9999.0000
      -9999.0000      -9999.0000      -9999.0000      -9999.0000      -9999.0000
      -9999.0000      -9999.0000      -9999.0000      -9999.0000      -9999.0000
      -9999.0000      -9999.0000      -9999.0000      -9999.0000      -9999.0000
      -9999.0000      -9999.0000      -9999.0000      -9999.0000      -9999.0000
      -9999.0000      -9999.0000      -9999.0000      -9999.0000      -9999.0000
      -9999.0000      -9999.0000      -9999.0000      -9999.0000      -9999.0000
      -9999.0000      -9999.0000      -9999.0000      -9999.0000      -9999.0000
      -9999.0000      -9999.0000      -9999.0000      -9999.0000      -9999.0000
      -9999.0000      -9999.0000      -9999.0000      -9999.0000      -9999.0000
      -9999.0000      -9999.0000      -9999.0000      -9999.0000      -9999.0000
      -9999.0000      -9999.0000      -9999.0000      -9999.0000      -9999.0000
      -9999.0000      -9999.0000      -9999.0000      -9999.0000      -9999.0000
      -9999.0000      -9999.0000      -9999.0000      -9999.0000      -9999.0000
      -9999.0000      -9999.0000      -9999.0000      -9999.0000      -9999.0000
      -9999.0000      -9999.0000      -9999.0000      -9999.0000      -9999.0000
      -9999.0000      -9999.0000      -9999.0000      -9999.0000      -9999.0000
      -9999.0000      -9999.0000      -9999.0000      -9999.0000      -9999.0000
      -9999.0000      -9999.0000      -9999.0000      -9999.0000      -9999.0000
      -9999.0000      -9999.0000      -9999.0000      -9999.0000      -9999.0000
      -9999.0000      -9999.0000      -9999.0000      -9999.0000      -9999.0000
      -9999.0000      -9999.0000      -9999.0000      -9999.0000      -9999.0000
      -9999.0000      -9999.0000      -9999.0000      -9999.0000      -9999.0000
      -9999.0000      -9999.0000      -9999.0000      -9999.0000      -9999.0000
      -9999.0000      -9999.0000      -9999.0000      -9999.0000      -9999.0000
      -9999.0000      -9999.0000      -9999.0000      -9999.0000      -9999.0000
      -9999.0000      -9999.0000      -9999.0000      -9999.0000      -9999.0000
      -9999.0000      -9999.0000      -9999.0000      -9999.0000      -9999.0000
      -9999.0000      -9999.0000      -9999.0000      -9999.0000      -9999.0000
      -9999.0000      -9999.0000      -9999.0000      -9999.0000      -9999.0000
      -9999.0000      -9999.0000      -9999.0000      -9999.0000      -9999.0000
      0.16203651      -9999.0000      -9999.0000      -9999.0000      -9999.0000
      -9999.0000      -9999.0000      -9999.0000      -9999.0000      -9999.0000
      -9999.0000      -9999.0000      -9999.0000      -9999.0000      -9999.0000
      -9999.0000      -9999.0000      -9999.0000      -9999.0000      -9999.0000
      -9999.0000      -9999.0000      -9999.0000      -9999.0000      -9999.0000
      -9999.0000      -9999.0000      -9999.0000      -9999.0000      -9999.0000
      -9999.0000      -9999.0000      -9999.0000      -9999.0000      -9999.0000
      -9999.0000      -9999.0000      -9999.0000      -9999.0000      -9999.0000
      -9999.0000      -9999.0000      -9999.0000      -9999.0000      -9999.0000
      -9999.0000      -9999.0000      -9999.0000      -9999.0000      -9999.0000
      -9999.0000      -9999.0000      -9999.0000      -9999.0000      -9999.0000
      -9999.0000      -9999.0000      -9999.0000      -9999.0000      -9999.0000
      -9999.0000      -9999.0000      -9999.0000      -9999.0000      -9999.0000
      -9999.0000      -9999.0000      -9999.0000      -9999.0000      -9999.0000
      -9999.0000      -9999.0000      -9999.0000      -9999.0000      -9999.0000
      -9999.0000      -9999.0000      -9999.0000      -9999.0000      -9999.0000
      -9999.0000      -9999.0000      -9999.0000      -9999.0000      -9999.0000
      -9999.0000      -9999.0000      -9999.0000      -9999.0000      -9999.0000
      -9999.0000      -9999.0000      -9999.0000      -9999.0000      -9999.0000
      -9999.0000      -9999.0000      -9999.0000      -9999.0000      -9999.0000
      -9999.0000      -9999.0000      -9999.0000      -9999.0000      -9999.0000
      -9999.0000      -9999.0000      -9999.0000       0.0000000       0.0000000
       0.0000000       0.0000000      -9999.0000      -9999.0000      -9999.0000
      -9999.0000      -9999.0000      -9999.0000      -9999.0000      -9999.0000
      -9999.0000      -9999.0000      -9999.0000      -9999.0000      -9999.0000
      -9999.0000      -9999.0000      -9999.0000      -9999.0000      -9999.0000
      -9999.0000      -9999.0000      -9999.0000      -9999.0000      -9999.0000
      -9999.0000      -9999.0000      -9999.0000      -9999.0000      -9999.0000
      -9999.0000      -9999.0000      -9999.0000      -9999.0000      -9999.0000
      -9999.0000      -9999.0000      -9999.0000      -9999.0000      -9999.0000
      -9999.0000      -9999.0000      -9999.0000      -9999.0000      -9999.0000
      -9999.0000      -9999.0000      -9999.0000      -9999.0000      -9999.0000
      -9999.0000      -9999.0000      -9999.0000      -9999.0000      -9999.0000
      -9999.0000      -9999.0000      -9999.0000      -9999.0000      -9999.0000
      -9999.0000      -9999.0000      -9999.0000      -9999.0000      -9999.0000
      -9999.0000      -9999.0000      -9999.0000      -9999.0000      -9999.0000
      -9999.0000      -9999.0000      -9999.0000      -9999.0000      -9999.0000
      -9999.0000      -9999.0000      -9999.0000      -9999.0000      -9999.0000
      -9999.0000      -9999.0000      -9999.0000      -9999.0000      -9999.0000
      -9999.0000      -9999.0000      -9999.0000      -9999.0000      -9999.0000
      -9999.0000      -9999.0000      -9999.0000      -9999.0000      -9999.0000
      -9999.0000      -9999.0000      -9999.0000      -9999.0000      -9999.0000
      -9999.0000      -9999.0000      -9999.0000      -9999.0000      -9999.0000
      -9999.0000      -9999.0000       0.0000000       0.0000000       0.0000000
       0.0000000      -9999.0000      -9999.0000      -9999.0000      -9999.0000
      -9999.0000      -9999.0000      -9999.0000      -9999.0000      -9999.0000
      -9999.0000      -9999.0000      -9999.0000      -9999.0000      -9999.0000
      -9999.0000      -9999.0000      -9999.0000      -9999.0000      -9999.0000
      -9999.0000      -9999.0000      -9999.0000      -9999.0000      -9999.0000
      -9999.0000      -9999.0000      -9999.0000      -9999.0000      -9999.0000
      -9999.0000      -9999.0000      -9999.0000      -9999.0000      -9999.0000
      -9999.0000      -9999.0000      -9999.0000      -9999.0000      -9999.0000
      -9999.0000      -9999.0000      -9999.0000      -9999.0000      -9999.0000
      -9999.0000      -9999.0000      -9999.0000      -9999.0000      -9999.0000
      -9999.0000      -9999.0000      -9999.0000      -9999.0000      -9999.0000
      -9999.0000      -9999.0000      -9999.0000      -9999.0000      -9999.0000
      -9999.0000      -9999.0000      -9999.0000      -9999.0000      -9999.0000
      -9999.0000      -9999.0000      -9999.0000      -9999.0000      -9999.0000
      -9999.0000      -9999.0000      -9999.0000      -9999.0000      -9999.0000
      -9999.0000      -9999.0000      -9999.0000      -9999.0000      -9999.0000
      -9999.0000      -9999.0000      -9999.0000      -9999.0000      -9999.0000
      -9999.0000      -9999.0000      -9999.0000      -9999.0000      -9999.0000
      -9999.0000      -9999.0000      -9999.0000      -9999.0000      -9999.0000
      -9999.0000      -9999.0000      -9999.0000      -9999.0000      -9999.0000
      -9999.0000      -9999.0000      -9999.0000      -9999.0000      -9999.0000
      -9999.0000       0.0000000       0.0000000       0.0000000      -9999.0000
      -9999.0000      -9999.0000      -9999.0000      -9999.0000      -9999.0000
      -9999.0000      -9999.0000      -9999.0000      -9999.0000      -9999.0000
      -9999.0000      -9999.0000      -9999.0000      -9999.0000      -9999.0000
      -9999.0000      -9999.0000      -9999.0000      -9999.0000      -9999.0000
      -9999.0000      -9999.0000      -9999.0000      -9999.0000      -9999.0000
      -9999.0000      -9999.0000      -9999.0000      -9999.0000      -9999.0000
      -9999.0000      -9999.0000      -9999.0000      -9999.0000      -9999.0000
      -9999.0000      -9999.0000      -9999.0000      -9999.0000      -9999.0000
      -9999.0000      -9999.0000      -9999.0000      -9999.0000      -9999.0000
      -9999.0000      -9999.0000      -9999.0000      -9999.0000      -9999.0000
      -9999.0000      -9999.0000      -9999.0000      -9999.0000      -9999.0000
      -9999.0000      -9999.0000      -9999.0000      -9999.0000      -9999.0000
      -9999.0000      -9999.0000      -9999.0000      -9999.0000      -9999.0000
      -9999.0000      -9999.0000      -9999.0000      -9999.0000      -9999.0000
      -9999.0000      -9999.0000      -9999.0000      -9999.0000      -9999.0000
      -9999.0000      -9999.0000      -9999.0000      -9999.0000      -9999.0000
      -9999.0000      -9999.0000      -9999.0000      -9999.0000      -9999.0000
      -9999.0000      -9999.0000      -9999.0000      -9999.0000      -9999.0000
      -9999.0000      -9999.0000      -9999.0000      -9999.0000      -9999.0000
      -9999.0000      -9999.0000      -9999.0000      -9999.0000      -9999.0000
      -9999.0000      -9999.0000      -9999.0000      -9999.0000      -9999.0000
       0.0000000       0.0000000       0.0000000      -9999.0000      -9999.0000
      -9999.0000      -9999.0000      -9999.0000      -9999.0000      -9999.0000
      -9999.0000      -9999.0000      -9999.0000      -9999.0000      -9999.0000
      -9999.0000      -9999.0000      -9999.0000      -9999.0000      -9999.0000
      -9999.0000      -9999.0000      -9999.0000      -9999.0000      -9999.0000
      -9999.0000      -9999.0000      -9999.0000      -9999.0000      -9999.0000
      -9999.0000      -9999.0000      -9999.0000      -9999.0000      -9999.0000
      -9999.0000      -9999.0000      -9999.0000      -9999.0000      -9999.0000
      -9999.0000      -9999.0000      -9999.0000      -9999.0000      -9999.0000
      -9999.0000      -9999.0000      -9999.0000      -9999.0000      -9999.0000
      -9999.0000      -9999.0000      -9999.0000      -9999.0000      -9999.0000
      -9999.0000      -9999.0000      -9999.0000      -9999.0000      -9999.0000
      -9999.0000      -9999.0000      -9999.0000      -9999.0000      -9999.0000
      -9999.0000      -9999.0000      -9999.0000      -9999.0000      -9999.0000
      -9999.0000      -9999.0000      -9999.0000      -9999.0000      -9999.0000
      -9999.0000      -9999.0000      -9999.0000      -9999.0000      -9999.0000
      -9999.0000      -9999.0000      -9999.0000      -9999.0000      -9999.0000
      -9999.0000      -9999.0000      -9999.0000      -9999.0000      -9999.0000
      -9999.0000      -9999.0000      -9999.0000      -9999.0000      -9999.0000
      -9999.0000      -9999.0000      -9999.0000      -9999.0000      -9999.0000
      -9999.0000      -9999.0000      -9999.0000      -9999.0000      -9999.0000
      -9999.0000      -9999.0000      -9999.0000      -9999.0000       0.0000000
       0.0000000       0.0000000       0.0000000      -9999.0000      -9999.0000
      -9999.0000      -9999.0000      -9999.0000      -9999.0000      -9999.0000
      -9999.0000      -9999.0000      -9999.0000      -9999.0000      -9999.0000
      -9999.0000      -9999.0000      -9999.0000      -9999.0000      -9999.0000
      -9999.0000      -9999.0000      -9999.0000      -9999.0000      -9999.0000
      -9999.0000      -9999.0000      -9999.0000      -9999.0000      -9999.0000
      -9999.0000      -9999.0000      -9999.0000      -9999.0000      -9999.0000
      -9999.0000      -9999.0000      -9999.0000      -9999.0000      -9999.0000
      -9999.0000      -9999.0000      -9999.0000      -9999.0000      -9999.0000
      -9999.0000      -9999.0000      -9999.0000      -9999.0000      -9999.0000
      -9999.0000      -9999.0000      -9999.0000      -9999.0000      -9999.0000
      -9999.0000      -9999.0000      -9999.0000      -9999.0000      -9999.0000
      -9999.0000      -9999.0000      -9999.0000      -9999.0000      -9999.0000
      -9999.0000      -9999.0000      -9999.0000      -9999.0000      -9999.0000
      -9999.0000      -9999.0000      -9999.0000      -9999.0000      -9999.0000
      -9999.0000      -9999.0000      -9999.0000      -9999.0000      -9999.0000
      -9999.0000      -9999.0000      -9999.0000      -9999.0000      -9999.0000
      -9999.0000      -9999.0000      -9999.0000      -9999.0000      -9999.0000
      -9999.0000      -9999.0000      -9999.0000      -9999.0000      -9999.0000
      -9999.0000      -9999.0000      -9999.0000      -9999.0000      -9999.0000
      -9999.0000      -9999.0000      -9999.0000      -9999.0000      -9999.0000
      -9999.0000      -9999.0000      -9999.0000       0.0000000       0.0000000
       0.0000000       0.0000000       0.0000000      -9999.0000      -9999.0000
      -9999.0000      -9999.0000      -9999.0000      -9999.0000      -9999.0000
      -9999.0000      -9999.0000      -9999.0000      -9999.0000      -9999.0000
      -9999.0000      -9999.0000      -9999.0000      -9999.0000      -9999.0000
      -9999.0000      -9999.0000      -9999.0000      -9999.0000      -9999.0000
      -9999.0000      -9999.0000      -9999.0000      -9999.0000      -9999.0000
      -9999.0000      -9999.0000      -9999.0000      -9999.0000      -9999.0000
      -9999.0000      -9999.0000      -9999.0000      -9999.0000      -9999.0000
      -9999.0000      -9999.0000      -9999.0000      -9999.0000      -9999.0000
      -9999.0000      -9999.0000      -9999.0000      -9999.0000      -9999.0000
      -9999.0000      -9999.0000      -9999.0000      -9999.0000      -9999.0000
      -9999.0000      -9999.0000      -9999.0000      -9999.0000      -9999.0000
      -9999.0000      -9999.0000      -9999.0000      -9999.0000      -9999.0000
      -9999.0000      -9999.0000      -9999.0000      -9999.0000      -9999.0000
      -9999.0000      -9999.0000      -9999.0000      -9999.0000      -9999.0000
      -9999.0000      -9999.0000      -9999.0000      -9999.0000      -9999.0000
      -9999.0000      -9999.0000      -9999.0000      -9999.0000      -9999.0000
      -9999.0000      -9999.0000      -9999.0000      -9999.0000      -9999.0000
      -9999.0000      -9999.0000      -9999.0000      -9999.0000      -9999.0000
      -9999.0000      -9999.0000      -9999.0000      -9999.0000      -9999.0000
      -9999.0000      -9999.0000      -9999.0000      -9999.0000      -9999.0000
      -9999.0000       0.0000000       0.0000000       0.0000000       0.0000000
       0.0000000       0.0000000      -9999.0000      -9999.0000      -9999.0000
      -9999.0000      -9999.0000      -9999.0000      -9999.0000      -9999.0000
      -9999.0000      -9999.0000      -9999.0000      -9999.0000      -9999.0000
      -9999.0000      -9999.0000      -9999.0000      -9999.0000      -9999.0000
      -9999.0000      -9999.0000      -9999.0000      -9999.0000      -9999.0000
      -9999.0000      -9999.0000      -9999.0000      -9999.0000      -9999.0000
      -9999.0000      -9999.0000      -9999.0000      -9999.0000      -9999.0000
      -9999.0000      -9999.0000      -9999.0000      -9999.0000      -9999.0000
      -9999.0000      -9999.0000      -9999.0000      -9999.0000      -9999.0000
      -9999.0000      -9999.0000      -9999.0000      -9999.0000      -9999.0000
      -9999.0000      -9999.0000      -9999.0000      -9999.0000      -9999.0000
      -9999.0000      -9999.0000      -9999.0000      -9999.0000      -9999.0000
      -9999.0000      -9999.0000      -9999.0000      -9999.0000      -9999.0000
      -9999.0000      -9999.0000      -9999.0000      -9999.0000      -9999.0000
      -9999.0000      -9999.0000      -9999.0000      -9999.0000      -9999.0000
      -9999.0000      -9999.0000      -9999.0000      -9999.0000      -9999.0000
      -9999.0000      -9999.0000      -9999.0000      -9999.0000      -9999.0000
      -9999.0000      -9999.0000      -9999.0000      -9999.0000      -9999.0000
      -9999.0000      -9999.0000      -9999.0000      -9999.0000      -9999.0000
      -9999.0000      -9999.0000      -9999.0000      -9999.0000      -9999.0000
      -9999.0000      -9999.0000      -9999.0000      -9999.0000      -9999.0000
       0.0000000       0.0000000       0.0000000       0.0000000       0.0000000
       0.0000000      -9999.0000      -9999.0000      -9999.0000      -9999.0000
      -9999.0000      -9999.0000      -9999.0000      -9999.0000      -9999.0000
      -9999.0000      -9999.0000      -9999.0000      -9999.0000      -9999.0000
      -9999.0000      -9999.0000      -9999.0000      -9999.0000      -9999.0000
      -9999.0000      -9999.0000      -9999.0000      -9999.0000      -9999.0000
      -9999.0000      -9999.0000      -9999.0000      -9999.0000      -9999.0000
      -9999.0000      -9999.0000      -9999.0000      -9999.0000      -9999.0000
      -9999.0000      -9999.0000      -9999.0000      -9999.0000      -9999.0000
      -9999.0000      -9999.0000      -9999.0000      -9999.0000      -9999.0000
      -9999.0000      -9999.0000      -9999.0000      -9999.0000      -9999.0000
      -9999.0000      -9999.0000      -9999.0000      -9999.0000      -9999.0000
      -9999.0000      -9999.0000      -9999.0000      -9999.0000      -9999.0000
      -9999.0000      -9999.0000      -9999.0000      -9999.0000      -9999.0000
      -9999.0000      -9999.0000      -9999.0000      -9999.0000      -9999.0000
      -9999.0000      -9999.0000      -9999.0000      -9999.0000      -9999.0000
      -9999.0000      -9999.0000      -9999.0000      -9999.0000      -9999.0000
      -9999.0000      -9999.0000      -9999.0000      -9999.0000      -9999.0000
      -9999.0000      -9999.0000      -9999.0000      -9999.0000      -9999.0000
      -9999.0000      -9999.0000      -9999.0000      -9999.0000      -9999.0000
      -9999.0000      -9999.0000      -9999.0000      -9999.0000      -9999.0000
      -9999.0000      -9999.0000      -9999.0000      -9999.0000       0.0000000
       0.0000000       0.0000000       0.0000000       0.0000000       0.0000000
       0.0000000      -9999.0000      -9999.0000      -9999.0000      -9999.0000
      -9999.0000      -9999.0000      -9999.0000      -9999.0000      -9999.0000
      -9999.0000      -9999.0000      -9999.0000      -9999.0000      -9999.0000
      -9999.0000      -9999.0000      -9999.0000      -9999.0000      -9999.0000
      -9999.0000      -9999.0000      -9999.0000      -9999.0000      -9999.0000
      -9999.0000      -9999.0000      -9999.0000      -9999.0000      -9999.0000
      -9999.0000      -9999.0000      -9999.0000      -9999.0000      -9999.0000
      -9999.0000      -9999.0000      -9999.0000      -9999.0000      -9999.0000
      -9999.0000      -9999.0000      -9999.0000      -9999.0000      -9999.0000
      -9999.0000      -9999.0000      -9999.0000      -9999.0000      -9999.0000
      -9999.0000      -9999.0000      -9999.0000      -9999.0000      -9999.0000
      -9999.0000      -9999.0000      -9999.0000      -9999.0000      -9999.0000
      -9999.0000      -9999.0000      -9999.0000      -9999.0000      -9999.0000
      -9999.0000      -9999.0000      -9999.0000      -9999.0000      -9999.0000
      -9999.0000      -9999.0000      -9999.0000      -9999.0000      -9999.0000
      -9999.0000      -9999.0000      -9999.0000      -9999.0000      -9999.0000
      -9999.0000      -9999.0000      -9999.0000      -9999.0000      -9999.0000
      -9999.0000      -9999.0000      -9999.0000      -9999.0000      -9999.0000
      -9999.0000      -9999.0000      -9999.0000      -9999.0000      -9999.0000
      -9999.0000      -9999.0000      -9999.0000      -9999.0000      -9999.0000
      -9999.0000      -9999.0000       0.0000000       0.0000000       0.0000000
       0.0000000       0.0000000       0.0000000       0.0000000       0.0000000
       0.0000000      -9999.0000      -9999.0000      -9999.0000      -9999.0000
      -9999.0000      -9999.0000      -9999.0000      -9999.0000      -9999.0000
      -9999.0000      -9999.0000      -9999.0000      -9999.0000      -9999.0000
      -9999.0000      -9999.0000      -9999.0000      -9999.0000      -9999.0000
      -9999.0000      -9999.0000      -9999.0000      -9999.0000      -9999.0000
      -9999.0000      -9999.0000      -9999.0000      -9999.0000      -9999.0000
      -9999.0000      -9999.0000      -9999.0000      -9999.0000      -9999.0000
      -9999.0000      -9999.0000      -9999.0000      -9999.0000      -9999.0000
      -9999.0000      -9999.0000      -9999.0000      -9999.0000      -9999.0000
      -9999.0000      -9999.0000      -9999.0000      -9999.0000      -9999.0000
      -9999.0000      -9999.0000      -9999.0000      -9999.0000      -9999.0000
      -9999.0000      -9999.0000      -9999.0000      -9999.0000      -9999.0000
      -9999.0000      -9999.0000      -9999.0000      -9999.0000      -9999.0000
      -9999.0000      -9999.0000      -9999.0000      -9999.0000      -9999.0000
      -9999.0000      -9999.0000      -9999.0000      -9999.0000      -9999.0000
      -9999.0000      -9999.0000      -9999.0000      -9999.0000      -9999.0000
      -9999.0000      -9999.0000      -9999.0000      -9999.0000      -9999.0000
      -9999.0000      -9999.0000      -9999.0000      -9999.0000      -9999.0000
      -9999.0000      -9999.0000      -9999.0000      -9999.0000      -9999.0000
      -9999.0000       0.0000000       0.0000000       0.0000000       0.0000000
       0.0000000       0.0000000       0.0000000       0.0000000       0.0000000
       0.0000000       0.0000000       0.0000000       0.0000000       0.0000000
       0.0000000      -9999.0000      -9999.0000      -9999.0000      -9999.0000
      -9999.0000      -9999.0000      -9999.0000      -9999.0000      -9999.0000
      -9999.0000      -9999.0000      -9999.0000      -9999.0000      -9999.0000
      -9999.0000      -9999.0000      -9999.0000      -9999.0000      -9999.0000
      -9999.0000      -9999.0000      -9999.0000      -9999.0000      -9999.0000
      -9999.0000      -9999.0000      -9999.0000      -9999.0000      -9999.0000
      -9999.0000      -9999.0000      -9999.0000      -9999.0000      -9999.0000
      -9999.0000      -9999.0000      -9999.0000      -9999.0000      -9999.0000
      -9999.0000      -9999.0000      -9999.0000      -9999.0000      -9999.0000
      -9999.0000      -9999.0000      -9999.0000      -9999.0000      -9999.0000
      -9999.0000      -9999.0000      -9999.0000      -9999.0000      -9999.0000
      -9999.0000      -9999.0000      -9999.0000      -9999.0000      -9999.0000
      -9999.0000      -9999.0000      -9999.0000      -9999.0000      -9999.0000
      -9999.0000      -9999.0000      -9999.0000      -9999.0000      -9999.0000
      -9999.0000      -9999.0000      -9999.0000      -9999.0000      -9999.0000
      -9999.0000      -9999.0000      -9999.0000      -9999.0000      -9999.0000
      -9999.0000      -9999.0000      -9999.0000      -9999.0000      -9999.0000
      -9999.0000      -9999.0000      -9999.0000      -9999.0000      -9999.0000
      -9999.0000      -9999.0000      -9999.0000      -9999.0000       0.0000000
       0.0000000       0.0000000       0.0000000       0.0000000       0.0000000
       0.0000000       0.0000000       0.0000000       0.0000000       0.0000000
       0.0000000       0.0000000       0.0000000       0.0000000       0.0000000
      -9999.0000      -9999.0000      -9999.0000      -9999.0000      -9999.0000
      -9999.0000      -9999.0000      -9999.0000      -9999.0000      -9999.0000
      -9999.0000      -9999.0000      -9999.0000      -9999.0000      -9999.0000
      -9999.0000      -9999.0000      -9999.0000      -9999.0000      -9999.0000
      -9999.0000      -9999.0000      -9999.0000      -9999.0000      -9999.0000
      -9999.0000      -9999.0000      -9999.0000      -9999.0000      -9999.0000
      -9999.0000      -9999.0000      -9999.0000      -9999.0000      -9999.0000
      -9999.0000      -9999.0000      -9999.0000      -9999.0000      -9999.0000
      -9999.0000      -9999.0000      -9999.0000      -9999.0000      -9999.0000
      -9999.0000      -9999.0000      -9999.0000      -9999.0000      -9999.0000
      -9999.0000      -9999.0000      -9999.0000      -9999.0000      -9999.0000
      -9999.0000      -9999.0000      -9999.0000      -9999.0000      -9999.0000
      -9999.0000      -9999.0000      -9999.0000      -9999.0000      -9999.0000
      -9999.0000      -9999.0000      -9999.0000      -9999.0000      -9999.0000
      -9999.0000      -9999.0000      -9999.0000      -9999.0000      -9999.0000
      -9999.0000      -9999.0000      -9999.0000      -9999.0000      -9999.0000
      -9999.0000      -9999.0000      -9999.0000      -9999.0000      -9999.0000
      -9999.0000      -9999.0000      -9999.0000      -9999.0000      -9999.0000
      -9999.0000      -9999.0000      -9999.0000       0.0000000       0.0000000
       0.0000000       0.0000000       0.0000000       0.0000000       0.0000000
       0.0000000       0.0000000       0.0000000       0.0000000       0.0000000
       0.0000000       0.0000000       0.0000000       0.0000000       0.0000000
      -9999.0000      -9999.0000      -9999.0000      -9999.0000      -9999.0000
      -9999.0000      -9999.0000      -9999.0000      -9999.0000      -9999.0000
      -9999.0000      -9999.0000      -9999.0000      -9999.0000      -9999.0000
      -9999.0000      -9999.0000      -9999.0000      -9999.0000      -9999.0000
      -9999.0000      -9999.0000      -9999.0000      -9999.0000      -9999.0000
      -9999.0000      -9999.0000      -9999.0000      -9999.0000      -9999.0000
      -9999.0000      -9999.0000      -9999.0000      -9999.0000      -9999.0000
      -9999.0000      -9999.0000      -9999.0000      -9999.0000      -9999.0000
      -9999.0000      -9999.0000      -9999.0000      -9999.0000      -9999.0000
      -9999.0000      -9999.0000      -9999.0000      -9999.0000      -9999.0000
      -9999.0000      -9999.0000      -9999.0000      -9999.0000      -9999.0000
      -9999.0000      -9999.0000      -9999.0000      -9999.0000      -9999.0000
      -9999.0000      -9999.0000      -9999.0000      -9999.0000      -9999.0000
      -9999.0000      -9999.0000      -9999.0000      -9999.0000      -9999.0000
      -9999.0000      -9999.0000      -9999.0000      -9999.0000      -9999.0000
      -9999.0000      -9999.0000      -9999.0000      -9999.0000      -9999.0000
      -9999.0000      -9999.0000      -9999.0000      -9999.0000      -9999.0000
      -9999.0000      -9999.0000      -9999.0000      -9999.0000      -9999.0000
       0.0000000       0.0000000       0.0000000       0.0000000       0.0000000
       0.0000000       0.0000000       0.0000000       0.0000000       0.0000000
       0.0000000       0.0000000       0.0000000       0.0000000       0.0000000
       0.0000000       0.0000000       0.0000000       0.0000000       0.0000000
      -9999.0000      -9999.0000      -9999.0000      -9999.0000      -9999.0000
      -9999.0000      -9999.0000      -9999.0000      -9999.0000      -9999.0000
      -9999.0000      -9999.0000      -9999.0000      -9999.0000      -9999.0000
      -9999.0000      -9999.0000      -9999.0000      -9999.0000      -9999.0000
      -9999.0000      -9999.0000      -9999.0000      -9999.0000      -9999.0000
      -9999.0000      -9999.0000      -9999.0000      -9999.0000      -9999.0000
      -9999.0000      -9999.0000      -9999.0000      -9999.0000      -9999.0000
      -9999.0000      -9999.0000      -9999.0000      -9999.0000      -9999.0000
      -9999.0000      -9999.0000      -9999.0000      -9999.0000      -9999.0000
      -9999.0000      -9999.0000      -9999.0000      -9999.0000      -9999.0000
      -9999.0000      -9999.0000      -9999.0000      -9999.0000      -9999.0000
      -9999.0000      -9999.0000      -9999.0000      -9999.0000      -9999.0000
      -9999.0000      -9999.0000      -9999.0000      -9999.0000      -9999.0000
      -9999.0000      -9999.0000      -9999.0000      -9999.0000      -9999.0000
      -9999.0000      -9999.0000      -9999.0000      -9999.0000      -9999.0000
      -9999.0000      -9999.0000      -9999.0000      -9999.0000      -9999.0000
      -9999.0000      -9999.0000      -9999.0000      -9999.0000      -9999.0000
      -9999.0000      -9999.0000      -9999.0000      -9999.0000       0.0000000
       0.0000000       0.0000000       0.0000000       0.0000000       0.0000000
       0.0000000       0.0000000       0.0000000       0.0000000       0.0000000
       0.0000000       0.0000000       0.0000000       0.0000000       0.0000000
       0.0000000       0.0000000       0.0000000       0.0000000      -9999.0000
      -9999.0000      -9999.0000      -9999.0000      -9999.0000      -9999.0000
      -9999.0000      -9999.0000      -9999.0000      -9999.0000      -9999.0000
      -9999.0000      -9999.0000      -9999.0000      -9999.0000      -9999.0000
      -9999.0000      -9999.0000      -9999.0000      -9999.0000      -9999.0000
      -9999.0000      -9999.0000      -9999.0000      -9999.0000      -9999.0000
      -9999.0000      -9999.0000      -9999.0000      -9999.0000      -9999.0000
      -9999.0000      -9999.0000      -9999.0000      -9999.0000      -9999.0000
      -9999.0000      -9999.0000      -9999.0000      -9999.0000      -9999.0000
      -9999.0000      -9999.0000      -9999.0000      -9999.0000      -9999.0000
      -9999.0000      -9999.0000      -9999.0000      -9999.0000      -9999.0000
      -9999.0000      -9999.0000      -9999.0000      -9999.0000      -9999.0000
      -9999.0000      -9999.0000      -9999.0000      -9999.0000      -9999.0000
      -9999.0000      -9999.0000      -9999.0000      -9999.0000      -9999.0000
      -9999.0000      -9999.0000      -9999.0000      -9999.0000      -9999.0000
      -9999.0000      -9999.0000      -9999.0000      -9999.0000      -9999.0000
      -9999.0000      -9999.0000      -9999.0000      -9999.0000      -9999.0000
      -9999.0000      -9999.0000      -9999.0000      -9999.0000      -9999.0000
      -9999.0000      -9999.0000      -9999.0000       0.0000000       0.0000000
       0.0000000       0.0000000       0.0000000       0.0000000       0.0000000
       0.0000000       0.0000000       0.0000000       0.0000000       0.0000000
       0.0000000       0.0000000       0.0000000       0.0000000       0.0000000
       0.0000000       0.0000000       0.0000000       0.0000000       0.0000000
      -9999.0000      -9999.0000      -9999.0000      -9999.0000      -9999.0000
      -9999.0000      -9999.0000      -9999.0000      -9999.0000      -9999.0000
      -9999.0000      -9999.0000      -9999.0000      -9999.0000      -9999.0000
      -9999.0000      -9999.0000      -9999.0000      -9999.0000      -9999.0000
      -9999.0000      -9999.0000      -9999.0000      -9999.0000      -9999.0000
      -9999.0000      -9999.0000      -9999.0000      -9999.0000      -9999.0000
      -9999.0000      -9999.0000      -9999.0000      -9999.0000      -9999.0000
      -9999.0000      -9999.0000      -9999.0000      -9999.0000      -9999.0000
      -9999.0000      -9999.0000      -9999.0000      -9999.0000      -9999.0000
      -9999.0000      -9999.0000      -9999.0000      -9999.0000      -9999.0000
      -9999.0000      -9999.0000      -9999.0000      -9999.0000      -9999.0000
      -9999.0000      -9999.0000      -9999.0000      -9999.0000      -9999.0000
      -9999.0000      -9999.0000      -9999.0000      -9999.0000      -9999.0000
      -9999.0000      -9999.0000      -9999.0000      -9999.0000      -9999.0000
      -9999.0000      -9999.0000      -9999.0000      -9999.0000      -9999.0000
      -9999.0000      -9999.0000      -9999.0000      -9999.0000      -9999.0000
      -9999.0000      -9999.0000      -9999.0000      -9999.0000      -9999.0000
      -9999.0000      -9999.0000      -9999.0000       0.0000000       0.0000000
       0.0000000       0.0000000       0.0000000       0.0000000       0.0000000
       0.0000000       0.0000000       0.0000000       0.0000000       0.0000000
       0.0000000       0.0000000       0.0000000       0.0000000       0.0000000
       0.0000000       0.0000000       0.0000000       0.0000000      -9999.0000
      -9999.0000      -9999.0000      -9999.0000      -9999.0000      -9999.0000
      -9999.0000      -9999.0000      -9999.0000      -9999.0000      -9999.0000
      -9999.0000      -9999.0000      -9999.0000      -9999.0000      -9999.0000
      -9999.0000      -9999.0000      -9999.0000      -9999.0000      -9999.0000
      -9999.0000      -9999.0000      -9999.0000      -9999.0000      -9999.0000
      -9999.0000      -9999.0000      -9999.0000      -9999.0000      -9999.0000
      -9999.0000      -9999.0000      -9999.0000      -9999.0000      -9999.0000
      -9999.0000      -9999.0000      -9999.0000      -9999.0000      -9999.0000
      -9999.0000      -9999.0000      -9999.0000      -9999.0000      -9999.0000
      -9999.0000      -9999.0000      -9999.0000      -9999.0000      -9999.0000
      -9999.0000      -9999.0000      -9999.0000      -9999.0000      -9999.0000
      -9999.0000      -9999.0000      -9999.0000      -9999.0000      -9999.0000
      -9999.0000      -9999.0000      -9999.0000      -9999.0000      -9999.0000
      -9999.0000      -9999.0000      -9999.0000      -9999.0000      -9999.0000
      -9999.0000      -9999.0000      -9999.0000      -9999.0000      -9999.0000
      -9999.0000      -9999.0000      -9999.0000      -9999.0000      -9999.0000
      -9999.0000      -9999.0000      -9999.0000      -9999.0000      -9999.0000
      -9999.0000       0.0000000       0.0000000       0.0000000       0.0000000
       0.0000000       0.0000000       0.0000000       0.0000000       0.0000000
       0.0000000       0.0000000       0.0000000       0.0000000       0.0000000
       0.0000000       0.0000000       0.0000000       0.0000000       0.0000000
       0.0000000       0.0000000       0.0000000      -9999.0000      -9999.0000
      -9999.0000      -9999.0000      -9999.0000      -9999.0000      -9999.0000
      -9999.0000      -9999.0000      -9999.0000      -9999.0000      -9999.0000
      -9999.0000      -9999.0000      -9999.0000      -9999.0000      -9999.0000
      -9999.0000      -9999.0000      -9999.0000      -9999.0000      -9999.0000
      -9999.0000      -9999.0000      -9999.0000      -9999.0000      -9999.0000
      -9999.0000      -9999.0000      -9999.0000      -9999.0000      -9999.0000
      -9999.0000      -9999.0000      -9999.0000      -9999.0000      -9999.0000
      -9999.0000      -9999.0000      -9999.0000      -9999.0000      -9999.0000
      -9999.0000      -9999.0000      -9999.0000      -9999.0000      -9999.0000
      -9999.0000      -9999.0000      -9999.0000      -9999.0000      -9999.0000
      -9999.0000      -9999.0000      -9999.0000      -9999.0000      -9999.0000
      -9999.0000      -9999.0000      -9999.0000      -9999.0000      -9999.0000
      -9999.0000      -9999.0000      -9999.0000      -9999.0000      -9999.0000
      -9999.0000      -9999.0000      -9999.0000      -9999.0000      -9999.0000
      -9999.0000      -9999.0000      -9999.0000      -9999.0000      -9999.0000
      -9999.0000      -9999.0000      -9999.0000      -9999.0000      -9999.0000
      -9999.0000      -9999.0000      -9999.0000      -9999.0000       0.0000000
       0.0000000       0.0000000       0.0000000       0.0000000       0.0000000
       0.0000000       0.0000000       0.0000000       0.0000000       0.0000000
       0.0000000       0.0000000       0.0000000       0.0000000       0.0000000
       0.0000000       0.0000000       0.0000000       0.0000000       0.0000000
       0.0000000       0.0000000       0.0000000      -9999.0000      -9999.0000
      -9999.0000      -9999.0000      -9999.0000      -9999.0000      -9999.0000
      -9999.0000      -9999.0000      -9999.0000      -9999.0000      -9999.0000
      -9999.0000      -9999.0000      -9999.0000      -9999.0000      -9999.0000
      -9999.0000      -9999.0000      -9999.0000      -9999.0000      -9999.0000
      -9999.0000      -9999.0000      -9999.0000      -9999.0000      -9999.0000
      -9999.0000      -9999.0000      -9999.0000      -9999.0000      -9999.0000
      -9999.0000      -9999.0000      -9999.0000      -9999.0000      -9999.0000
      -9999.0000      -9999.0000      -9999.0000      -9999.0000      -9999.0000
      -9999.0000      -9999.0000      -9999.0000      -9999.0000      -9999.0000
      -9999.0000      -9999.0000      -9999.0000      -9999.0000      -9999.0000
      -9999.0000      -9999.0000      -9999.0000      -9999.0000      -9999.0000
      -9999.0000      -9999.0000      -9999.0000      -9999.0000      -9999.0000
      -9999.0000      -9999.0000      -9999.0000      -9999.0000      -9999.0000
      -9999.0000      -9999.0000      -9999.0000      -9999.0000      -9999.0000
      -9999.0000      -9999.0000      -9999.0000      -9999.0000      -9999.0000
      -9999.0000      -9999.0000      -9999.0000      -9999.0000      -9999.0000
      -9999.0000      -9999.0000      -9999.0000       0.0000000       0.0000000
       0.0000000       0.0000000       0.0000000       0.0000000       0.0000000
       0.0000000       0.0000000       0.0000000       0.0000000       0.0000000
       0.0000000       0.0000000       0.0000000       0.0000000       0.0000000
       0.0000000       0.0000000       0.0000000      -9999.0000      -9999.0000
      -9999.0000      -9999.0000      -9999.0000      -9999.0000      -9999.0000
      -9999.0000      -9999.0000      -9999.0000      -9999.0000      -9999.0000
      -9999.0000      -9999.0000      -9999.0000      -9999.0000      -9999.0000
      -9999.0000      -9999.0000      -9999.0000      -9999.0000      -9999.0000
      -9999.0000      -9999.0000      -9999.0000      -9999.0000      -9999.0000
      -9999.0000      -9999.0000      -9999.0000      -9999.0000      -9999.0000
      -9999.0000      -9999.0000      -9999.0000      -9999.0000      -9999.0000
      -9999.0000      -9999.0000      -9999.0000      -9999.0000      -9999.0000
      -9999.0000      -9999.0000      -9999.0000      -9999.0000      -9999.0000
      -9999.0000      -9999.0000      -9999.0000      -9999.0000      -9999.0000
      -9999.0000      -9999.0000      -9999.0000      -9999.0000      -9999.0000
      -9999.0000      -9999.0000      -9999.0000      -9999.0000      -9999.0000
      -9999.0000      -9999.0000      -9999.0000      -9999.0000      -9999.0000
      -9999.0000      -9999.0000      -9999.0000      -9999.0000      -9999.0000
      -9999.0000      -9999.0000      -9999.0000      -9999.0000      -9999.0000
      -9999.0000      -9999.0000      -9999.0000      -9999.0000      -9999.0000
      -9999.0000      -9999.0000      -9999.0000      -9999.0000      -9999.0000
      -9999.0000      -9999.0000       0.0000000       0.0000000       0.0000000
       0.0000000       0.0000000       0.0000000       0.0000000       0.0000000
       0.0000000       0.0000000       0.0000000       0.0000000       0.0000000
       0.0000000       0.0000000       0.0000000       0.0000000       0.0000000
       0.0000000       0.0000000      -9999.0000      -9999.0000      -9999.0000
      -9999.0000      -9999.0000      -9999.0000      -9999.0000      -9999.0000
      -9999.0000      -9999.0000      -9999.0000      -9999.0000      -9999.0000
      -9999.0000      -9999.0000      -9999.0000      -9999.0000      -9999.0000
      -9999.0000      -9999.0000      -9999.0000      -9999.0000      -9999.0000
      -9999.0000      -9999.0000      -9999.0000      -9999.0000      -9999.0000
      -9999.0000      -9999.0000      -9999.0000      -9999.0000      -9999.0000
      -9999.0000      -9999.0000      -9999.0000      -9999.0000      -9999.0000
      -9999.0000      -9999.0000      -9999.0000      -9999.0000      -9999.0000
      -9999.0000      -9999.0000      -9999.0000      -9999.0000      -9999.0000
      -9999.0000      -9999.0000      -9999.0000      -9999.0000      -9999.0000
      -9999.0000      -9999.0000      -9999.0000      -9999.0000      -9999.0000
      -9999.0000      -9999.0000      -9999.0000      -9999.0000      -9999.0000
      -9999.0000      -9999.0000      -9999.0000      -9999.0000      -9999.0000
      -9999.0000      -9999.0000      -9999.0000      -9999.0000      -9999.0000
      -9999.0000      -9999.0000      -9999.0000      -9999.0000      -9999.0000
      -9999.0000      -9999.0000      -9999.0000      -9999.0000      -9999.0000
      -9999.0000      -9999.0000      -9999.0000      -9999.0000      -9999.0000
      -9999.0000       0.0000000       0.0000000       0.0000000       0.0000000
       0.0000000       0.0000000       0.0000000       0.0000000       0.0000000
       0.0000000       0.0000000       0.0000000       0.0000000       0.0000000
       0.0000000       0.0000000       0.0000000       0.0000000       0.0000000
       0.0000000      -9999.0000      -9999.0000      -9999.0000      -9999.0000
      -9999.0000      -9999.0000      -9999.0000      -9999.0000      -9999.0000
      -9999.0000      -9999.0000      -9999.0000      -9999.0000      -9999.0000
      -9999.0000      -9999.0000      -9999.0000      -9999.0000      -9999.0000
      -9999.0000      -9999.0000      -9999.0000      -9999.0000      -9999.0000
      -9999.0000      -9999.0000      -9999.0000      -9999.0000      -9999.0000
      -9999.0000      -9999.0000      -9999.0000      -9999.0000      -9999.0000
      -9999.0000      -9999.0000      -9999.0000      -9999.0000      -9999.0000
      -9999.0000      -9999.0000      -9999.0000      -9999.0000      -9999.0000
      -9999.0000      -9999.0000      -9999.0000      -9999.0000      -9999.0000
      -9999.0000      -9999.0000      -9999.0000      -9999.0000      -9999.0000
      -9999.0000      -9999.0000      -9999.0000      -9999.0000      -9999.0000
      -9999.0000      -9999.0000      -9999.0000      -9999.0000      -9999.0000
      -9999.0000      -9999.0000      -9999.0000      -9999.0000      -9999.0000
      -9999.0000      -9999.0000      -9999.0000      -9999.0000      -9999.0000
      -9999.0000      -9999.0000      -9999.0000      -9999.0000      -9999.0000
      -9999.0000      -9999.0000      -9999.0000      -9999.0000      -9999.0000
      -9999.0000      -9999.0000      -9999.0000      -9999.0000      -9999.0000
       0.0000000       0.0000000       0.0000000       0.0000000       0.0000000
       0.0000000       0.0000000       0.0000000       0.0000000       0.0000000
       0.0000000       0.0000000       0.0000000       0.0000000       0.0000000
       0.0000000       0.0000000       0.0000000       0.0000000       0.0000000
      -9999.0000      -9999.0000      -9999.0000      -9999.0000      -9999.0000
      -9999.0000      -9999.0000      -9999.0000      -9999.0000      -9999.0000
      -9999.0000      -9999.0000      -9999.0000      -9999.0000      -9999.0000
      -9999.0000      -9999.0000      -9999.0000      -9999.0000      -9999.0000
      -9999.0000      -9999.0000      -9999.0000      -9999.0000      -9999.0000
      -9999.0000      -9999.0000      -9999.0000      -9999.0000      -9999.0000
      -9999.0000      -9999.0000      -9999.0000      -9999.0000      -9999.0000
      -9999.0000      -9999.0000      -9999.0000      -9999.0000      -9999.0000
      -9999.0000      -9999.0000      -9999.0000      -9999.0000      -9999.0000
      -9999.0000      -9999.0000      -9999.0000      -9999.0000      -9999.0000
      -9999.0000      -9999.0000      -9999.0000      -9999.0000      -9999.0000
      -9999.0000      -9999.0000      -9999.0000      -9999.0000      -9999.0000
      -9999.0000      -9999.0000      -9999.0000      -9999.0000      -9999.0000
      -9999.0000      -9999.0000      -9999.0000      -9999.0000      -9999.0000
      -9999.0000      -9999.0000      -9999.0000      -9999.0000      -9999.0000
      -9999.0000      -9999.0000      -9999.0000      -9999.0000      -9999.0000
      -9999.0000      -9999.0000      -9999.0000      -9999.0000      -9999.0000
      -9999.0000      -9999.0000      -9999.0000      -9999.0000       0.0000000
       0.0000000       0.0000000       0.0000000       0.0000000       0.0000000
       0.0000000       0.0000000       0.0000000       0.0000000       0.0000000
       0.0000000       0.0000000       0.0000000       0.0000000       0.0000000
       0.0000000       0.0000000       0.0000000       0.0000000      -9999.0000
      -9999.0000      -9999.0000      -9999.0000      -9999.0000      -9999.0000
      -9999.0000      -9999.0000      -9999.0000      -9999.0000      -9999.0000
      -9999.0000      -9999.0000      -9999.0000      -9999.0000      -9999.0000
      -9999.0000      -9999.0000      -9999.0000      -9999.0000      -9999.0000
      -9999.0000      -9999.0000      -9999.0000      -9999.0000      -9999.0000
      -9999.0000      -9999.0000      -9999.0000      -9999.0000      -9999.0000
      -9999.0000      -9999.0000      -9999.0000      -9999.0000      -9999.0000
      -9999.0000      -9999.0000      -9999.0000      -9999.0000      -9999.0000
      -9999.0000      -9999.0000      -9999.0000      -9999.0000      -9999.0000
      -9999.0000      -9999.0000      -9999.0000      -9999.0000      -9999.0000
      -9999.0000      -9999.0000      -9999.0000      -9999.0000      -9999.0000
      -9999.0000      -9999.0000      -9999.0000      -9999.0000      -9999.0000
      -9999.0000      -9999.0000      -9999.0000      -9999.0000      -9999.0000
      -9999.0000      -9999.0000      -9999.0000      -9999.0000      -9999.0000
      -9999.0000      -9999.0000      -9999.0000      -9999.0000      -9999.0000
      -9999.0000      -9999.0000      -9999.0000      -9999.0000      -9999.0000
      -9999.0000      -9999.0000      -9999.0000      -9999.0000      -9999.0000
      -9999.0000      -9999.0000      -9999.0000       0.0000000       0.0000000
       0.0000000       0.0000000       0.0000000       0.0000000       0.0000000
       0.0000000       0.0000000       0.0000000       0.0000000       0.0000000
       0.0000000       0.0000000       0.0000000       0.0000000       0.0000000
       0.0000000       0.0000000       0.0000000       0.0000000       0.0000000
      -9999.0000      -9999.0000      -9999.0000      -9999.0000      -9999.0000
      -9999.0000      -9999.0000      -9999.0000      -9999.0000      -9999.0000
      -9999.0000      -9999.0000      -9999.0000      -9999.0000      -9999.0000
      -9999.0000      -9999.0000      -9999.0000      -9999.0000      -9999.0000
      -9999.0000      -9999.0000      -9999.0000      -9999.0000      -9999.0000
      -9999.0000      -9999.0000      -9999.0000      -9999.0000      -9999.0000
      -9999.0000      -9999.0000      -9999.0000      -9999.0000      -9999.0000
      -9999.0000      -9999.0000      -9999.0000      -9999.0000      -9999.0000
      -9999.0000      -9999.0000      -9999.0000      -9999.0000      -9999.0000
      -9999.0000      -9999.0000      -9999.0000      -9999.0000      -9999.0000
      -9999.0000      -9999.0000      -9999.0000      -9999.0000      -9999.0000
      -9999.0000      -9999.0000      -9999.0000      -9999.0000      -9999.0000
      -9999.0000      -9999.0000      -9999.0000      -9999.0000      -9999.0000
      -9999.0000      -9999.0000      -9999.0000      -9999.0000      -9999.0000
      -9999.0000      -9999.0000      -9999.0000      -9999.0000      -9999.0000
      -9999.0000      -9999.0000      -9999.0000      -9999.0000      -9999.0000
      -9999.0000      -9999.0000      -9999.0000      -9999.0000      -9999.0000
      -9999.0000      -9999.0000      -9999.0000       0.0000000       0.0000000
       0.0000000       0.0000000       0.0000000       0.0000000       0.0000000
       0.0000000       0.0000000       0.0000000       0.0000000       0.0000000
       0.0000000       0.0000000       0.0000000       0.0000000       0.0000000
       0.0000000       0.0000000       0.0000000       0.0000000      -9999.0000
      -9999.0000      -9999.0000      -9999.0000      -9999.0000      -9999.0000
      -9999.0000      -9999.0000      -9999.0000      -9999.0000      -9999.0000
      -9999.0000      -9999.0000      -9999.0000      -9999.0000      -9999.0000
      -9999.0000      -9999.0000      -9999.0000      -9999.0000      -9999.0000
      -9999.0000      -9999.0000      -9999.0000      -9999.0000      -9999.0000
      -9999.0000      -9999.0000      -9999.0000      -9999.0000      -9999.0000
      -9999.0000      -9999.0000      -9999.0000      -9999.0000      -9999.0000
      -9999.0000      -9999.0000      -9999.0000      -9999.0000      -9999.0000
      -9999.0000      -9999.0000      -9999.0000      -9999.0000      -9999.0000
      -9999.0000      -9999.0000      -9999.0000      -9999.0000      -9999.0000
      -9999.0000      -9999.0000      -9999.0000      -9999.0000      -9999.0000
      -9999.0000      -9999.0000      -9999.0000      -9999.0000      -9999.0000
      -9999.0000      -9999.0000      -9999.0000      -9999.0000      -9999.0000
      -9999.0000      -9999.0000      -9999.0000      -9999.0000      -9999.0000
      -9999.0000      -9999.0000      -9999.0000      -9999.0000      -9999.0000
      -9999.0000      -9999.0000      -9999.0000      -9999.0000      -9999.0000
      -9999.0000      -9999.0000      -9999.0000      -9999.0000      -9999.0000
      -9999.0000      -9999.0000       0.0000000       0.0000000       0.0000000
       0.0000000       0.0000000       0.0000000       0.0000000       0.0000000
       0.0000000       0.0000000       0.0000000       0.0000000       0.0000000
       0.0000000       0.0000000       0.0000000       0.0000000       0.0000000
       0.0000000       0.0000000       0.0000000       0.0000000      -9999.0000
      -9999.0000      -9999.0000      -9999.0000      -9999.0000      -9999.0000
      -9999.0000      -9999.0000      -9999.0000      -9999.0000      -9999.0000
      -9999.0000      -9999.0000      -9999.0000      -9999.0000      -9999.0000
      -9999.0000      -9999.0000      -9999.0000      -9999.0000      -9999.0000
      -9999.0000      -9999.0000      -9999.0000      -9999.0000      -9999.0000
      -9999.0000      -9999.0000      -9999.0000      -9999.0000      -9999.0000
      -9999.0000      -9999.0000      -9999.0000      -9999.0000      -9999.0000
      -9999.0000      -9999.0000      -9999.0000      -9999.0000      -9999.0000
      -9999.0000      -9999.0000      -9999.0000      -9999.0000      -9999.0000
      -9999.0000      -9999.0000      -9999.0000      -9999.0000      -9999.0000
      -9999.0000      -9999.0000      -9999.0000      -9999.0000      -9999.0000
      -9999.0000      -9999.0000      -9999.0000      -9999.0000      -9999.0000
      -9999.0000      -9999.0000      -9999.0000      -9999.0000      -9999.0000
      -9999.0000      -9999.0000      -9999.0000      -9999.0000      -9999.0000
      -9999.0000      -9999.0000      -9999.0000      -9999.0000      -9999.0000
      -9999.0000      -9999.0000      -9999.0000      -9999.0000      -9999.0000
      -9999.0000      -9999.0000      -9999.0000      -9999.0000      -9999.0000
       0.0000000       0.0000000       0.0000000       0.0000000       0.0000000
       0.0000000       0.0000000       0.0000000       0.0000000       0.0000000
       0.0000000       0.0000000       0.0000000       0.0000000       0.0000000
       0.0000000       0.0000000       0.0000000       0.0000000       0.0000000
       0.0000000       0.0000000       0.0000000       0.0000000      -9999.0000
      -9999.0000      -9999.0000      -9999.0000      -9999.0000      -9999.0000
      -9999.0000      -9999.0000      -9999.0000      -9999.0000      -9999.0000
      -9999.0000      -9999.0000      -9999.0000      -9999.0000      -9999.0000
      -9999.0000      -9999.0000      -9999.0000      -9999.0000      -9999.0000
      -9999.0000      -9999.0000      -9999.0000      -9999.0000      -9999.0000
      -9999.0000      -9999.0000      -9999.0000      -9999.0000      -9999.0000
      -9999.0000      -9999.0000      -9999.0000      -9999.0000      -9999.0000
      -9999.0000      -9999.0000      -9999.0000      -9999.0000      -9999.0000
      -9999.0000      -9999.0000      -9999.0000      -9999.0000      -9999.0000
      -9999.0000      -9999.0000      -9999.0000      -9999.0000      -9999.0000
      -9999.0000      -9999.0000      -9999.0000      -9999.0000      -9999.0000
      -9999.0000      -9999.0000      -9999.0000      -9999.0000      -9999.0000
      -9999.0000      -9999.0000      -9999.0000      -9999.0000      -9999.0000
      -9999.0000      -9999.0000      -9999.0000      -9999.0000      -9999.0000
      -9999.0000      -9999.0000      -9999.0000      -9999.0000      -9999.0000
      -9999.0000      -9999.0000      -9999.0000      -9999.0000      -9999.0000
      -9999.0000      -9999.0000      -9999.0000      -9999.0000       0.0000000
       0.0000000       0.0000000       0.0000000       0.0000000       0.0000000
       0.0000000       0.0000000       0.0000000       0.0000000       0.0000000
       0.0000000       0.0000000       0.0000000       0.0000000       0.0000000
       0.0000000       0.0000000       0.0000000       0.0000000       0.0000000
       0.0000000       0.0000000      -9999.0000      -9999.0000      -9999.0000
      -9999.0000      -9999.0000      -9999.0000      -9999.0000      -9999.0000
      -9999.0000      -9999.0000      -9999.0000      -9999.0000      -9999.0000
      -9999.0000      -9999.0000      -9999.0000      -9999.0000      -9999.0000
      -9999.0000      -9999.0000      -9999.0000      -9999.0000      -9999.0000
      -9999.0000      -9999.0000      -9999.0000      -9999.0000      -9999.0000
      -9999.0000      -9999.0000      -9999.0000      -9999.0000      -9999.0000
      -9999.0000      -9999.0000      -9999.0000      -9999.0000      -9999.0000
      -9999.0000      -9999.0000      -9999.0000      -9999.0000      -9999.0000
      -9999.0000      -9999.0000      -9999.0000      -9999.0000      -9999.0000
      -9999.0000      -9999.0000      -9999.0000      -9999.0000      -9999.0000
      -9999.0000      -9999.0000      -9999.0000      -9999.0000      -9999.0000
      -9999.0000      -9999.0000      -9999.0000      -9999.0000      -9999.0000
      -9999.0000      -9999.0000      -9999.0000      -9999.0000      -9999.0000
      -9999.0000      -9999.0000      -9999.0000      -9999.0000      -9999.0000
      -9999.0000      -9999.0000      -9999.0000      -9999.0000      -9999.0000
      -9999.0000      -9999.0000      -9999.0000      -9999.0000      -9999.0000
      -9999.0000      -9999.0000      -9999.0000       0.0000000       0.0000000
       0.0000000       0.0000000       0.0000000       0.0000000       0.0000000
       0.0000000       0.0000000       0.0000000       0.0000000       0.0000000
       0.0000000       0.0000000       0.0000000       0.0000000       0.0000000
       0.0000000       0.0000000       0.0000000       0.0000000       0.0000000
       0.0000000       0.0000000      -9999.0000      -9999.0000      -9999.0000
      -9999.0000      -9999.0000      -9999.0000      -9999.0000      -9999.0000
      -9999.0000      -9999.0000      -9999.0000      -9999.0000      -9999.0000
      -9999.0000      -9999.0000      -9999.0000      -9999.0000      -9999.0000
      -9999.0000      -9999.0000      -9999.0000      -9999.0000      -9999.0000
      -9999.0000      -9999.0000      -9999.0000      -9999.0000      -9999.0000
      -9999.0000      -9999.0000      -9999.0000      -9999.0000      -9999.0000
      -9999.0000      -9999.0000      -9999.0000      -9999.0000      -9999.0000
      -9999.0000      -9999.0000      -9999.0000      -9999.0000      -9999.0000
      -9999.0000      -9999.0000      -9999.0000      -9999.0000      -9999.0000
      -9999.0000      -9999.0000      -9999.0000      -9999.0000      -9999.0000
      -9999.0000      -9999.0000      -9999.0000      -9999.0000      -9999.0000
      -9999.0000      -9999.0000      -9999.0000      -9999.0000      -9999.0000
      -9999.0000      -9999.0000      -9999.0000      -9999.0000      -9999.0000
      -9999.0000      -9999.0000      -9999.0000      -9999.0000      -9999.0000
      -9999.0000      -9999.0000      -9999.0000      -9999.0000      -9999.0000
      -9999.0000      -9999.0000      -9999.0000      -9999.0000      -9999.0000
      -9999.0000       0.0000000       0.0000000    0.0071821127     0.022364945
    0.0095585260       0.0000000       0.0000000       0.0000000       0.0000000
       0.0000000       0.0000000       0.0000000       0.0000000       0.0000000
       0.0000000       0.0000000       0.0000000       0.0000000       0.0000000
       0.0000000       0.0000000       0.0000000       0.0000000       0.0000000
       0.0000000       0.0000000      -9999.0000      -9999.0000      -9999.0000
      -9999.0000      -9999.0000      -9999.0000      -9999.0000      -9999.0000
      -9999.0000      -9999.0000      -9999.0000      -9999.0000      -9999.0000
      -9999.0000      -9999.0000      -9999.0000      -9999.0000      -9999.0000
      -9999.0000      -9999.0000      -9999.0000      -9999.0000      -9999.0000
      -9999.0000      -9999.0000      -9999.0000      -9999.0000      -9999.0000
      -9999.0000      -9999.0000      -9999.0000      -9999.0000      -9999.0000
      -9999.0000      -9999.0000      -9999.0000      -9999.0000      -9999.0000
      -9999.0000      -9999.0000      -9999.0000      -9999.0000      -9999.0000
      -9999.0000      -9999.0000      -9999.0000      -9999.0000      -9999.0000
      -9999.0000      -9999.0000      -9999.0000      -9999.0000      -9999.0000
      -9999.0000      -9999.0000      -9999.0000      -9999.0000      -9999.0000
      -9999.0000      -9999.0000      -9999.0000      -9999.0000      -9999.0000
      -9999.0000      -9999.0000      -9999.0000      -9999.0000      -9999.0000
      -9999.0000      -9999.0000      -9999.0000      -9999.0000      -9999.0000
      -9999.0000      -9999.0000      -9999.0000      -9999.0000      -9999.0000
      -9999.0000      -9999.0000      -9999.0000      -9999.0000      -9999.0000
       0.0000000       0.0000000     0.021621470     0.037655406     0.051564819
     0.053858644     0.046944686     0.040717293     0.041096551     0.038734515
     0.010315189       0.0000000       0.0000000       0.0000000       0.0000000
       0.0000000       0.0000000       0.0000000       0.0000000       0.0000000
       0.0000000       0.0000000       0.0000000       0.0000000       0.0000000
      -9999.0000      -9999.0000      -9999.0000      -9999.0000      -9999.0000
      -9999.0000      -9999.0000      -9999.0000      -9999.0000      -9999.0000
      -9999.0000      -9999.0000      -9999.0000      -9999.0000      -9999.0000
      -9999.0000      -9999.0000      -9999.0000      -9999.0000      -9999.0000
      -9999.0000      -9999.0000      -9999.0000      -9999.0000      -9999.0000
      -9999.0000      -9999.0000      -9999.0000      -9999.0000      -9999.0000
      -9999.0000      -9999.0000      -9999.0000      -9999.0000      -9999.0000
      -9999.0000      -9999.0000      -9999.0000      -9999.0000      -9999.0000
      -9999.0000      -9999.0000      -9999.0000      -9999.0000      -9999.0000
      -9999.0000      -9999.0000      -9999.0000      -9999.0000      -9999.0000
      -9999.0000      -9999.0000      -9999.0000      -9999.0000      -9999.0000
      -9999.0000      -9999.0000      -9999.0000      -9999.0000      -9999.0000
      -9999.0000      -9999.0000      -9999.0000      -9999.0000      -9999.0000
      -9999.0000      -9999.0000      -9999.0000      -9999.0000      -9999.0000
      -9999.0000      -9999.0000      -9999.0000      -9999.0000      -9999.0000
      -9999.0000      -9999.0000      -9999.0000      -9999.0000      -9999.0000
      -9999.0000      -9999.0000      -9999.0000       0.0000000       0.0000000
       0.0000000       0.0000000     0.038175147     0.066534063     0.084509668
     0.092459579     0.094105509     0.089406648     0.082666065     0.098514407
     0.079769249     0.059470623     0.022412598       0.0000000       0.0000000
       0.0000000       0.0000000       0.0000000       0.0000000       0.0000000
       0.0000000       0.0000000       0.0000000       0.0000000      -9999.0000
      -9999.0000      -9999.0000      -9999.0000      -9999.0000      -9999.0000
      -9999.0000      -9999.0000      -9999.0000      -9999.0000      -9999.0000
      -9999.0000      -9999.0000      -9999.0000      -9999.0000      -9999.0000
      -9999.0000      -9999.0000      -9999.0000      -9999.0000      -9999.0000
      -9999.0000      -9999.0000      -9999.0000      -9999.0000      -9999.0000
      -9999.0000      -9999.0000      -9999.0000      -9999.0000      -9999.0000
      -9999.0000      -9999.0000      -9999.0000      -9999.0000      -9999.0000
      -9999.0000      -9999.0000      -9999.0000      -9999.0000      -9999.0000
      -9999.0000      -9999.0000      -9999.0000      -9999.0000      -9999.0000
      -9999.0000      -9999.0000      -9999.0000      -9999.0000      -9999.0000
      -9999.0000      -9999.0000      -9999.0000      -9999.0000      -9999.0000
      -9999.0000      -9999.0000      -9999.0000      -9999.0000      -9999.0000
      -9999.0000      -9999.0000      -9999.0000      -9999.0000      -9999.0000
      -9999.0000      -9999.0000      -9999.0000      -9999.0000      -9999.0000
      -9999.0000      -9999.0000      -9999.0000      -9999.0000      -9999.0000
      -9999.0000      -9999.0000      -9999.0000      -9999.0000      -9999.0000
      -9999.0000       0.0000000       0.0000000       0.0000000       0.0000000
       0.0000000     0.031946005     0.079373221      0.10576376      0.12909100
      0.13345163      0.12337275      0.10699478     0.082024047      0.10385234
      0.11239450      0.11067330     0.092659340     0.052522840    0.0095165330
       0.0000000       0.0000000       0.0000000       0.0000000       0.0000000
       0.0000000       0.0000000       0.0000000       0.0000000      -9999.0000
      -9999.0000      -9999.0000      -9999.0000      -9999.0000      -9999.0000
      -9999.0000      -9999.0000      -9999.0000      -9999.0000      -9999.0000
      -9999.0000      -9999.0000      -9999.0000      -9999.0000      -9999.0000
      -9999.0000      -9999.0000      -9999.0000      -9999.0000      -9999.0000
      -9999.0000      -9999.0000      -9999.0000      -9999.0000      -9999.0000
      -9999.0000      -9999.0000      -9999.0000      -9999.0000      -9999.0000
      -9999.0000      -9999.0000      -9999.0000      -9999.0000      -9999.0000
      -9999.0000      -9999.0000      -9999.0000      -9999.0000      -9999.0000
      -9999.0000      -9999.0000      -9999.0000      -9999.0000      -9999.0000
      -9999.0000      -9999.0000      -9999.0000      -9999.0000      -9999.0000
      -9999.0000      -9999.0000      -9999.0000      -9999.0000      -9999.0000
      -9999.0000      -9999.0000      -9999.0000      -9999.0000      -9999.0000
      -9999.0000      -9999.0000      -9999.0000      -9999.0000      -9999.0000
      -9999.0000      -9999.0000      -9999.0000      -9999.0000      -9999.0000
      -9999.0000      -9999.0000      -9999.0000      -9999.0000      -9999.0000
      -9999.0000      -9999.0000      -9999.0000      -9999.0000       0.0000000
       0.0000000       0.0000000       0.0000000       0.0000000       0.0000000
       0.0000000     0.090362500      0.12221409      0.13632704      0.14473489
      0.14619618      0.13094750      0.11323183     0.095968628      0.10014111
      0.10852361      0.10483252     0.097184431     0.070945790     0.041725782
    0.0032487520       0.0000000       0.0000000       0.0000000       0.0000000
       0.0000000       0.0000000       0.0000000       0.0000000       0.0000000
       0.0000000      -9999.0000      -9999.0000      -9999.0000      -9999.0000
      -9999.0000      -9999.0000      -9999.0000      -9999.0000      -9999.0000
      -9999.0000      -9999.0000      -9999.0000      -9999.0000      -9999.0000
      -9999.0000      -9999.0000      -9999.0000      -9999.0000      -9999.0000
      -9999.0000      -9999.0000      -9999.0000      -9999.0000      -9999.0000
      -9999.0000      -9999.0000      -9999.0000      -9999.0000      -9999.0000
      -9999.0000      -9999.0000      -9999.0000      -9999.0000      -9999.0000
      -9999.0000      -9999.0000      -9999.0000      -9999.0000      -9999.0000
      -9999.0000      -9999.0000      -9999.0000      -9999.0000      -9999.0000
      -9999.0000      -9999.0000      -9999.0000      -9999.0000      -9999.0000
      -9999.0000      -9999.0000      -9999.0000      -9999.0000      -9999.0000
      -9999.0000      -9999.0000      -9999.0000      -9999.0000      -9999.0000
      -9999.0000      -9999.0000      -9999.0000      -9999.0000      -9999.0000
      -9999.0000      -9999.0000      -9999.0000      -9999.0000      -9999.0000
      -9999.0000      -9999.0000      -9999.0000      -9999.0000      -9999.0000
      -9999.0000       0.0000000       0.0000000       0.0000000       0.0000000
       0.0000000       0.0000000       0.0000000       0.0000000       0.0000000
       0.0000000      0.13095761      0.12661253      0.14365674      0.14469693
      0.13771770      0.12267445      0.10864649     0.080695396     0.077570238
     0.083290305     0.073236842     0.056102891     0.032954216    0.0083601222
       0.0000000       0.0000000       0.0000000       0.0000000       0.0000000
       0.0000000       0.0000000       0.0000000       0.0000000      -9999.0000
      -9999.0000      -9999.0000      -9999.0000      -9999.0000      -9999.0000
      -9999.0000      -9999.0000      -9999.0000      -9999.0000      -9999.0000
      -9999.0000      -9999.0000      -9999.0000      -9999.0000      -9999.0000
      -9999.0000      -9999.0000      -9999.0000      -9999.0000      -9999.0000
      -9999.0000      -9999.0000      -9999.0000      -9999.0000      -9999.0000
      -9999.0000      -9999.0000      -9999.0000      -9999.0000      -9999.0000
      -9999.0000      -9999.0000      -9999.0000      -9999.0000      -9999.0000
      -9999.0000      -9999.0000      -9999.0000      -9999.0000      -9999.0000
      -9999.0000      -9999.0000      -9999.0000      -9999.0000      -9999.0000
      -9999.0000      -9999.0000      -9999.0000      -9999.0000      -9999.0000
      -9999.0000      -9999.0000      -9999.0000      -9999.0000      -9999.0000
      -9999.0000      -9999.0000      -9999.0000      -9999.0000      -9999.0000
      -9999.0000      -9999.0000      -9999.0000      -9999.0000      -9999.0000
      -9999.0000      -9999.0000      -9999.0000      -9999.0000      -9999.0000
      -9999.0000      -9999.0000      -9999.0000      -9999.0000       0.0000000
       0.0000000       0.0000000       0.0000000       0.0000000       0.0000000
       0.0000000       0.0000000       0.0000000       0.0000000       0.0000000
       0.0000000      0.11500691      0.11699866      0.13721483      0.13142586
      0.11167037     0.079906306     0.069814658     0.060615190     0.050881508
     0.045555158     0.031938108     0.012853064       0.0000000       0.0000000
       0.0000000       0.0000000       0.0000000       0.0000000       0.0000000
       0.0000000       0.0000000      -9999.0000      -9999.0000      -9999.0000
      -9999.0000      -9999.0000      -9999.0000      -9999.0000      -9999.0000
      -9999.0000      -9999.0000      -9999.0000      -9999.0000      -9999.0000
      -9999.0000      -9999.0000      -9999.0000      -9999.0000      -9999.0000
      -9999.0000      -9999.0000      -9999.0000      -9999.0000      -9999.0000
      -9999.0000      -9999.0000      -9999.0000      -9999.0000      -9999.0000
      -9999.0000      -9999.0000      -9999.0000      -9999.0000      -9999.0000
      -9999.0000      -9999.0000      -9999.0000      -9999.0000      -9999.0000
      -9999.0000      -9999.0000      -9999.0000      -9999.0000      -9999.0000
      -9999.0000      -9999.0000      -9999.0000      -9999.0000      -9999.0000
      -9999.0000      -9999.0000      -9999.0000      -9999.0000      -9999.0000
      -9999.0000      -9999.0000      -9999.0000      -9999.0000      -9999.0000
      -9999.0000      -9999.0000      -9999.0000      -9999.0000      -9999.0000
      -9999.0000      -9999.0000      -9999.0000      -9999.0000      -9999.0000
      -9999.0000      -9999.0000      -9999.0000      -9999.0000      -9999.0000
      -9999.0000      -9999.0000       0.0000000       0.0000000       0.0000000
       0.0000000       0.0000000       0.0000000       0.0000000       0.0000000
       0.0000000       0.0000000       0.0000000       0.0000000       0.0000000
       0.0000000      0.10990334      0.10561781      0.11308533     0.094041856
     0.077676664     0.062551575     0.052793544     0.042546897     0.032172204
     0.034043221     0.028950936    0.0097987359       0.0000000       0.0000000
       0.0000000       0.0000000       0.0000000       0.0000000       0.0000000
       0.0000000       0.0000000      -9999.0000      -9999.0000      -9999.0000
      -9999.0000      -9999.0000      -9999.0000      -9999.0000      -9999.0000
      -9999.0000      -9999.0000      -9999.0000      -9999.0000      -9999.0000
      -9999.0000      -9999.0000      -9999.0000      -9999.0000      -9999.0000
      -9999.0000      -9999.0000      -9999.0000      -9999.0000      -9999.0000
      -9999.0000      -9999.0000      -9999.0000      -9999.0000      -9999.0000
      -9999.0000      -9999.0000      -9999.0000      -9999.0000      -9999.0000
      -9999.0000      -9999.0000      -9999.0000      -9999.0000      -9999.0000
      -9999.0000      -9999.0000      -9999.0000      -9999.0000      -9999.0000
      -9999.0000      -9999.0000      -9999.0000      -9999.0000      -9999.0000
      -9999.0000      -9999.0000      -9999.0000      -9999.0000      -9999.0000
      -9999.0000      -9999.0000      -9999.0000      -9999.0000      -9999.0000
      -9999.0000      -9999.0000      -9999.0000      -9999.0000      -9999.0000
      -9999.0000      -9999.0000      -9999.0000      -9999.0000      -9999.0000
      -9999.0000      -9999.0000      -9999.0000      -9999.0000      -9999.0000
      -9999.0000      -9999.0000      -9999.0000       0.0000000       0.0000000
       0.0000000       0.0000000       0.0000000       0.0000000       0.0000000
       0.0000000       0.0000000       0.0000000       0.0000000       0.0000000
       0.0000000     0.094837135     0.078841243     0.083171424     0.083451302
     0.077733331     0.067565657     0.049904813     0.031640865     0.029199330
     0.039629063     0.049685785     0.036826560     0.013081515       0.0000000
       0.0000000       0.0000000       0.0000000       0.0000000       0.0000000
       0.0000000       0.0000000       0.0000000      -9999.0000      -9999.0000
      -9999.0000      -9999.0000      -9999.0000      -9999.0000      -9999.0000
      -9999.0000      -9999.0000      -9999.0000      -9999.0000      -9999.0000
      -9999.0000      -9999.0000      -9999.0000      -9999.0000      -9999.0000
      -9999.0000      -9999.0000      -9999.0000      -9999.0000      -9999.0000
      -9999.0000      -9999.0000      -9999.0000      -9999.0000      -9999.0000
      -9999.0000      -9999.0000      -9999.0000      -9999.0000      -9999.0000
      -9999.0000      -9999.0000      -9999.0000      -9999.0000      -9999.0000
      -9999.0000      -9999.0000      -9999.0000      -9999.0000      -9999.0000
      -9999.0000      -9999.0000      -9999.0000      -9999.0000      -9999.0000
      -9999.0000      -9999.0000      -9999.0000      -9999.0000      -9999.0000
      -9999.0000      -9999.0000      -9999.0000      -9999.0000      -9999.0000
      -9999.0000      -9999.0000      -9999.0000      -9999.0000      -9999.0000
      -9999.0000      -9999.0000      -9999.0000      -9999.0000      -9999.0000
      -9999.0000      -9999.0000      -9999.0000      -9999.0000      -9999.0000
      -9999.0000      -9999.0000      -9999.0000       0.0000000       0.0000000
       0.0000000       0.0000000       0.0000000       0.0000000       0.0000000
       0.0000000       0.0000000      0.17056764      0.16561127      0.16131649
      0.10393003     0.070349296     0.069763334     0.084378618     0.086941371
     0.082730090     0.072086727     0.049394644     0.031577368     0.027942820
     0.037614320     0.051594064     0.046347945     0.030141846    0.0032927271
       0.0000000       0.0000000       0.0000000       0.0000000       0.0000000
       0.0000000       0.0000000       0.0000000       0.0000000      -9999.0000
      -9999.0000      -9999.0000      -9999.0000      -9999.0000      -9999.0000
      -9999.0000      -9999.0000      -9999.0000      -9999.0000      -9999.0000
      -9999.0000      -9999.0000      -9999.0000      -9999.0000      -9999.0000
      -9999.0000      -9999.0000      -9999.0000      -9999.0000      -9999.0000
      -9999.0000      -9999.0000      -9999.0000      -9999.0000      -9999.0000
      -9999.0000      -9999.0000      -9999.0000      -9999.0000      -9999.0000
      -9999.0000      -9999.0000      -9999.0000      -9999.0000      -9999.0000
      -9999.0000      -9999.0000      -9999.0000      -9999.0000      -9999.0000
      -9999.0000      -9999.0000      -9999.0000      -9999.0000      -9999.0000
      -9999.0000      -9999.0000      -9999.0000      -9999.0000      -9999.0000
      -9999.0000      -9999.0000      -9999.0000      -9999.0000      -9999.0000
      -9999.0000      -9999.0000      -9999.0000      -9999.0000      -9999.0000
      -9999.0000      -9999.0000      -9999.0000      -9999.0000      -9999.0000
      -9999.0000      -9999.0000      -9999.0000      -9999.0000      -9999.0000
      -9999.0000      -9999.0000      -9999.0000       0.0000000       0.0000000
       0.0000000       0.0000000       0.0000000       0.0000000       0.0000000
       0.0000000      0.22953575      0.20575844      0.21160675      0.15628942
     0.085262617     0.064121210     0.075861521     0.091621574     0.093307101
     0.085502362     0.069619300     0.053400466     0.042322943     0.032062678
     0.028875521     0.036294118     0.033551992     0.024188242    0.0057802843
       0.0000000       0.0000000       0.0000000       0.0000000       0.0000000
       0.0000000       0.0000000      -9999.0000      -9999.0000      -9999.0000
      -9999.0000      -9999.0000      -9999.0000      -9999.0000      -9999.0000
      -9999.0000      -9999.0000      -9999.0000      -9999.0000      -9999.0000
      -9999.0000      -9999.0000      -9999.0000      -9999.0000      -9999.0000
      -9999.0000      -9999.0000      -9999.0000      -9999.0000      -9999.0000
      -9999.0000      -9999.0000      -9999.0000      -9999.0000      -9999.0000
      -9999.0000      -9999.0000      -9999.0000      -9999.0000      -9999.0000
      -9999.0000      -9999.0000      -9999.0000      -9999.0000      -9999.0000
      -9999.0000      -9999.0000      -9999.0000      -9999.0000      -9999.0000
      -9999.0000      -9999.0000      -9999.0000      -9999.0000      -9999.0000
      -9999.0000      -9999.0000      -9999.0000      -9999.0000      -9999.0000
      -9999.0000      -9999.0000      -9999.0000      -9999.0000      -9999.0000
      -9999.0000      -9999.0000      -9999.0000      -9999.0000      -9999.0000
      -9999.0000      -9999.0000      -9999.0000      -9999.0000      -9999.0000
      -9999.0000      -9999.0000      -9999.0000      -9999.0000      -9999.0000
      -9999.0000      -9999.0000      -9999.0000       0.0000000       0.0000000
       0.0000000       0.0000000       0.0000000       0.0000000       0.0000000
      0.33394728      0.23443575      0.22248092      0.18322853     0.097302137
     0.063087406     0.067544772     0.084232389     0.092877043     0.096493239
     0.088179604     0.072737221     0.066340737     0.056808036     0.040610750
     0.023729558     0.019909231     0.013269462       0.0000000       0.0000000
       0.0000000       0.0000000       0.0000000       0.0000000       0.0000000
       0.0000000       0.0000000      -9999.0000      -9999.0000      -9999.0000
      -9999.0000      -9999.0000      -9999.0000      -9999.0000      -9999.0000
      -9999.0000      -9999.0000      -9999.0000      -9999.0000      -9999.0000
      -9999.0000      -9999.0000      -9999.0000      -9999.0000      -9999.0000
      -9999.0000      -9999.0000      -9999.0000      -9999.0000      -9999.0000
      -9999.0000      -9999.0000      -9999.0000      -9999.0000      -9999.0000
      -9999.0000      -9999.0000      -9999.0000      -9999.0000      -9999.0000
      -9999.0000      -9999.0000      -9999.0000      -9999.0000      -9999.0000
      -9999.0000      -9999.0000      -9999.0000      -9999.0000      -9999.0000
      -9999.0000      -9999.0000      -9999.0000      -9999.0000      -9999.0000
      -9999.0000      -9999.0000      -9999.0000      -9999.0000      -9999.0000
      -9999.0000      -9999.0000      -9999.0000      -9999.0000      -9999.0000
      -9999.0000      -9999.0000      -9999.0000      -9999.0000      -9999.0000
      -9999.0000      -9999.0000      -9999.0000      -9999.0000      -9999.0000
      -9999.0000      -9999.0000      -9999.0000      -9999.0000      -9999.0000
      -9999.0000      -9999.0000      -9999.0000       0.0000000       0.0000000
       0.0000000       0.0000000       0.0000000       0.0000000       0.0000000
      0.25238924      0.22348586      0.18684837      0.10656204     0.031870358
     0.059642886     0.072532470     0.088380754     0.093890329     0.094892225
     0.088058373     0.083996317     0.084220781     0.075696942     0.054491245
     0.026151345    0.0027880146       0.0000000       0.0000000       0.0000000
       0.0000000       0.0000000       0.0000000       0.0000000       0.0000000
       0.0000000      -9999.0000      -9999.0000      -9999.0000      -9999.0000
      -9999.0000      -9999.0000      -9999.0000      -9999.0000      -9999.0000
      -9999.0000      -9999.0000      -9999.0000      -9999.0000      -9999.0000
      -9999.0000      -9999.0000      -9999.0000      -9999.0000      -9999.0000
      -9999.0000      -9999.0000      -9999.0000      -9999.0000      -9999.0000
      -9999.0000      -9999.0000      -9999.0000      -9999.0000      -9999.0000
      -9999.0000      -9999.0000      -9999.0000      -9999.0000      -9999.0000
      -9999.0000      -9999.0000      -9999.0000      -9999.0000      -9999.0000
      -9999.0000      -9999.0000      -9999.0000      -9999.0000      -9999.0000
      -9999.0000      -9999.0000      -9999.0000      -9999.0000      -9999.0000
      -9999.0000      -9999.0000      -9999.0000      -9999.0000      -9999.0000
      -9999.0000      -9999.0000      -9999.0000      -9999.0000      -9999.0000
      -9999.0000      -9999.0000      -9999.0000      -9999.0000      -9999.0000
      -9999.0000      -9999.0000      -9999.0000      -9999.0000      -9999.0000
      -9999.0000      -9999.0000      -9999.0000      -9999.0000      -9999.0000
      -9999.0000      -9999.0000      -9999.0000       0.0000000       0.0000000
       0.0000000       0.0000000       0.0000000       0.0000000       0.0000000
      0.18935414      0.18801537      0.13160539     0.039358903     0.013199130
     0.062593571     0.079157734     0.091550842     0.095015662     0.090773264
     0.084610347     0.080349003     0.075509587     0.061557491     0.041249026
     0.019747816    0.0059387311       0.0000000       0.0000000       0.0000000
       0.0000000       0.0000000       0.0000000       0.0000000       0.0000000
      -9999.0000      -9999.0000      -9999.0000      -9999.0000      -9999.0000
      -9999.0000      -9999.0000      -9999.0000      -9999.0000      -9999.0000
      -9999.0000      -9999.0000      -9999.0000      -9999.0000      -9999.0000
      -9999.0000      -9999.0000      -9999.0000      -9999.0000      -9999.0000
      -9999.0000      -9999.0000      -9999.0000      -9999.0000      -9999.0000
      -9999.0000      -9999.0000      -9999.0000      -9999.0000      -9999.0000
      -9999.0000      -9999.0000      -9999.0000      -9999.0000      -9999.0000
      -9999.0000      -9999.0000      -9999.0000      -9999.0000      -9999.0000
      -9999.0000      -9999.0000      -9999.0000      -9999.0000      -9999.0000
      -9999.0000      -9999.0000      -9999.0000      -9999.0000      -9999.0000
      -9999.0000      -9999.0000      -9999.0000      -9999.0000      -9999.0000
      -9999.0000      -9999.0000      -9999.0000      -9999.0000      -9999.0000
      -9999.0000      -9999.0000      -9999.0000      -9999.0000      -9999.0000
      -9999.0000      -9999.0000      -9999.0000      -9999.0000      -9999.0000
      -9999.0000      -9999.0000      -9999.0000      -9999.0000      -9999.0000
      -9999.0000      -9999.0000      -9999.0000       0.0000000       0.0000000
       0.0000000       0.0000000       0.0000000     0.094702503      0.14139607
      0.16231812      0.16602465      0.12066504     0.060794701     0.030284656
     0.073370533     0.090602416     0.097346736     0.092191471     0.083755439
     0.075500666     0.062661832     0.051464996     0.037092982     0.020052071
     0.014487145     0.018224087    0.0094386011       0.0000000       0.0000000
       0.0000000       0.0000000       0.0000000       0.0000000       0.0000000
      -9999.0000      -9999.0000      -9999.0000      -9999.0000      -9999.0000
      -9999.0000      -9999.0000      -9999.0000      -9999.0000      -9999.0000
      -9999.0000      -9999.0000      -9999.0000      -9999.0000      -9999.0000
      -9999.0000      -9999.0000      -9999.0000      -9999.0000      -9999.0000
      -9999.0000      -9999.0000      -9999.0000      -9999.0000      -9999.0000
      -9999.0000      -9999.0000      -9999.0000      -9999.0000      -9999.0000
      -9999.0000      -9999.0000      -9999.0000      -9999.0000      -9999.0000
      -9999.0000      -9999.0000      -9999.0000      -9999.0000      -9999.0000
      -9999.0000      -9999.0000      -9999.0000      -9999.0000      -9999.0000
      -9999.0000      -9999.0000      -9999.0000      -9999.0000      -9999.0000
      -9999.0000      -9999.0000      -9999.0000      -9999.0000      -9999.0000
      -9999.0000      -9999.0000      -9999.0000      -9999.0000      -9999.0000
      -9999.0000      -9999.0000      -9999.0000      -9999.0000      -9999.0000
      -9999.0000      -9999.0000      -9999.0000      -9999.0000      -9999.0000
      -9999.0000      -9999.0000      -9999.0000      -9999.0000      -9999.0000
      -9999.0000      -9999.0000      -9999.0000       0.0000000       0.0000000
       0.0000000       0.0000000     0.073578429      0.10558675      0.14983230
      0.14933560      0.14534777      0.12053002     0.078258562     0.041255329
     0.082278292      0.11835839      0.10628641     0.088521385     0.077678721
     0.068878302     0.056834296     0.041194589     0.026157630     0.014614732
     0.011006256     0.017134692     0.017152642       0.0000000       0.0000000
       0.0000000       0.0000000       0.0000000      -9999.0000      -9999.0000
      -9999.0000      -9999.0000      -9999.0000      -9999.0000      -9999.0000
      -9999.0000      -9999.0000      -9999.0000      -9999.0000      -9999.0000
      -9999.0000      -9999.0000      -9999.0000      -9999.0000      -9999.0000
      -9999.0000      -9999.0000      -9999.0000      -9999.0000      -9999.0000
      -9999.0000      -9999.0000      -9999.0000      -9999.0000      -9999.0000
      -9999.0000      -9999.0000      -9999.0000      -9999.0000      -9999.0000
      -9999.0000      -9999.0000      -9999.0000      -9999.0000      -9999.0000
      -9999.0000      -9999.0000      -9999.0000      -9999.0000      -9999.0000
      -9999.0000      -9999.0000      -9999.0000      -9999.0000      -9999.0000
      -9999.0000      -9999.0000      -9999.0000      -9999.0000      -9999.0000
      -9999.0000      -9999.0000      -9999.0000      -9999.0000      -9999.0000
      -9999.0000      -9999.0000      -9999.0000      -9999.0000      -9999.0000
      -9999.0000      -9999.0000      -9999.0000      -9999.0000      -9999.0000
      -9999.0000      -9999.0000      -9999.0000      -9999.0000      -9999.0000
      -9999.0000      -9999.0000      -9999.0000      -9999.0000      -9999.0000
      -9999.0000      -9999.0000      -9999.0000       0.0000000       0.0000000
       0.0000000     0.026542705     0.052071873      0.10837752      0.14688158
      0.14395027      0.12975475      0.10618499     0.039207797     0.027469769
     0.078619618      0.12379181      0.12566476     0.094218243     0.084911810
     0.074470634     0.059046093     0.042586730     0.030292180     0.017695263
     0.010395713     0.010237546     0.011171350   0.00012814866      -9999.0000
      -9999.0000      -9999.0000      -9999.0000      -9999.0000      -9999.0000
      -9999.0000      -9999.0000      -9999.0000      -9999.0000      -9999.0000
      -9999.0000      -9999.0000      -9999.0000      -9999.0000      -9999.0000
      -9999.0000      -9999.0000      -9999.0000      -9999.0000      -9999.0000
      -9999.0000      -9999.0000      -9999.0000      -9999.0000      -9999.0000
      -9999.0000      -9999.0000      -9999.0000      -9999.0000      -9999.0000
      -9999.0000      -9999.0000      -9999.0000      -9999.0000      -9999.0000
      -9999.0000      -9999.0000      -9999.0000      -9999.0000      -9999.0000
      -9999.0000      -9999.0000      -9999.0000      -9999.0000      -9999.0000
      -9999.0000      -9999.0000      -9999.0000      -9999.0000      -9999.0000
      -9999.0000      -9999.0000      -9999.0000      -9999.0000      -9999.0000
      -9999.0000      -9999.0000      -9999.0000      -9999.0000      -9999.0000
      -9999.0000      -9999.0000      -9999.0000      -9999.0000      -9999.0000
      -9999.0000      -9999.0000      -9999.0000      -9999.0000      -9999.0000
      -9999.0000      -9999.0000      -9999.0000      -9999.0000      -9999.0000
      -9999.0000      -9999.0000      -9999.0000      -9999.0000      -9999.0000
      -9999.0000      -9999.0000      -9999.0000      -9999.0000       0.0000000
    0.0049782930     0.026813613     0.064632223      0.11150293      0.13434559
      0.13498759      0.12059611     0.089993955       0.0000000    0.0038590598
     0.050737522     0.090105848      0.10203715     0.097654137     0.090030889
     0.072805850     0.055863113     0.047925495     0.039563833     0.022827830
    0.0081882969    0.0040337786   0.00011550422      -9999.0000      -9999.0000
      -9999.0000      -9999.0000      -9999.0000      -9999.0000      -9999.0000
      -9999.0000      -9999.0000      -9999.0000      -9999.0000      -9999.0000
      -9999.0000      -9999.0000      -9999.0000      -9999.0000      -9999.0000
      -9999.0000      -9999.0000      -9999.0000      -9999.0000      -9999.0000
      -9999.0000      -9999.0000      -9999.0000      -9999.0000      -9999.0000
      -9999.0000      -9999.0000      -9999.0000      -9999.0000      -9999.0000
      -9999.0000      -9999.0000      -9999.0000      -9999.0000      -9999.0000
      -9999.0000      -9999.0000      -9999.0000      -9999.0000      -9999.0000
      -9999.0000      -9999.0000      -9999.0000      -9999.0000      -9999.0000
      -9999.0000      -9999.0000      -9999.0000      -9999.0000      -9999.0000
      -9999.0000      -9999.0000      -9999.0000      -9999.0000      -9999.0000
      -9999.0000      -9999.0000      -9999.0000      -9999.0000      -9999.0000
      -9999.0000      -9999.0000      -9999.0000      -9999.0000      -9999.0000
      -9999.0000      -9999.0000      -9999.0000      -9999.0000      -9999.0000
      -9999.0000      -9999.0000      -9999.0000      -9999.0000      -9999.0000
      -9999.0000      -9999.0000      -9999.0000      -9999.0000      -9999.0000
      -9999.0000      -9999.0000      -9999.0000      -9999.0000     0.050447126
     0.047122698      0.16094632      0.11336292      0.13307469      0.14030877
      0.15951986      0.15416585     0.090397204       0.0000000       0.0000000
     0.021932789     0.058640947     0.078606207     0.084439108     0.079992698
     0.066217360     0.051556671     0.048186559     0.041583176     0.026047710
    0.0065736624       0.0000000       0.0000000       0.0000000      -9999.0000
      -9999.0000      -9999.0000      -9999.0000      -9999.0000      -9999.0000
      -9999.0000      -9999.0000      -9999.0000      -9999.0000      -9999.0000
      -9999.0000      -9999.0000      -9999.0000      -9999.0000      -9999.0000
      -9999.0000      -9999.0000      -9999.0000      -9999.0000      -9999.0000
      -9999.0000      -9999.0000      -9999.0000      -9999.0000      -9999.0000
      -9999.0000      -9999.0000      -9999.0000      -9999.0000      -9999.0000
      -9999.0000      -9999.0000      -9999.0000      -9999.0000      -9999.0000
      -9999.0000      -9999.0000      -9999.0000      -9999.0000      -9999.0000
      -9999.0000      -9999.0000      -9999.0000      -9999.0000      -9999.0000
      -9999.0000      -9999.0000      -9999.0000      -9999.0000      -9999.0000
      -9999.0000      -9999.0000      -9999.0000      -9999.0000      -9999.0000
      -9999.0000      -9999.0000      -9999.0000      -9999.0000      -9999.0000
      -9999.0000      -9999.0000      -9999.0000      -9999.0000      -9999.0000
      -9999.0000      -9999.0000      -9999.0000      -9999.0000      -9999.0000
      -9999.0000      -9999.0000      -9999.0000      -9999.0000      -9999.0000
      -9999.0000      -9999.0000      -9999.0000      -9999.0000      -9999.0000
      -9999.0000      -9999.0000      -9999.0000      -9999.0000     0.064830176
     0.099007726      0.17435082      0.13845653      0.15326990      0.16657810
      0.17365702      0.15415268     0.046538015       0.0000000       0.0000000
    0.0047018316     0.027582891     0.043364421     0.057676325     0.060681664
     0.051444372     0.047410611     0.046254847     0.037676840     0.022511139
    0.0030563233       0.0000000       0.0000000       0.0000000      -9999.0000
      -9999.0000      -9999.0000      -9999.0000      -9999.0000      -9999.0000
      -9999.0000      -9999.0000      -9999.0000      -9999.0000      -9999.0000
      -9999.0000      -9999.0000      -9999.0000      -9999.0000      -9999.0000
      -9999.0000      -9999.0000      -9999.0000      -9999.0000      -9999.0000
      -9999.0000      -9999.0000      -9999.0000      -9999.0000      -9999.0000
      -9999.0000      -9999.0000      -9999.0000      -9999.0000      -9999.0000
      -9999.0000      -9999.0000      -9999.0000      -9999.0000      -9999.0000
      -9999.0000      -9999.0000      -9999.0000      -9999.0000      -9999.0000
      -9999.0000      -9999.0000      -9999.0000      -9999.0000      -9999.0000
      -9999.0000      -9999.0000      -9999.0000      -9999.0000      -9999.0000
      -9999.0000      -9999.0000      -9999.0000      -9999.0000      -9999.0000
      -9999.0000      -9999.0000      -9999.0000      -9999.0000      -9999.0000
      -9999.0000      -9999.0000      -9999.0000      -9999.0000      -9999.0000
      -9999.0000      -9999.0000      -9999.0000      -9999.0000      -9999.0000
      -9999.0000      -9999.0000      -9999.0000      -9999.0000      -9999.0000
      -9999.0000      -9999.0000      -9999.0000      -9999.0000      -9999.0000
      -9999.0000      -9999.0000      -9999.0000      -9999.0000     0.040917396
     0.074949610      0.12493614      0.14810051      0.17394033      0.17363344
      0.14509546     0.094169799       0.0000000       0.0000000       0.0000000
       0.0000000    0.0088192124     0.022696404     0.037205238     0.038861926
     0.039697165     0.039207923     0.036844642     0.022686572    0.0036335438
       0.0000000       0.0000000       0.0000000       0.0000000      -9999.0000
      -9999.0000      -9999.0000      -9999.0000      -9999.0000      -9999.0000
      -9999.0000      -9999.0000      -9999.0000      -9999.0000      -9999.0000
      -9999.0000      -9999.0000      -9999.0000      -9999.0000      -9999.0000
      -9999.0000      -9999.0000      -9999.0000      -9999.0000      -9999.0000
      -9999.0000      -9999.0000      -9999.0000      -9999.0000      -9999.0000
      -9999.0000      -9999.0000      -9999.0000      -9999.0000      -9999.0000
      -9999.0000      -9999.0000      -9999.0000      -9999.0000      -9999.0000
      -9999.0000      -9999.0000      -9999.0000      -9999.0000      -9999.0000
      -9999.0000      -9999.0000      -9999.0000      -9999.0000      -9999.0000
      -9999.0000      -9999.0000      -9999.0000      -9999.0000      -9999.0000
      -9999.0000      -9999.0000      -9999.0000      -9999.0000      -9999.0000
      -9999.0000      -9999.0000      -9999.0000      -9999.0000      -9999.0000
      -9999.0000      -9999.0000      -9999.0000      -9999.0000      -9999.0000
      -9999.0000      -9999.0000      -9999.0000      -9999.0000      -9999.0000
      -9999.0000      -9999.0000      -9999.0000      -9999.0000      -9999.0000
      -9999.0000      -9999.0000      -9999.0000      -9999.0000      -9999.0000
      -9999.0000      -9999.0000      -9999.0000      0.57397476     0.019314363
     0.033553192      0.11167218      0.16434081      0.18977851      0.16468326
      0.10573161       0.0000000       0.0000000       0.0000000       0.0000000
       0.0000000    0.0054752954     0.016376331     0.021493800     0.012119146
    0.0055199344    0.0080800652     0.012818467    0.0054288411       0.0000000
       0.0000000       0.0000000       0.0000000      -9999.0000      -9999.0000
      -9999.0000      -9999.0000      -9999.0000      -9999.0000      -9999.0000
      -9999.0000      -9999.0000      -9999.0000      -9999.0000      -9999.0000
      -9999.0000      -9999.0000      -9999.0000      -9999.0000      -9999.0000
      -9999.0000      -9999.0000      -9999.0000      -9999.0000      -9999.0000
      -9999.0000      -9999.0000      -9999.0000      -9999.0000      -9999.0000
      -9999.0000      -9999.0000      -9999.0000      -9999.0000      -9999.0000
      -9999.0000      -9999.0000      -9999.0000      -9999.0000      -9999.0000
      -9999.0000      -9999.0000      -9999.0000      -9999.0000      -9999.0000
      -9999.0000      -9999.0000      -9999.0000      -9999.0000      -9999.0000
      -9999.0000      -9999.0000      -9999.0000      -9999.0000      -9999.0000
      -9999.0000      -9999.0000      -9999.0000      -9999.0000      -9999.0000
      -9999.0000      -9999.0000      -9999.0000      -9999.0000      -9999.0000
      -9999.0000      -9999.0000      -9999.0000      -9999.0000      -9999.0000
      -9999.0000      -9999.0000      -9999.0000      -9999.0000      -9999.0000
      -9999.0000      -9999.0000      -9999.0000      -9999.0000      -9999.0000
      -9999.0000      -9999.0000      -9999.0000      -9999.0000      -9999.0000
      -9999.0000      -9999.0000      -9999.0000      0.97381976      0.21179922
     0.032283892     0.085440946      0.17105956      0.18618294      0.14011993
     0.042489906       0.0000000       0.0000000       0.0000000       0.0000000
     0.016766067     0.023524998     0.019389604    0.0091196071       0.0000000
       0.0000000       0.0000000       0.0000000       0.0000000       0.0000000
      -9999.0000      -9999.0000      -9999.0000      -9999.0000      -9999.0000
      -9999.0000      -9999.0000      -9999.0000      -9999.0000      -9999.0000
      -9999.0000      -9999.0000      -9999.0000      -9999.0000      -9999.0000
      -9999.0000      -9999.0000      -9999.0000      -9999.0000      -9999.0000
      -9999.0000      -9999.0000      -9999.0000      -9999.0000      -9999.0000
      -9999.0000      -9999.0000      -9999.0000      -9999.0000      -9999.0000
      -9999.0000      -9999.0000      -9999.0000      -9999.0000      -9999.0000
      -9999.0000      -9999.0000      -9999.0000      -9999.0000      -9999.0000
      -9999.0000      -9999.0000      -9999.0000      -9999.0000      -9999.0000
      -9999.0000      -9999.0000      -9999.0000      -9999.0000      -9999.0000
      -9999.0000      -9999.0000      -9999.0000      -9999.0000      -9999.0000
      -9999.0000      -9999.0000      -9999.0000      -9999.0000      -9999.0000
      -9999.0000      -9999.0000      -9999.0000      -9999.0000      -9999.0000
      -9999.0000      -9999.0000      -9999.0000      -9999.0000      -9999.0000
      -9999.0000      -9999.0000      -9999.0000      -9999.0000      -9999.0000
      -9999.0000      -9999.0000      -9999.0000      -9999.0000      -9999.0000
      -9999.0000      -9999.0000      -9999.0000      -9999.0000      -9999.0000
      -9999.0000      -9999.0000      -9999.0000       1.2372469      0.82147821
      0.34529799      0.21082399      0.18123359      0.16485085      0.11622334
    0.0055954457       0.0000000       0.0000000       0.0000000     0.024011077
     0.029803888     0.022795586    0.0090378216       0.0000000       0.0000000
       0.0000000       0.0000000       0.0000000       0.0000000       0.0000000
      -9999.0000      -9999.0000      -9999.0000      -9999.0000      -9999.0000
      -9999.0000      -9999.0000      -9999.0000      -9999.0000      -9999.0000
      -9999.0000      -9999.0000      -9999.0000      -9999.0000      -9999.0000
      -9999.0000      -9999.0000      -9999.0000      -9999.0000      -9999.0000
      -9999.0000      -9999.0000      -9999.0000      -9999.0000      -9999.0000
      -9999.0000      -9999.0000      -9999.0000      -9999.0000      -9999.0000
      -9999.0000      -9999.0000      -9999.0000      -9999.0000      -9999.0000
      -9999.0000      -9999.0000      -9999.0000      -9999.0000      -9999.0000
      -9999.0000      -9999.0000      -9999.0000      -9999.0000      -9999.0000
      -9999.0000      -9999.0000      -9999.0000      -9999.0000      -9999.0000
      -9999.0000      -9999.0000      -9999.0000      -9999.0000      -9999.0000
      -9999.0000      -9999.0000      -9999.0000      -9999.0000      -9999.0000
      -9999.0000      -9999.0000      -9999.0000      -9999.0000      -9999.0000
      -9999.0000      -9999.0000      -9999.0000      -9999.0000      -9999.0000
      -9999.0000      -9999.0000      -9999.0000      -9999.0000      -9999.0000
      -9999.0000      -9999.0000      -9999.0000      -9999.0000      -9999.0000
      -9999.0000      -9999.0000      -9999.0000      -9999.0000      -9999.0000
      -9999.0000      -9999.0000      -9999.0000       1.4453194       1.0086668
      0.56773367      0.23967894      0.19054728      0.16033784      0.10668149
     0.011704995       0.0000000       0.0000000     0.016278027     0.029052302
     0.020473446    0.0073231753       0.0000000       0.0000000    0.0044287781
    0.0085098242       0.0000000       0.0000000       0.0000000       0.0000000
      -9999.0000      -9999.0000      -9999.0000      -9999.0000      -9999.0000
      -9999.0000      -9999.0000      -9999.0000      -9999.0000      -9999.0000
      -9999.0000      -9999.0000      -9999.0000      -9999.0000      -9999.0000
      -9999.0000      -9999.0000      -9999.0000      -9999.0000      -9999.0000
      -9999.0000      -9999.0000      -9999.0000      -9999.0000      -9999.0000
      -9999.0000      -9999.0000      -9999.0000      -9999.0000      -9999.0000
      -9999.0000      -9999.0000      -9999.0000      -9999.0000      -9999.0000
      -9999.0000      -9999.0000      -9999.0000      -9999.0000      -9999.0000
      -9999.0000      -9999.0000      -9999.0000      -9999.0000      -9999.0000
      -9999.0000      -9999.0000      -9999.0000      -9999.0000      -9999.0000
      -9999.0000      -9999.0000      -9999.0000      -9999.0000      -9999.0000
      -9999.0000      -9999.0000      -9999.0000      -9999.0000      -9999.0000
      -9999.0000      -9999.0000      -9999.0000      -9999.0000      -9999.0000
      -9999.0000      -9999.0000      -9999.0000      -9999.0000      -9999.0000
      -9999.0000      -9999.0000      -9999.0000      -9999.0000      -9999.0000
      -9999.0000      -9999.0000      -9999.0000      -9999.0000      -9999.0000
      -9999.0000      -9999.0000      -9999.0000      -9999.0000      -9999.0000
      -9999.0000      -9999.0000      -9999.0000       1.4137326       1.0651178
      0.59846121      0.27374964      0.20848949      0.18814195      0.13680900
    0.0083940525       0.0000000       0.0000000     0.014071496     0.017083603
    0.0078683356       0.0000000       0.0000000    0.0034927898    0.0077161855
    0.0072410303    0.0031137030       0.0000000      -9999.0000      -9999.0000
      -9999.0000      -9999.0000      -9999.0000      -9999.0000      -9999.0000
      -9999.0000      -9999.0000      -9999.0000      -9999.0000      -9999.0000
      -9999.0000      -9999.0000      -9999.0000      -9999.0000      -9999.0000
      -9999.0000      -9999.0000      -9999.0000      -9999.0000      -9999.0000
      -9999.0000      -9999.0000      -9999.0000      -9999.0000      -9999.0000
      -9999.0000      -9999.0000      -9999.0000      -9999.0000      -9999.0000
      -9999.0000      -9999.0000      -9999.0000      -9999.0000      -9999.0000
      -9999.0000      -9999.0000      -9999.0000      -9999.0000      -9999.0000
      -9999.0000      -9999.0000      -9999.0000      -9999.0000      -9999.0000
      -9999.0000      -9999.0000      -9999.0000      -9999.0000      -9999.0000
      -9999.0000      -9999.0000      -9999.0000      -9999.0000      -9999.0000
      -9999.0000      -9999.0000      -9999.0000      -9999.0000      -9999.0000
      -9999.0000      -9999.0000      -9999.0000      -9999.0000      -9999.0000
      -9999.0000      -9999.0000      -9999.0000      -9999.0000      -9999.0000
      -9999.0000      -9999.0000      -9999.0000      -9999.0000      -9999.0000
      -9999.0000      -9999.0000      -9999.0000      -9999.0000      -9999.0000
      -9999.0000      -9999.0000      -9999.0000      -9999.0000      -9999.0000
      -9999.0000      -9999.0000      -9999.0000      -9999.0000      -9999.0000
      0.70154463      0.48686073      0.34091816      0.24165137      0.14113679
       0.0000000       0.0000000       0.0000000     0.024928034     0.010997375
    0.0015774767    0.0020033357    0.0045388913    0.0082008675    0.0063411591
   0.00018807618      -9999.0000      -9999.0000      -9999.0000      -9999.0000
      -9999.0000      -9999.0000      -9999.0000      -9999.0000      -9999.0000
      -9999.0000      -9999.0000      -9999.0000      -9999.0000      -9999.0000
      -9999.0000      -9999.0000      -9999.0000      -9999.0000      -9999.0000
      -9999.0000      -9999.0000      -9999.0000      -9999.0000      -9999.0000
      -9999.0000      -9999.0000      -9999.0000      -9999.0000      -9999.0000
      -9999.0000      -9999.0000      -9999.0000      -9999.0000      -9999.0000
      -9999.0000      -9999.0000      -9999.0000      -9999.0000      -9999.0000
      -9999.0000      -9999.0000      -9999.0000      -9999.0000      -9999.0000
      -9999.0000      -9999.0000      -9999.0000      -9999.0000      -9999.0000
      -9999.0000      -9999.0000      -9999.0000      -9999.0000      -9999.0000
      -9999.0000      -9999.0000      -9999.0000      -9999.0000      -9999.0000
      -9999.0000      -9999.0000      -9999.0000      -9999.0000      -9999.0000
      -9999.0000      -9999.0000      -9999.0000      -9999.0000      -9999.0000
      -9999.0000      -9999.0000      -9999.0000      -9999.0000      -9999.0000
      -9999.0000      -9999.0000      -9999.0000      -9999.0000      -9999.0000
      -9999.0000      -9999.0000      -9999.0000      -9999.0000      -9999.0000
      -9999.0000      -9999.0000      -9999.0000      -9999.0000      -9999.0000
      -9999.0000      -9999.0000      -9999.0000      -9999.0000       1.3269045
       1.0635893      0.80337555      0.45667918      0.30483373      0.14342749
       0.0000000       0.0000000     0.016655290     0.033946388     0.011317863
    0.0048793363     0.010038713    0.0093671442    0.0068568147    0.0018901798
      -9999.0000      -9999.0000      -9999.0000      -9999.0000      -9999.0000
      -9999.0000      -9999.0000      -9999.0000      -9999.0000      -9999.0000
      -9999.0000      -9999.0000      -9999.0000      -9999.0000      -9999.0000
      -9999.0000      -9999.0000      -9999.0000      -9999.0000      -9999.0000
      -9999.0000      -9999.0000      -9999.0000      -9999.0000      -9999.0000
      -9999.0000      -9999.0000      -9999.0000      -9999.0000      -9999.0000
      -9999.0000      -9999.0000      -9999.0000      -9999.0000      -9999.0000
      -9999.0000      -9999.0000      -9999.0000      -9999.0000      -9999.0000
      -9999.0000      -9999.0000      -9999.0000      -9999.0000      -9999.0000
      -9999.0000      -9999.0000      -9999.0000      -9999.0000      -9999.0000
      -9999.0000      -9999.0000      -9999.0000      -9999.0000      -9999.0000
      -9999.0000      -9999.0000      -9999.0000      -9999.0000      -9999.0000
      -9999.0000      -9999.0000      -9999.0000      -9999.0000      -9999.0000
      -9999.0000      -9999.0000      -9999.0000      -9999.0000      -9999.0000
      -9999.0000      -9999.0000      -9999.0000      -9999.0000      -9999.0000
      -9999.0000      -9999.0000      -9999.0000      -9999.0000      -9999.0000
      -9999.0000      -9999.0000      -9999.0000      -9999.0000      -9999.0000
      -9999.0000      -9999.0000      -9999.0000      -9999.0000      -9999.0000
      -9999.0000      -9999.0000      -9999.0000       1.2950595       1.2970991
      0.95189803      0.54603485      0.39541510      0.29266983      0.11061552
       0.0000000     0.018631229     0.022526058     0.032912859     0.018984418
     0.023093752     0.020692898     0.012332366    0.0049950715      -9999.0000
      -9999.0000      -9999.0000      -9999.0000      -9999.0000      -9999.0000
      -9999.0000      -9999.0000      -9999.0000      -9999.0000      -9999.0000
      -9999.0000      -9999.0000      -9999.0000      -9999.0000      -9999.0000
      -9999.0000      -9999.0000      -9999.0000      -9999.0000      -9999.0000
      -9999.0000      -9999.0000      -9999.0000      -9999.0000      -9999.0000
      -9999.0000      -9999.0000      -9999.0000      -9999.0000      -9999.0000
      -9999.0000      -9999.0000      -9999.0000      -9999.0000      -9999.0000
      -9999.0000      -9999.0000      -9999.0000      -9999.0000      -9999.0000
      -9999.0000      -9999.0000      -9999.0000      -9999.0000      -9999.0000
      -9999.0000      -9999.0000      -9999.0000      -9999.0000      -9999.0000
      -9999.0000      -9999.0000      -9999.0000      -9999.0000      -9999.0000
      -9999.0000      -9999.0000      -9999.0000      -9999.0000      -9999.0000
      -9999.0000      -9999.0000      -9999.0000      -9999.0000      -9999.0000
      -9999.0000      -9999.0000      -9999.0000      -9999.0000      -9999.0000
      -9999.0000      -9999.0000      -9999.0000      -9999.0000      -9999.0000
      -9999.0000      -9999.0000      -9999.0000      -9999.0000      -9999.0000
      -9999.0000      -9999.0000      -9999.0000      -9999.0000      -9999.0000
      -9999.0000      -9999.0000      -9999.0000      -9999.0000      -9999.0000
      -9999.0000      -9999.0000       1.2678176       1.3246765      0.98069950
      0.58819075      0.40829862      0.42054480      0.20661602     0.072067923
     0.030133143     0.053748157     0.049404982     0.054206379     0.048020114
     0.040463356     0.036229004      -9999.0000      -9999.0000      -9999.0000
      -9999.0000      -9999.0000      -9999.0000      -9999.0000      -9999.0000
      -9999.0000      -9999.0000      -9999.0000      -9999.0000      -9999.0000
      -9999.0000      -9999.0000      -9999.0000      -9999.0000      -9999.0000
      -9999.0000      -9999.0000      -9999.0000      -9999.0000      -9999.0000
      -9999.0000      -9999.0000      -9999.0000      -9999.0000      -9999.0000
      -9999.0000      -9999.0000      -9999.0000      -9999.0000      -9999.0000
      -9999.0000      -9999.0000      -9999.0000      -9999.0000      -9999.0000
      -9999.0000      -9999.0000      -9999.0000      -9999.0000      -9999.0000
      -9999.0000      -9999.0000      -9999.0000      -9999.0000      -9999.0000
      -9999.0000      -9999.0000      -9999.0000      -9999.0000      -9999.0000
      -9999.0000      -9999.0000      -9999.0000      -9999.0000      -9999.0000
      -9999.0000      -9999.0000      -9999.0000      -9999.0000      -9999.0000
      -9999.0000      -9999.0000      -9999.0000      -9999.0000      -9999.0000
      -9999.0000      -9999.0000      -9999.0000      -9999.0000      -9999.0000
      -9999.0000      -9999.0000      -9999.0000      -9999.0000      -9999.0000
      -9999.0000      -9999.0000      -9999.0000      -9999.0000      -9999.0000
      -9999.0000      -9999.0000      -9999.0000      -9999.0000      -9999.0000
      -9999.0000      -9999.0000      -9999.0000      -9999.0000      -9999.0000
      -9999.0000       1.2737416       1.2030460      0.94677041      0.63796821
      0.44586443      0.38494267      0.32667896      0.11901681     0.096612195
      0.12621197      0.14624937      0.14977530      0.12407518     0.079967921
     0.034537289      -9999.0000      -9999.0000      -9999.0000      -9999.0000
      -9999.0000      -9999.0000      -9999.0000      -9999.0000      -9999.0000
      -9999.0000      -9999.0000      -9999.0000      -9999.0000      -9999.0000
      -9999.0000      -9999.0000      -9999.0000      -9999.0000      -9999.0000
      -9999.0000      -9999.0000      -9999.0000      -9999.0000      -9999.0000
      -9999.0000      -9999.0000      -9999.0000      -9999.0000      -9999.0000
      -9999.0000      -9999.0000      -9999.0000      -9999.0000      -9999.0000
      -9999.0000      -9999.0000      -9999.0000      -9999.0000      -9999.0000
      -9999.0000      -9999.0000      -9999.0000      -9999.0000      -9999.0000
      -9999.0000      -9999.0000      -9999.0000      -9999.0000      -9999.0000
      -9999.0000      -9999.0000      -9999.0000      -9999.0000      -9999.0000
      -9999.0000      -9999.0000      -9999.0000      -9999.0000      -9999.0000
      -9999.0000      -9999.0000      -9999.0000      -9999.0000      -9999.0000
      -9999.0000      -9999.0000      -9999.0000      -9999.0000      -9999.0000
      -9999.0000      -9999.0000      -9999.0000      -9999.0000      -9999.0000
      -9999.0000      -9999.0000      -9999.0000      -9999.0000      -9999.0000
      -9999.0000      -9999.0000      -9999.0000      -9999.0000      -9999.0000
      -9999.0000      -9999.0000      -9999.0000      -9999.0000      -9999.0000
      -9999.0000      -9999.0000      -9999.0000      -9999.0000      -9999.0000
       1.2574178       1.1619047      0.92125840      0.67778825      0.48779867
      0.43891021      0.40541804      0.20247072      0.13725836      0.18874912
      0.23223641      0.23465552      0.24188553      0.20798239      -9999.0000
      -9999.0000      -9999.0000      -9999.0000      -9999.0000      -9999.0000
      -9999.0000      -9999.0000      -9999.0000      -9999.0000      -9999.0000
      -9999.0000      -9999.0000      -9999.0000      -9999.0000      -9999.0000
      -9999.0000      -9999.0000      -9999.0000      -9999.0000      -9999.0000
      -9999.0000      -9999.0000      -9999.0000      -9999.0000      -9999.0000
      -9999.0000      -9999.0000      -9999.0000      -9999.0000      -9999.0000
      -9999.0000      -9999.0000      -9999.0000      -9999.0000      -9999.0000
      -9999.0000      -9999.0000      -9999.0000      -9999.0000      -9999.0000
      -9999.0000      -9999.0000      -9999.0000      -9999.0000      -9999.0000
      -9999.0000      -9999.0000      -9999.0000      -9999.0000      -9999.0000
      -9999.0000      -9999.0000      -9999.0000      -9999.0000      -9999.0000
      -9999.0000      -9999.0000      -9999.0000      -9999.0000      -9999.0000
      -9999.0000      -9999.0000      -9999.0000      -9999.0000      -9999.0000
      -9999.0000      -9999.0000      -9999.0000      -9999.0000      -9999.0000
      -9999.0000      -9999.0000      -9999.0000      -9999.0000      -9999.0000
      -9999.0000      -9999.0000      -9999.0000      -9999.0000      -9999.0000
      -9999.0000      -9999.0000      -9999.0000      -9999.0000      -9999.0000
      -9999.0000      -9999.0000      -9999.0000      -9999.0000      -9999.0000
      -9999.0000      -9999.0000      -9999.0000      -9999.0000      -9999.0000
       1.2476688       1.0020519      0.76348414      0.52176898      0.47430527
      0.47603748      0.33056664      0.16088777      0.20469674      0.24383061
      0.29047807      0.30439427      -9999.0000      -9999.0000      -9999.0000
      -9999.0000      -9999.0000      -9999.0000      -9999.0000      -9999.0000
      -9999.0000      -9999.0000      -9999.0000      -9999.0000      -9999.0000
      -9999.0000      -9999.0000      -9999.0000      -9999.0000      -9999.0000
      -9999.0000      -9999.0000      -9999.0000      -9999.0000      -9999.0000
      -9999.0000      -9999.0000      -9999.0000      -9999.0000      -9999.0000
      -9999.0000      -9999.0000      -9999.0000      -9999.0000      -9999.0000
      -9999.0000      -9999.0000      -9999.0000      -9999.0000      -9999.0000
      -9999.0000      -9999.0000      -9999.0000      -9999.0000      -9999.0000
      -9999.0000      -9999.0000      -9999.0000      -9999.0000      -9999.0000
      -9999.0000      -9999.0000      -9999.0000      -9999.0000      -9999.0000
      -9999.0000      -9999.0000      -9999.0000      -9999.0000      -9999.0000
      -9999.0000      -9999.0000      -9999.0000      -9999.0000      -9999.0000
      -9999.0000      -9999.0000      -9999.0000      -9999.0000      -9999.0000
      -9999.0000      -9999.0000      -9999.0000      -9999.0000      -9999.0000
      -9999.0000      -9999.0000      -9999.0000      -9999.0000      -9999.0000
      -9999.0000      -9999.0000      -9999.0000      -9999.0000      -9999.0000
      -9999.0000      -9999.0000      -9999.0000      -9999.0000      -9999.0000
      -9999.0000      -9999.0000      -9999.0000      -9999.0000      -9999.0000
      -9999.0000      -9999.0000      -9999.0000      -9999.0000      -9999.0000
       1.1343919      0.86107975      0.57998545      0.49561443      0.47380202
      0.45088025      0.24569346      0.20008120      0.25765731      0.29300323
      0.32567000      -9999.0000      -9999.0000      -9999.0000      -9999.0000
      -9999.0000      -9999.0000      -9999.0000      -9999.0000      -9999.0000
      -9999.0000      -9999.0000      -9999.0000      -9999.0000      -9999.0000
      -9999.0000      -9999.0000      -9999.0000      -9999.0000      -9999.0000
      -9999.0000      -9999.0000      -9999.0000      -9999.0000      -9999.0000
      -9999.0000      -9999.0000      -9999.0000      -9999.0000      -9999.0000
      -9999.0000      -9999.0000      -9999.0000      -9999.0000      -9999.0000
      -9999.0000      -9999.0000      -9999.0000      -9999.0000      -9999.0000
      -9999.0000      -9999.0000      -9999.0000      -9999.0000      -9999.0000
      -9999.0000      -9999.0000      -9999.0000      -9999.0000      -9999.0000
      -9999.0000      -9999.0000      -9999.0000      -9999.0000      -9999.0000
      -9999.0000      -9999.0000      -9999.0000      -9999.0000      -9999.0000
      -9999.0000      -9999.0000      -9999.0000      -9999.0000      -9999.0000
      -9999.0000      -9999.0000      -9999.0000      -9999.0000      -9999.0000
      -9999.0000      -9999.0000      -9999.0000      -9999.0000      -9999.0000
      -9999.0000      -9999.0000      -9999.0000      -9999.0000      -9999.0000
      -9999.0000      -9999.0000      -9999.0000      -9999.0000      -9999.0000
      -9999.0000      -9999.0000      -9999.0000      -9999.0000      -9999.0000
      -9999.0000      -9999.0000      -9999.0000      -9999.0000      -9999.0000
      -9999.0000      -9999.0000      -9999.0000      -9999.0000      -9999.0000
       1.0184662      0.71199347      0.54310960      0.49621670      0.50746915
      0.34105746      0.21829201      0.25151471      0.29990756      0.33053980
      0.37626736      -9999.0000      -9999.0000      -9999.0000      -9999.0000
      -9999.0000      -9999.0000      -9999.0000      -9999.0000      -9999.0000
      -9999.0000      -9999.0000      -9999.0000      -9999.0000      -9999.0000
      -9999.0000      -9999.0000      -9999.0000      -9999.0000      -9999.0000
      -9999.0000      -9999.0000      -9999.0000      -9999.0000      -9999.0000
      -9999.0000      -9999.0000      -9999.0000      -9999.0000      -9999.0000
      -9999.0000      -9999.0000      -9999.0000      -9999.0000      -9999.0000
      -9999.0000      -9999.0000      -9999.0000      -9999.0000      -9999.0000
      -9999.0000      -9999.0000      -9999.0000      -9999.0000      -9999.0000
      -9999.0000      -9999.0000      -9999.0000      -9999.0000      -9999.0000
      -9999.0000      -9999.0000      -9999.0000      -9999.0000      -9999.0000
      -9999.0000      -9999.0000      -9999.0000      -9999.0000      -9999.0000
      -9999.0000      -9999.0000      -9999.0000      -9999.0000      -9999.0000
      -9999.0000      -9999.0000      -9999.0000      -9999.0000      -9999.0000
      -9999.0000      -9999.0000      -9999.0000      -9999.0000      -9999.0000
      -9999.0000      -9999.0000      -9999.0000      -9999.0000      -9999.0000
      -9999.0000      -9999.0000      -9999.0000      -9999.0000      -9999.0000
      -9999.0000      -9999.0000      -9999.0000      -9999.0000      -9999.0000
      -9999.0000      -9999.0000      -9999.0000      -9999.0000      -9999.0000
      -9999.0000      -9999.0000      -9999.0000      -9999.0000      -9999.0000
      0.95211521      0.60312948      0.50444459      0.49386104      0.41564606
      0.26099958      0.29255292      0.35495071      0.38983086      0.42111081
      -9999.0000      -9999.0000      -9999.0000      -9999.0000      -9999.0000
      -9999.0000      -9999.0000      -9999.0000      -9999.0000      -9999.0000
      -9999.0000      -9999.0000      -9999.0000      -9999.0000      -9999.0000
      -9999.0000      -9999.0000      -9999.0000      -9999.0000      -9999.0000
      -9999.0000      -9999.0000      -9999.0000      -9999.0000      -9999.0000
      -9999.0000      -9999.0000      -9999.0000      -9999.0000      -9999.0000
      -9999.0000      -9999.0000      -9999.0000      -9999.0000      -9999.0000
      -9999.0000      -9999.0000      -9999.0000      -9999.0000      -9999.0000
      -9999.0000      -9999.0000      -9999.0000      -9999.0000      -9999.0000
      -9999.0000      -9999.0000      -9999.0000      -9999.0000      -9999.0000
      -9999.0000      -9999.0000      -9999.0000      -9999.0000      -9999.0000
      -9999.0000      -9999.0000      -9999.0000      -9999.0000      -9999.0000
      -9999.0000      -9999.0000      -9999.0000      -9999.0000      -9999.0000
      -9999.0000      -9999.0000      -9999.0000      -9999.0000      -9999.0000
      -9999.0000      -9999.0000      -9999.0000      -9999.0000      -9999.0000
      -9999.0000      -9999.0000      -9999.0000      -9999.0000      -9999.0000
      -9999.0000      -9999.0000      -9999.0000      -9999.0000      -9999.0000
      -9999.0000      -9999.0000      -9999.0000      -9999.0000      -9999.0000
      -9999.0000      -9999.0000      -9999.0000      -9999.0000      -9999.0000
      -9999.0000      -9999.0000      -9999.0000      -9999.0000      -9999.0000
      0.84966063      0.57157422      0.51030249      0.53763701      0.33772672
      0.32941194      0.44218723      0.51548601      0.53596048      0.55555968
      -9999.0000      -9999.0000      -9999.0000      -9999.0000      -9999.0000
      -9999.0000      -9999.0000      -9999.0000      -9999.0000      -9999.0000
      -9999.0000      -9999.0000      -9999.0000      -9999.0000      -9999.0000
      -9999.0000      -9999.0000      -9999.0000      -9999.0000      -9999.0000
      -9999.0000      -9999.0000      -9999.0000      -9999.0000      -9999.0000
      -9999.0000      -9999.0000      -9999.0000      -9999.0000      -9999.0000
      -9999.0000      -9999.0000      -9999.0000      -9999.0000      -9999.0000
      -9999.0000      -9999.0000      -9999.0000      -9999.0000      -9999.0000
      -9999.0000      -9999.0000      -9999.0000      -9999.0000      -9999.0000
      -9999.0000      -9999.0000      -9999.0000      -9999.0000      -9999.0000
      -9999.0000      -9999.0000      -9999.0000      -9999.0000      -9999.0000
      -9999.0000      -9999.0000      -9999.0000      -9999.0000      -9999.0000
      -9999.0000      -9999.0000      -9999.0000      -9999.0000      -9999.0000
      -9999.0000      -9999.0000      -9999.0000      -9999.0000      -9999.0000
      -9999.0000      -9999.0000      -9999.0000      -9999.0000      -9999.0000
      -9999.0000      -9999.0000      -9999.0000      -9999.0000      -9999.0000
      -9999.0000      -9999.0000      -9999.0000      -9999.0000      -9999.0000
      -9999.0000      -9999.0000      -9999.0000      -9999.0000      -9999.0000
      -9999.0000      -9999.0000      -9999.0000      -9999.0000      -9999.0000
      -9999.0000      -9999.0000      -9999.0000      -9999.0000      0.84639703
      0.74172970      0.64719171      0.63151985      0.47242196      0.38748230
      0.45366625      0.57069862      0.64283024      0.67551343      -9999.0000
      -9999.0000      -9999.0000      -9999.0000      -9999.0000      -9999.0000
      -9999.0000      -9999.0000      -9999.0000      -9999.0000      -9999.0000
      -9999.0000      -9999.0000      -9999.0000      -9999.0000      -9999.0000
      -9999.0000      -9999.0000      -9999.0000      -9999.0000      -9999.0000
      -9999.0000      -9999.0000      -9999.0000      -9999.0000      -9999.0000
      -9999.0000      -9999.0000      -9999.0000      -9999.0000      -9999.0000
      -9999.0000      -9999.0000      -9999.0000      -9999.0000      -9999.0000
      -9999.0000      -9999.0000      -9999.0000      -9999.0000      -9999.0000
      -9999.0000      -9999.0000      -9999.0000      -9999.0000      -9999.0000
      -9999.0000      -9999.0000      -9999.0000      -9999.0000      -9999.0000
      -9999.0000      -9999.0000      -9999.0000      -9999.0000      -9999.0000
      -9999.0000      -9999.0000      -9999.0000      -9999.0000      -9999.0000
      -9999.0000      -9999.0000      -9999.0000      -9999.0000      -9999.0000
      -9999.0000      -9999.0000      -9999.0000      -9999.0000      -9999.0000
      -9999.0000      -9999.0000      -9999.0000      -9999.0000      -9999.0000
      -9999.0000      -9999.0000      -9999.0000      -9999.0000      -9999.0000
      -9999.0000      -9999.0000      -9999.0000      -9999.0000      -9999.0000
      -9999.0000      -9999.0000      -9999.0000      -9999.0000      -9999.0000
      -9999.0000      -9999.0000      -9999.0000      -9999.0000      -9999.0000
      -9999.0000      -9999.0000      -9999.0000      -9999.0000      0.75655195
      0.75418456      0.70589205      0.71024834      0.52228990      0.53822631
      0.59376957      0.64662511      0.69689533      -9999.0000      -9999.0000
      -9999.0000      -9999.0000      -9999.0000      -9999.0000      -9999.0000
      -9999.0000      -9999.0000      -9999.0000      -9999.0000      -9999.0000
      -9999.0000      -9999.0000      -9999.0000      -9999.0000       0.0000000
      -9999.0000      -9999.0000      -9999.0000      -9999.0000      -9999.0000
      -9999.0000      -9999.0000      -9999.0000      -9999.0000      -9999.0000
      -9999.0000      -9999.0000      -9999.0000      -9999.0000      -9999.0000
      -9999.0000      -9999.0000      -9999.0000      -9999.0000      -9999.0000
      -9999.0000      -9999.0000      -9999.0000      -9999.0000      -9999.0000
      -9999.0000      -9999.0000      -9999.0000      -9999.0000      -9999.0000
      -9999.0000      -9999.0000      -9999.0000      -9999.0000      -9999.0000
      -9999.0000      -9999.0000      -9999.0000      -9999.0000      -9999.0000
      -9999.0000      -9999.0000      -9999.0000      -9999.0000      -9999.0000
      -9999.0000      -9999.0000      -9999.0000      -9999.0000      -9999.0000
      -9999.0000      -9999.0000      -9999.0000      -9999.0000      -9999.0000
      -9999.0000      -9999.0000      -9999.0000      -9999.0000      -9999.0000
      -9999.0000      -9999.0000      -9999.0000      -9999.0000      -9999.0000
      -9999.0000      -9999.0000      -9999.0000      -9999.0000      -9999.0000
      -9999.0000      -9999.0000      -9999.0000      -9999.0000      -9999.0000
      -9999.0000      -9999.0000      -9999.0000      -9999.0000      -9999.0000
      -9999.0000      -9999.0000      -9999.0000      -9999.0000      0.82001089
      0.82267295      0.78611706      0.67691043      0.61850817      0.69378936
      0.74000166      -9999.0000      -9999.0000      -9999.0000      -9999.0000
      -9999.0000      -9999.0000      -9999.0000      -9999.0000      -9999.0000
      -9999.0000      -9999.0000      -9999.0000      -9999.0000      -9999.0000
      -9999.0000      -9999.0000      -9999.0000       0.0000000       0.0000000
       0.0000000       0.0000000      -9999.0000      -9999.0000      -9999.0000
      -9999.0000      -9999.0000      -9999.0000      -9999.0000      -9999.0000
      -9999.0000      -9999.0000      -9999.0000      -9999.0000      -9999.0000
      -9999.0000      -9999.0000      -9999.0000      -9999.0000      -9999.0000
      -9999.0000      -9999.0000      -9999.0000      -9999.0000      -9999.0000
      -9999.0000      -9999.0000      -9999.0000      -9999.0000      -9999.0000
      -9999.0000      -9999.0000      -9999.0000      -9999.0000      -9999.0000
      -9999.0000      -9999.0000      -9999.0000      -9999.0000      -9999.0000
      -9999.0000      -9999.0000      -9999.0000      -9999.0000      -9999.0000
      -9999.0000      -9999.0000      -9999.0000      -9999.0000      -9999.0000
      -9999.0000      -9999.0000      -9999.0000      -9999.0000      -9999.0000
      -9999.0000      -9999.0000      -9999.0000      -9999.0000      -9999.0000
      -9999.0000      -9999.0000      -9999.0000      -9999.0000      -9999.0000
      -9999.0000      -9999.0000      -9999.0000      -9999.0000      -9999.0000
      -9999.0000      -9999.0000      -9999.0000      -9999.0000      -9999.0000
      -9999.0000      -9999.0000      -9999.0000      -9999.0000      -9999.0000
      -9999.0000      -9999.0000      -9999.0000      0.90637413      0.87622639
      0.84952786      0.79530251      0.61248046      0.67996788      0.75971329
      -9999.0000      -9999.0000      -9999.0000      -9999.0000      -9999.0000
      -9999.0000      -9999.0000      -9999.0000      -9999.0000      -9999.0000
      -9999.0000      -9999.0000      -9999.0000      -9999.0000      -9999.0000
      -9999.0000      -9999.0000      0.62036499      0.64270160      0.63077842
      0.59978271       0.0000000      -9999.0000      -9999.0000      -9999.0000
      -9999.0000      -9999.0000      -9999.0000      -9999.0000      -9999.0000
      -9999.0000      -9999.0000      -9999.0000      -9999.0000      -9999.0000
      -9999.0000      -9999.0000      -9999.0000      -9999.0000      -9999.0000
      -9999.0000      -9999.0000      -9999.0000      -9999.0000      -9999.0000
      -9999.0000      -9999.0000      -9999.0000      -9999.0000      -9999.0000
      -9999.0000      -9999.0000      -9999.0000      -9999.0000      -9999.0000
      -9999.0000      -9999.0000      -9999.0000      -9999.0000      -9999.0000
      -9999.0000      -9999.0000      -9999.0000      -9999.0000      -9999.0000
      -9999.0000      -9999.0000      -9999.0000      -9999.0000      -9999.0000
      -9999.0000      -9999.0000      -9999.0000      -9999.0000      -9999.0000
      -9999.0000      -9999.0000      -9999.0000      -9999.0000      -9999.0000
      -9999.0000      -9999.0000      -9999.0000      -9999.0000      -9999.0000
      -9999.0000      -9999.0000      -9999.0000      -9999.0000      -9999.0000
      -9999.0000      -9999.0000      -9999.0000      -9999.0000      -9999.0000
      -9999.0000      -9999.0000      -9999.0000      -9999.0000      -9999.0000
      -9999.0000      -9999.0000      -9999.0000      0.94092951      0.92608703
      0.88705343      0.70090493      0.61863963      -9999.0000      -9999.0000
      -9999.0000      -9999.0000      -9999.0000      -9999.0000      -9999.0000
      -9999.0000      -9999.0000      -9999.0000      -9999.0000      -9999.0000
      -9999.0000      0.81168950      0.77119774      0.73067478      0.70629625
      0.65528544      0.61532699      0.61575736      0.64163244      0.64026703
      0.60649610      0.58484194      -9999.0000      -9999.0000      -9999.0000
      -9999.0000      -9999.0000      -9999.0000      -9999.0000      -9999.0000
      -9999.0000      -9999.0000      -9999.0000      -9999.0000      -9999.0000
      -9999.0000      -9999.0000      -9999.0000      -9999.0000      -9999.0000
      -9999.0000      -9999.0000      -9999.0000      -9999.0000      -9999.0000
      -9999.0000      -9999.0000      -9999.0000      -9999.0000      -9999.0000
      -9999.0000      -9999.0000      -9999.0000      -9999.0000      -9999.0000
      -9999.0000      -9999.0000      -9999.0000      -9999.0000      -9999.0000
      -9999.0000      -9999.0000      -9999.0000      -9999.0000      -9999.0000
      -9999.0000      -9999.0000      -9999.0000      -9999.0000      -9999.0000
      -9999.0000      -9999.0000      -9999.0000      -9999.0000      -9999.0000
      -9999.0000      -9999.0000      -9999.0000      -9999.0000      -9999.0000
      -9999.0000      -9999.0000      -9999.0000      -9999.0000      -9999.0000
      -9999.0000      -9999.0000      -9999.0000      -9999.0000      -9999.0000
      -9999.0000      -9999.0000      -9999.0000      -9999.0000      -9999.0000
      -9999.0000      -9999.0000      -9999.0000      -9999.0000      -9999.0000
      -9999.0000      -9999.0000      0.95166398      0.94741494      0.94991808
      0.86422925      0.68279051      -9999.0000      -9999.0000      -9999.0000
      -9999.0000      -9999.0000      -9999.0000      -9999.0000      -9999.0000
      -9999.0000      -9999.0000      -9999.0000      -9999.0000      -9999.0000
      0.87136032      0.83333722      0.79014495      0.75210932      0.72946012
      0.68753420      0.62493005      0.60373967      0.61872483      0.63900304
      0.61561021      0.59653320      -9999.0000      0.54226224      -9999.0000
      -9999.0000      -9999.0000      -9999.0000      -9999.0000      -9999.0000
      -9999.0000      -9999.0000      -9999.0000      -9999.0000      -9999.0000
      -9999.0000      -9999.0000      -9999.0000      -9999.0000      -9999.0000
      -9999.0000      -9999.0000      -9999.0000      -9999.0000      -9999.0000
      -9999.0000      -9999.0000      -9999.0000      -9999.0000      -9999.0000
      -9999.0000      -9999.0000      -9999.0000      -9999.0000      -9999.0000
      -9999.0000      -9999.0000      -9999.0000      -9999.0000      -9999.0000
      -9999.0000      -9999.0000      -9999.0000      -9999.0000      -9999.0000
      -9999.0000      -9999.0000      -9999.0000      -9999.0000      -9999.0000
      -9999.0000      -9999.0000      -9999.0000      -9999.0000      -9999.0000
      -9999.0000      -9999.0000      -9999.0000      -9999.0000      -9999.0000
      -9999.0000      -9999.0000      -9999.0000      -9999.0000      -9999.0000
      -9999.0000      -9999.0000      -9999.0000      -9999.0000      -9999.0000
      -9999.0000      -9999.0000      -9999.0000      -9999.0000      -9999.0000
      -9999.0000      -9999.0000      -9999.0000      -9999.0000      -9999.0000
      0.86174857      0.94915386      0.95303059      0.91264384      0.88920625
      0.81267093      0.68009576      -9999.0000      -9999.0000      -9999.0000
      -9999.0000      -9999.0000      -9999.0000      -9999.0000      -9999.0000
      0.92817061      0.92458791      -9999.0000      0.94152753      0.93944334
      0.89298203      0.84788038      0.80280832      0.76538012      0.74553094
      0.70770696      0.64025681      0.59816491      0.61115817      0.63645692
      0.63413269      0.60607884      0.59348857      0.55463150      -9999.0000
      -9999.0000      -9999.0000      -9999.0000      -9999.0000      -9999.0000
      -9999.0000      -9999.0000      -9999.0000      -9999.0000      -9999.0000
      -9999.0000      -9999.0000      -9999.0000      -9999.0000      -9999.0000
      -9999.0000      -9999.0000      -9999.0000      -9999.0000      -9999.0000
      -9999.0000      -9999.0000      -9999.0000      -9999.0000      -9999.0000
      -9999.0000      -9999.0000      -9999.0000      -9999.0000      -9999.0000
      -9999.0000      -9999.0000      -9999.0000      -9999.0000      -9999.0000
      -9999.0000      -9999.0000      -9999.0000      -9999.0000      -9999.0000
      -9999.0000      -9999.0000      -9999.0000      -9999.0000      -9999.0000
      -9999.0000      -9999.0000      -9999.0000      -9999.0000      -9999.0000
      -9999.0000      -9999.0000      -9999.0000      -9999.0000      -9999.0000
      -9999.0000      -9999.0000      -9999.0000      -9999.0000      -9999.0000
      -9999.0000      -9999.0000      -9999.0000      -9999.0000      -9999.0000
      -9999.0000      -9999.0000      -9999.0000      -9999.0000      -9999.0000
      -9999.0000      -9999.0000      -9999.0000      -9999.0000      -9999.0000
      0.86997122      0.92966886      0.93712725      0.87944642      0.78035667
      0.63930152      -9999.0000      -9999.0000      -9999.0000      -9999.0000
      -9999.0000       1.0510312      -9999.0000      -9999.0000      0.95942412
      0.95602653      0.95634837      0.96683962      0.97897398      0.97210250
      0.91928094      0.86720683      0.81558472      0.77343311      0.75313486
      0.72959460      0.67394135      0.61229791      0.59744718      0.61327797
      0.63802852      0.62725804      0.60649110      -9999.0000      -9999.0000
      -9999.0000      -9999.0000      -9999.0000      -9999.0000      -9999.0000
      -9999.0000      -9999.0000      -9999.0000      -9999.0000      -9999.0000
      -9999.0000      -9999.0000      -9999.0000      -9999.0000      -9999.0000
      -9999.0000      -9999.0000      -9999.0000      -9999.0000      -9999.0000
      -9999.0000      -9999.0000      -9999.0000      -9999.0000      -9999.0000
      -9999.0000      -9999.0000      -9999.0000      -9999.0000      -9999.0000
      -9999.0000      -9999.0000      -9999.0000      -9999.0000      -9999.0000
      -9999.0000      -9999.0000      -9999.0000      -9999.0000      -9999.0000
      -9999.0000      -9999.0000      -9999.0000      -9999.0000      -9999.0000
      -9999.0000      -9999.0000      -9999.0000      -9999.0000      -9999.0000
      -9999.0000      -9999.0000      -9999.0000      -9999.0000      -9999.0000
      -9999.0000      -9999.0000      -9999.0000      -9999.0000      -9999.0000
      -9999.0000      -9999.0000      -9999.0000      -9999.0000      -9999.0000
      -9999.0000      -9999.0000      -9999.0000      -9999.0000      -9999.0000
      -9999.0000      -9999.0000      -9999.0000      -9999.0000      -9999.0000
      0.83444995      0.86432804      0.85519756      0.78060166      0.65716661
      0.55639230      -9999.0000      -9999.0000      -9999.0000      -9999.0000
      0.99062765       1.1613407      -9999.0000      -9999.0000       1.0157394
      0.97788437      0.98082344      0.98981976      0.99595998      0.99077456
      0.95240741      0.89978522      0.83711924      0.78265465      0.75675896
      0.73601967      0.68836770      0.62696461      0.60842639      0.61789284
      0.64095165      0.65028780      0.63455727      -9999.0000      -9999.0000
      -9999.0000      -9999.0000      -9999.0000      -9999.0000      -9999.0000
      -9999.0000      -9999.0000      -9999.0000      -9999.0000      -9999.0000
      -9999.0000      -9999.0000      -9999.0000      -9999.0000      -9999.0000
      -9999.0000      -9999.0000      -9999.0000      -9999.0000      -9999.0000
      -9999.0000      -9999.0000      -9999.0000      -9999.0000      -9999.0000
      -9999.0000      -9999.0000      -9999.0000      -9999.0000      -9999.0000
      -9999.0000      -9999.0000      -9999.0000      -9999.0000      -9999.0000
      -9999.0000      -9999.0000      -9999.0000      -9999.0000      -9999.0000
      -9999.0000      -9999.0000      -9999.0000      -9999.0000      -9999.0000
      -9999.0000      -9999.0000      -9999.0000      -9999.0000      -9999.0000
      -9999.0000      -9999.0000      -9999.0000      -9999.0000      -9999.0000
      -9999.0000      -9999.0000      -9999.0000      -9999.0000      -9999.0000
      -9999.0000      -9999.0000      -9999.0000      -9999.0000      -9999.0000
      -9999.0000      -9999.0000      -9999.0000      -9999.0000      -9999.0000
      -9999.0000      -9999.0000      -9999.0000      -9999.0000      -9999.0000
      0.72449297      0.80929833      0.83236161      0.75498496      0.66717160
      -9999.0000      -9999.0000      -9999.0000      -9999.0000      -9999.0000
       1.1107772       1.2885314       1.3000107      -9999.0000       1.0599848
      0.99740914      0.99400650      0.99490662      0.99342174      0.98953619
      0.96225479      0.92512806      0.86198560      0.79732212      0.76323480
      0.75453670      0.72301618      0.66262294      0.60826693      0.57752955
      0.59861280      0.63279983      -9999.0000      -9999.0000      -9999.0000
      -9999.0000      -9999.0000      -9999.0000      -9999.0000      -9999.0000
      -9999.0000      -9999.0000      -9999.0000      -9999.0000      -9999.0000
      -9999.0000      -9999.0000      -9999.0000      -9999.0000      -9999.0000
      -9999.0000      -9999.0000      -9999.0000      -9999.0000      -9999.0000
      -9999.0000      -9999.0000      -9999.0000      -9999.0000      -9999.0000
      -9999.0000      -9999.0000      -9999.0000      -9999.0000      -9999.0000
      -9999.0000      -9999.0000      -9999.0000      -9999.0000      -9999.0000
      -9999.0000      -9999.0000      -9999.0000      -9999.0000      -9999.0000
      -9999.0000      -9999.0000      -9999.0000      -9999.0000      -9999.0000
      -9999.0000      -9999.0000      -9999.0000      -9999.0000      -9999.0000
      -9999.0000      -9999.0000      -9999.0000      -9999.0000      -9999.0000
      -9999.0000      -9999.0000      -9999.0000      -9999.0000      -9999.0000
      -9999.0000      -9999.0000      -9999.0000      -9999.0000      -9999.0000
      -9999.0000      -9999.0000      -9999.0000      -9999.0000      -9999.0000
      -9999.0000      -9999.0000      -9999.0000      -9999.0000      -9999.0000
      -9999.0000      0.74081471      0.79337374      0.76131310      -9999.0000
      -9999.0000      -9999.0000      -9999.0000      -9999.0000      -9999.0000
       1.3236040       1.3720753      -9999.0000       1.2548469       1.1573352
       1.0819306       1.0323226       1.0002343      0.99242952      0.98001054
      0.95345381      0.92665742      0.88141719      0.82013145      0.78135967
      0.77500677      0.73957953      0.67821540      0.60511262      0.56898615
      0.59396926      -9999.0000      -9999.0000      -9999.0000      -9999.0000
      -9999.0000      -9999.0000      -9999.0000      -9999.0000      -9999.0000
      -9999.0000      -9999.0000      -9999.0000      -9999.0000      -9999.0000
      -9999.0000      -9999.0000      -9999.0000      -9999.0000      -9999.0000
      -9999.0000      -9999.0000      -9999.0000      -9999.0000      -9999.0000
      -9999.0000      -9999.0000      -9999.0000      -9999.0000      -9999.0000
      -9999.0000      -9999.0000      -9999.0000      -9999.0000      -9999.0000
      -9999.0000      -9999.0000      -9999.0000      -9999.0000      -9999.0000
      -9999.0000      -9999.0000      -9999.0000      -9999.0000      -9999.0000
      -9999.0000      -9999.0000      -9999.0000      -9999.0000      -9999.0000
      -9999.0000      -9999.0000      -9999.0000      -9999.0000      -9999.0000
      -9999.0000      -9999.0000      -9999.0000      -9999.0000      -9999.0000
      -9999.0000      -9999.0000      -9999.0000      -9999.0000      -9999.0000
      -9999.0000      -9999.0000      -9999.0000      -9999.0000      -9999.0000
      -9999.0000      -9999.0000      -9999.0000      -9999.0000      -9999.0000
      -9999.0000      -9999.0000      -9999.0000      -9999.0000      -9999.0000
      -9999.0000      -9999.0000      0.72378176      -9999.0000      -9999.0000
      -9999.0000      -9999.0000      -9999.0000      -9999.0000       1.4146960
       1.5449507       1.4922323       1.4124396       1.3407168       1.3184233
       1.2489789       1.1524348       1.0751529       1.0255341      0.98550560
      0.96460552      0.92330398      0.88675284      0.84769526      0.81941884
      0.80360606      0.76895368      0.70428423      0.60953419       0.0000000
      -9999.0000      -9999.0000      -9999.0000      -9999.0000      -9999.0000
      -9999.0000      -9999.0000      -9999.0000      -9999.0000      -9999.0000
      -9999.0000      -9999.0000      -9999.0000      -9999.0000      -9999.0000
      -9999.0000      -9999.0000      -9999.0000      -9999.0000      -9999.0000
      -9999.0000      -9999.0000      -9999.0000      -9999.0000      -9999.0000
      -9999.0000      -9999.0000      -9999.0000      -9999.0000      -9999.0000
      -9999.0000      -9999.0000      -9999.0000      -9999.0000      -9999.0000
      -9999.0000      -9999.0000      -9999.0000      -9999.0000      -9999.0000
      -9999.0000      -9999.0000      -9999.0000      -9999.0000      -9999.0000
      -9999.0000      -9999.0000      -9999.0000      -9999.0000      -9999.0000
      -9999.0000      -9999.0000      -9999.0000      -9999.0000      -9999.0000
      -9999.0000      -9999.0000      -9999.0000      -9999.0000      -9999.0000
      -9999.0000      -9999.0000      -9999.0000      -9999.0000      -9999.0000
      -9999.0000      -9999.0000      -9999.0000      -9999.0000      -9999.0000
      -9999.0000      -9999.0000      -9999.0000      -9999.0000      -9999.0000
      -9999.0000      -9999.0000      -9999.0000      -9999.0000      -9999.0000
      -9999.0000      -9999.0000      -9999.0000      -9999.0000      -9999.0000
      -9999.0000      -9999.0000      -9999.0000      -9999.0000      -9999.0000
       1.7107330       1.6257889      -9999.0000       1.3828356       1.3680843
       1.3579220       1.3142435       1.2457399       1.1683961       1.0917830
       1.0193630      0.93124196      0.89444270      0.86080507      0.83755251
      0.82111020      0.77749082       0.0000000      -9999.0000      -9999.0000
      -9999.0000      -9999.0000      -9999.0000      -9999.0000      -9999.0000
      -9999.0000      -9999.0000      -9999.0000      -9999.0000      -9999.0000
      -9999.0000      -9999.0000      -9999.0000      -9999.0000      -9999.0000
      -9999.0000      -9999.0000      -9999.0000      -9999.0000      -9999.0000
      -9999.0000      -9999.0000      -9999.0000      -9999.0000      -9999.0000
      -9999.0000      -9999.0000      -9999.0000      -9999.0000      -9999.0000
      -9999.0000      -9999.0000      -9999.0000      -9999.0000      -9999.0000
      -9999.0000      -9999.0000      -9999.0000      -9999.0000      -9999.0000
      -9999.0000      -9999.0000      -9999.0000      -9999.0000      -9999.0000
      -9999.0000      -9999.0000      -9999.0000      -9999.0000      -9999.0000
      -9999.0000      -9999.0000      -9999.0000      -9999.0000      -9999.0000
      -9999.0000      -9999.0000      -9999.0000      -9999.0000      -9999.0000
      -9999.0000      -9999.0000      -9999.0000      -9999.0000      -9999.0000
      -9999.0000      -9999.0000      -9999.0000      -9999.0000      -9999.0000
      -9999.0000      -9999.0000      -9999.0000      -9999.0000      -9999.0000
      -9999.0000      -9999.0000      -9999.0000      -9999.0000      -9999.0000
      -9999.0000      -9999.0000      -9999.0000      -9999.0000      -9999.0000
      -9999.0000      -9999.0000      -9999.0000      -9999.0000      -9999.0000
       1.8257427      -9999.0000       1.6193841       1.4644810       1.3965240
       1.3811077       1.3756135       1.3711574       1.3276670       1.2730286
       1.1973708       1.0713076      0.92585870      0.87277944      0.84567202
      0.82745179       0.0000000      -9999.0000      -9999.0000      -9999.0000
      -9999.0000      -9999.0000      -9999.0000      -9999.0000      -9999.0000
      -9999.0000      -9999.0000      -9999.0000      -9999.0000      -9999.0000
      -9999.0000      -9999.0000      -9999.0000      -9999.0000      -9999.0000
      -9999.0000      -9999.0000      -9999.0000      -9999.0000      -9999.0000
      -9999.0000      -9999.0000      -9999.0000      -9999.0000      -9999.0000
      -9999.0000      -9999.0000      -9999.0000      -9999.0000      -9999.0000
      -9999.0000      -9999.0000      -9999.0000      -9999.0000      -9999.0000
      -9999.0000      -9999.0000      -9999.0000      -9999.0000      -9999.0000
      -9999.0000      -9999.0000      -9999.0000      -9999.0000      -9999.0000
      -9999.0000      -9999.0000      -9999.0000      -9999.0000      -9999.0000
      -9999.0000      -9999.0000      -9999.0000      -9999.0000      -9999.0000
      -9999.0000      -9999.0000      -9999.0000      -9999.0000      -9999.0000
      -9999.0000      -9999.0000      -9999.0000      -9999.0000      -9999.0000
      -9999.0000      -9999.0000      -9999.0000      -9999.0000      -9999.0000
      -9999.0000      -9999.0000      -9999.0000      -9999.0000      -9999.0000
      -9999.0000      -9999.0000      -9999.0000      -9999.0000      -9999.0000
      -9999.0000      -9999.0000      -9999.0000      -9999.0000      -9999.0000
      -9999.0000      -9999.0000      -9999.0000      -9999.0000      -9999.0000
      -9999.0000      -9999.0000      -9999.0000      -9999.0000       1.5063497
       1.4364641       1.4446448       1.4585353       1.4316341       1.3814921
       1.3284399       1.2781316       1.1503197      0.99720892      0.87296723
       0.0000000      -9999.0000      -9999.0000      -9999.0000      -9999.0000
      -9999.0000      -9999.0000      -9999.0000      -9999.0000      -9999.0000
      -9999.0000      -9999.0000      -9999.0000      -9999.0000      -9999.0000
      -9999.0000      -9999.0000      -9999.0000      -9999.0000      -9999.0000
      -9999.0000      -9999.0000      -9999.0000      -9999.0000      -9999.0000
      -9999.0000      -9999.0000      -9999.0000      -9999.0000      -9999.0000
      -9999.0000      -9999.0000      -9999.0000      -9999.0000      -9999.0000
      -9999.0000      -9999.0000      -9999.0000      -9999.0000      -9999.0000
      -9999.0000      -9999.0000      -9999.0000      -9999.0000      -9999.0000
      -9999.0000      -9999.0000      -9999.0000      -9999.0000      -9999.0000
      -9999.0000      -9999.0000      -9999.0000      -9999.0000      -9999.0000
      -9999.0000      -9999.0000      -9999.0000      -9999.0000      -9999.0000
      -9999.0000      -9999.0000      -9999.0000      -9999.0000      -9999.0000
      -9999.0000      -9999.0000      -9999.0000      -9999.0000      -9999.0000
      -9999.0000      -9999.0000      -9999.0000      -9999.0000      -9999.0000
      -9999.0000      -9999.0000      -9999.0000      -9999.0000      -9999.0000
      -9999.0000      -9999.0000      -9999.0000      -9999.0000      -9999.0000
      -9999.0000      -9999.0000      -9999.0000      -9999.0000      -9999.0000
      -9999.0000      -9999.0000      -9999.0000      -9999.0000      -9999.0000
      -9999.0000      -9999.0000      -9999.0000       1.7277892       1.6461180
       1.5991664       1.6012510       1.6168822       1.5910764       1.5092589
       1.4257911       1.3759946       1.3124009       1.2476060       0.0000000
       0.0000000      -9999.0000      -9999.0000      -9999.0000      -9999.0000
      -9999.0000      -9999.0000      -9999.0000      -9999.0000      -9999.0000
      -9999.0000      -9999.0000      -9999.0000      -9999.0000      -9999.0000
      -9999.0000      -9999.0000      -9999.0000      -9999.0000      -9999.0000
      -9999.0000      -9999.0000      -9999.0000      -9999.0000      -9999.0000
      -9999.0000      -9999.0000      -9999.0000      -9999.0000      -9999.0000
      -9999.0000      -9999.0000      -9999.0000      -9999.0000      -9999.0000
      -9999.0000      -9999.0000      -9999.0000      -9999.0000      -9999.0000
      -9999.0000      -9999.0000      -9999.0000      -9999.0000      -9999.0000
      -9999.0000      -9999.0000      -9999.0000      -9999.0000      -9999.0000
      -9999.0000      -9999.0000      -9999.0000      -9999.0000      -9999.0000
      -9999.0000      -9999.0000      -9999.0000      -9999.0000      -9999.0000
      -9999.0000      -9999.0000      -9999.0000      -9999.0000      -9999.0000
      -9999.0000      -9999.0000      -9999.0000      -9999.0000      -9999.0000
      -9999.0000      -9999.0000      -9999.0000      -9999.0000      -9999.0000
      -9999.0000      -9999.0000      -9999.0000      -9999.0000      -9999.0000
      -9999.0000      -9999.0000      -9999.0000      -9999.0000      -9999.0000
      -9999.0000      -9999.0000      -9999.0000      -9999.0000      -9999.0000
      -9999.0000      -9999.0000      -9999.0000      -9999.0000      -9999.0000
      -9999.0000      -9999.0000      -9999.0000      -9999.0000       1.7023421
       1.6592935       1.6789897       1.7043748       1.7217891       1.6688499
       1.5930854       1.5244713       1.4814394       0.0000000       0.0000000
      -9999.0000      -9999.0000      -9999.0000      -9999.0000      -9999.0000
      -9999.0000      -9999.0000      -9999.0000      -9999.0000      -9999.0000
      -9999.0000      -9999.0000      -9999.0000      -9999.0000      -9999.0000
      -9999.0000      -9999.0000      -9999.0000      -9999.0000      -9999.0000
      -9999.0000      -9999.0000      -9999.0000      -9999.0000      -9999.0000
      -9999.0000      -9999.0000      -9999.0000      -9999.0000      -9999.0000
      -9999.0000      -9999.0000      -9999.0000      -9999.0000      -9999.0000
      -9999.0000      -9999.0000      -9999.0000      -9999.0000      -9999.0000
      -9999.0000      -9999.0000      -9999.0000      -9999.0000      -9999.0000
      -9999.0000      -9999.0000      -9999.0000      -9999.0000      -9999.0000
      -9999.0000      -9999.0000      -9999.0000      -9999.0000      -9999.0000
      -9999.0000      -9999.0000      -9999.0000      -9999.0000      -9999.0000
      -9999.0000      -9999.0000      -9999.0000      -9999.0000      -9999.0000
      -9999.0000      -9999.0000      -9999.0000      -9999.0000      -9999.0000
      -9999.0000      -9999.0000      -9999.0000      -9999.0000      -9999.0000
      -9999.0000      -9999.0000      -9999.0000      -9999.0000      -9999.0000
      -9999.0000      -9999.0000      -9999.0000      -9999.0000      -9999.0000
      -9999.0000      -9999.0000      -9999.0000      -9999.0000      -9999.0000
      -9999.0000      -9999.0000      -9999.0000      -9999.0000      -9999.0000
      -9999.0000      -9999.0000      -9999.0000      -9999.0000      -9999.0000
      -9999.0000      -9999.0000      -9999.0000      -9999.0000       0.0000000
       0.0000000       0.0000000       0.0000000      -9999.0000      -9999.0000
      -9999.0000      -9999.0000      -9999.0000      -9999.0000      -9999.0000
      -9999.0000      -9999.0000      -9999.0000      -9999.0000      -9999.0000
      -9999.0000      -9999.0000      -9999.0000      -9999.0000      -9999.0000
      -9999.0000      -9999.0000      -9999.0000      -9999.0000      -9999.0000
      -9999.0000      -9999.0000      -9999.0000      -9999.0000      -9999.0000
      -9999.0000      -9999.0000      -9999.0000      -9999.0000      -9999.0000
      -9999.0000      -9999.0000      -9999.0000      -9999.0000      -9999.0000
      -9999.0000      -9999.0000      -9999.0000      -9999.0000      -9999.0000
      -9999.0000      -9999.0000      -9999.0000      -9999.0000      -9999.0000
      -9999.0000      -9999.0000      -9999.0000      -9999.0000      -9999.0000
      -9999.0000      -9999.0000      -9999.0000      -9999.0000      -9999.0000
      -9999.0000      -9999.0000      -9999.0000      -9999.0000      -9999.0000
      -9999.0000      -9999.0000      -9999.0000      -9999.0000      -9999.0000
      -9999.0000      -9999.0000      -9999.0000      -9999.0000      -9999.0000
      -9999.0000      -9999.0000      -9999.0000      -9999.0000      -9999.0000
      -9999.0000      -9999.0000      -9999.0000      -9999.0000      -9999.0000
      -9999.0000      -9999.0000      -9999.0000      -9999.0000      -9999.0000
      -9999.0000      -9999.0000      -9999.0000      -9999.0000      -9999.0000
      -9999.0000      -9999.0000      -9999.0000      -9999.0000      -9999.0000
      -9999.0000      -9999.0000      -9999.0000      -9999.0000      -9999.0000
      -9999.0000      -9999.0000      -9999.0000      -9999.0000      -9999.0000
      -9999.0000      -9999.0000      -9999.0000      -9999.0000      -9999.0000
      -9999.0000      -9999.0000      -9999.0000      -9999.0000      -9999.0000
      -9999.0000      -9999.0000      -9999.0000      -9999.0000      -9999.0000
      -9999.0000      -9999.0000      -9999.0000      -9999.0000      -9999.0000
      -9999.0000      -9999.0000      -9999.0000      -9999.0000      -9999.0000
      -9999.0000      -9999.0000      -9999.0000      -9999.0000      -9999.0000
      -9999.0000      -9999.0000      -9999.0000      -9999.0000      -9999.0000
      -9999.0000      -9999.0000      -9999.0000      -9999.0000      -9999.0000
      -9999.0000      -9999.0000      -9999.0000      -9999.0000      -9999.0000
      -9999.0000      -9999.0000      -9999.0000      -9999.0000      -9999.0000
      -9999.0000      -9999.0000      -9999.0000      -9999.0000      -9999.0000
      -9999.0000      -9999.0000      -9999.0000      -9999.0000      -9999.0000
      -9999.0000      -9999.0000      -9999.0000      -9999.0000      -9999.0000
      -9999.0000      -9999.0000      -9999.0000      -9999.0000      -9999.0000
      -9999.0000      -9999.0000      -9999.0000      -9999.0000      -9999.0000
      -9999.0000      -9999.0000      -9999.0000      -9999.0000      -9999.0000
      -9999.0000      -9999.0000      -9999.0000      -9999.0000      -9999.0000
      -9999.0000      -9999.0000      -9999.0000      -9999.0000      -9999.0000
      -9999.0000      -9999.0000      -9999.0000      -9999.0000      -9999.0000
      -9999.0000      -9999.0000      -9999.0000      -9999.0000      -9999.0000
      -9999.0000      -9999.0000      -9999.0000      -9999.0000      -9999.0000
      -9999.0000      -9999.0000      -9999.0000      -9999.0000      -9999.0000
      -9999.0000      -9999.0000      -9999.0000      -9999.0000      -9999.0000
      -9999.0000      -9999.0000      -9999.0000      -9999.0000      -9999.0000
      -9999.0000      -9999.0000      -9999.0000      -9999.0000      -9999.0000
      -9999.0000      -9999.0000      -9999.0000      -9999.0000      -9999.0000
      -9999.0000      -9999.0000      -9999.0000      -9999.0000      -9999.0000
      -9999.0000      -9999.0000      -9999.0000      -9999.0000      -9999.0000
      -9999.0000      -9999.0000      -9999.0000      -9999.0000      -9999.0000
      -9999.0000      -9999.0000      -9999.0000      -9999.0000      -9999.0000
      -9999.0000      -9999.0000      -9999.0000      -9999.0000      -9999.0000
      -9999.0000      -9999.0000      -9999.0000      -9999.0000      -9999.0000
      -9999.0000      -9999.0000      -9999.0000      -9999.0000      -9999.0000
      -9999.0000      -9999.0000      -9999.0000      -9999.0000      -9999.0000
      -9999.0000      -9999.0000      -9999.0000      -9999.0000      -9999.0000
      -9999.0000      -9999.0000      -9999.0000      -9999.0000      -9999.0000
      -9999.0000      -9999.0000      -9999.0000      -9999.0000      -9999.0000
      -9999.0000      -9999.0000      -9999.0000      -9999.0000      -9999.0000
      -9999.0000      -9999.0000      -9999.0000      -9999.0000      -9999.0000
      -9999.0000      -9999.0000      -9999.0000      -9999.0000      -9999.0000
      -9999.0000      -9999.0000      -9999.0000      -9999.0000      -9999.0000
      -9999.0000      -9999.0000      -9999.0000      -9999.0000      -9999.0000
      -9999.0000      -9999.0000      -9999.0000      -9999.0000      -9999.0000
      -9999.0000      -9999.0000      -9999.0000      -9999.0000      -9999.0000
      -9999.0000      -9999.0000      -9999.0000      -9999.0000      -9999.0000
      -9999.0000      -9999.0000      -9999.0000      -9999.0000      -9999.0000
      -9999.0000      -9999.0000      -9999.0000      -9999.0000      -9999.0000
      -9999.0000      -9999.0000      -9999.0000      -9999.0000      -9999.0000
      -9999.0000      -9999.0000      -9999.0000      -9999.0000      -9999.0000
      -9999.0000      -9999.0000      -9999.0000      -9999.0000      -9999.0000
      -9999.0000      -9999.0000      -9999.0000      -9999.0000      -9999.0000
      -9999.0000      -9999.0000      -9999.0000      -9999.0000      -9999.0000
      -9999.0000      -9999.0000      -9999.0000      -9999.0000      -9999.0000
      -9999.0000      -9999.0000      -9999.0000      -9999.0000      -9999.0000
      -9999.0000      -9999.0000      -9999.0000      -9999.0000      -9999.0000
      -9999.0000      -9999.0000      -9999.0000      -9999.0000      -9999.0000
      -9999.0000      -9999.0000      -9999.0000      -9999.0000      -9999.0000
      -9999.0000      -9999.0000      -9999.0000      -9999.0000      -9999.0000
      -9999.0000      -9999.0000      -9999.0000      -9999.0000      -9999.0000
      -9999.0000      -9999.0000      -9999.0000      -9999.0000      -9999.0000
      -9999.0000      -9999.0000      -9999.0000      -9999.0000      -9999.0000
      -9999.0000      -9999.0000      -9999.0000      -9999.0000      -9999.0000
      -9999.0000      -9999.0000      -9999.0000      -9999.0000      -9999.0000
      -9999.0000      -9999.0000      -9999.0000      -9999.0000      -9999.0000
      -9999.0000      -9999.0000      -9999.0000      -9999.0000      -9999.0000
      -9999.0000      -9999.0000      -9999.0000      -9999.0000      -9999.0000
      -9999.0000      -9999.0000      -9999.0000      -9999.0000      -9999.0000
      -9999.0000      -9999.0000      -9999.0000      -9999.0000      -9999.0000
      -9999.0000      -9999.0000      -9999.0000      -9999.0000      -9999.0000
      -9999.0000      -9999.0000      -9999.0000      -9999.0000      -9999.0000
      -9999.0000      -9999.0000      -9999.0000      -9999.0000      -9999.0000
      -9999.0000      -9999.0000      -9999.0000      -9999.0000      -9999.0000
      -9999.0000      -9999.0000      -9999.0000      -9999.0000      -9999.0000
      -9999.0000      -9999.0000      -9999.0000      -9999.0000      -9999.0000
      -9999.0000      -9999.0000      -9999.0000      -9999.0000      -9999.0000
      -9999.0000      -9999.0000      -9999.0000      -9999.0000      -9999.0000
      -9999.0000      -9999.0000      -9999.0000      -9999.0000      -9999.0000
      -9999.0000      -9999.0000      -9999.0000      -9999.0000      -9999.0000
      -9999.0000      -9999.0000      -9999.0000      -9999.0000      -9999.0000
      -9999.0000      -9999.0000      -9999.0000      -9999.0000      -9999.0000
      -9999.0000      -9999.0000      -9999.0000      -9999.0000      -9999.0000
      -9999.0000      -9999.0000      -9999.0000      -9999.0000      -9999.0000
      -9999.0000      -9999.0000      -9999.0000      -9999.0000      -9999.0000
      -9999.0000      -9999.0000      -9999.0000      -9999.0000      -9999.0000
      -9999.0000      -9999.0000      -9999.0000      -9999.0000      -9999.0000
      -9999.0000      -9999.0000      -9999.0000      -9999.0000      -9999.0000
      -9999.0000      -9999.0000      -9999.0000      -9999.0000      -9999.0000
      -9999.0000      -9999.0000      -9999.0000      -9999.0000      -9999.0000
      -9999.0000      -9999.0000      -9999.0000      -9999.0000      -9999.0000
      -9999.0000      -9999.0000      -9999.0000      -9999.0000      -9999.0000
      -9999.0000      -9999.0000      -9999.0000      -9999.0000      -9999.0000
      -9999.0000      -9999.0000      -9999.0000      -9999.0000      -9999.0000
      -9999.0000      -9999.0000      -9999.0000      -9999.0000      -9999.0000
      -9999.0000      -9999.0000      -9999.0000      -9999.0000      -9999.0000
      -9999.0000      -9999.0000      -9999.0000      -9999.0000      -9999.0000
      -9999.0000      -9999.0000      -9999.0000      -9999.0000      -9999.0000
      -9999.0000      -9999.0000      -9999.0000      -9999.0000      -9999.0000
      -9999.0000      -9999.0000      -9999.0000      -9999.0000      -9999.0000
      -9999.0000      -9999.0000      -9999.0000      -9999.0000      -9999.0000
      -9999.0000      -9999.0000      -9999.0000      -9999.0000      -9999.0000
      -9999.0000      -9999.0000      -9999.0000      -9999.0000      -9999.0000
      -9999.0000      -9999.0000      -9999.0000      -9999.0000      -9999.0000
      -9999.0000      -9999.0000      -9999.0000      -9999.0000      -9999.0000
      -9999.0000      -9999.0000      -9999.0000      -9999.0000      -9999.0000
      -9999.0000      -9999.0000      -9999.0000      -9999.0000      -9999.0000
      -9999.0000      -9999.0000      -9999.0000      -9999.0000      -9999.0000
      -9999.0000      -9999.0000      -9999.0000      -9999.0000      -9999.0000
      -9999.0000      -9999.0000      -9999.0000      -9999.0000      -9999.0000
      -9999.0000      -9999.0000      -9999.0000      -9999.0000      -9999.0000
      -9999.0000      -9999.0000      -9999.0000      -9999.0000      -9999.0000
      -9999.0000      -9999.0000      -9999.0000      -9999.0000      -9999.0000
      -9999.0000      -9999.0000      -9999.0000      -9999.0000      -9999.0000
      -9999.0000      -9999.0000      -9999.0000      -9999.0000      -9999.0000
      -9999.0000      -9999.0000      -9999.0000      -9999.0000      -9999.0000
      -9999.0000      -9999.0000      -9999.0000      -9999.0000      -9999.0000
      -9999.0000      -9999.0000      -9999.0000      -9999.0000      -9999.0000
      -9999.0000      -9999.0000      -9999.0000      -9999.0000      -9999.0000
      -9999.0000      -9999.0000      -9999.0000      -9999.0000      -9999.0000
      -9999.0000      -9999.0000      -9999.0000      -9999.0000      -9999.0000
      -9999.0000      -9999.0000      -9999.0000      -9999.0000      -9999.0000
      -9999.0000      -9999.0000      -9999.0000      -9999.0000      -9999.0000
      -9999.0000      -9999.0000      -9999.0000      -9999.0000      -9999.0000
      -9999.0000      -9999.0000      -9999.0000      -9999.0000      -9999.0000
      -9999.0000      -9999.0000      -9999.0000      -9999.0000      -9999.0000
      -9999.0000      -9999.0000      -9999.0000      -9999.0000      -9999.0000
      -9999.0000      -9999.0000      -9999.0000      -9999.0000      -9999.0000
      -9999.0000      -9999.0000      -9999.0000      -9999.0000      -9999.0000
      -9999.0000      -9999.0000      -9999.0000      -9999.0000      -9999.0000
      -9999.0000      -9999.0000      -9999.0000      -9999.0000      -9999.0000
      -9999.0000      -9999.0000      -9999.0000      -9999.0000      -9999.0000
      -9999.0000      -9999.0000      -9999.0000      -9999.0000      -9999.0000
      -9999.0000      -9999.0000      -9999.0000      -9999.0000      -9999.0000
      -9999.0000      -9999.0000      -9999.0000      -9999.0000      -9999.0000
      -9999.0000      -9999.0000      -9999.0000      -9999.0000      -9999.0000
      -9999.0000      -9999.0000      -9999.0000      -9999.0000      -9999.0000
      -9999.0000      -9999.0000      -9999.0000      -9999.0000      -9999.0000
      -9999.0000      -9999.0000      -9999.0000      -9999.0000      -9999.0000
      -9999.0000      -9999.0000      -9999.0000      -9999.0000      -9999.0000
      -9999.0000      -9999.0000      -9999.0000      -9999.0000      -9999.0000
      -9999.0000      -9999.0000      -9999.0000      -9999.0000      -9999.0000
      -9999.0000      -9999.0000      -9999.0000      -9999.0000      -9999.0000
      -9999.0000      -9999.0000      -9999.0000      -9999.0000      -9999.0000
      -9999.0000      -9999.0000      -9999.0000      -9999.0000      -9999.0000
      -9999.0000      -9999.0000      -9999.0000      -9999.0000      -9999.0000
      -9999.0000      -9999.0000      -9999.0000      -9999.0000      -9999.0000
      -9999.0000      -9999.0000      -9999.0000      -9999.0000      -9999.0000
      -9999.0000      -9999.0000      -9999.0000      -9999.0000      -9999.0000
      -9999.0000      -9999.0000      -9999.0000      -9999.0000      -9999.0000
      -9999.0000      -9999.0000      -9999.0000      -9999.0000      -9999.0000
      -9999.0000      -9999.0000      -9999.0000      -9999.0000      -9999.0000
      -9999.0000      -9999.0000      -9999.0000      -9999.0000      -9999.0000
      -9999.0000      -9999.0000      -9999.0000      -9999.0000      -9999.0000
      -9999.0000      -9999.0000      -9999.0000      -9999.0000      -9999.0000
      -9999.0000      -9999.0000      -9999.0000      -9999.0000      -9999.0000
      -9999.0000      -9999.0000      -9999.0000      -9999.0000      -9999.0000
      -9999.0000      -9999.0000      -9999.0000      -9999.0000      -9999.0000
      -9999.0000      -9999.0000      -9999.0000      -9999.0000      -9999.0000
      -9999.0000      -9999.0000      -9999.0000      -9999.0000      -9999.0000
      -9999.0000      -9999.0000      -9999.0000      -9999.0000      -9999.0000
      -9999.0000      -9999.0000      -9999.0000      -9999.0000      -9999.0000
      -9999.0000      -9999.0000      -9999.0000      -9999.0000      -9999.0000
      -9999.0000      -9999.0000      -9999.0000      -9999.0000      -9999.0000
      -9999.0000      -9999.0000      -9999.0000      -9999.0000      -9999.0000
      -9999.0000      -9999.0000      -9999.0000      -9999.0000      -9999.0000
      -9999.0000      -9999.0000      -9999.0000      -9999.0000      -9999.0000
      -9999.0000      -9999.0000      -9999.0000      -9999.0000      -9999.0000
      -9999.0000      -9999.0000      -9999.0000      -9999.0000      -9999.0000
      -9999.0000      -9999.0000      -9999.0000      -9999.0000      -9999.0000
      -9999.0000      -9999.0000      -9999.0000      -9999.0000      -9999.0000
      -9999.0000      -9999.0000      -9999.0000      -9999.0000      -9999.0000
      -9999.0000      -9999.0000      -9999.0000      -9999.0000      -9999.0000
      -9999.0000      -9999.0000      -9999.0000      -9999.0000      -9999.0000
      -9999.0000      -9999.0000      -9999.0000      -9999.0000      -9999.0000
      -9999.0000      -9999.0000      -9999.0000      -9999.0000      -9999.0000
      -9999.0000      -9999.0000      -9999.0000      -9999.0000      -9999.0000
      -9999.0000      -9999.0000      -9999.0000      -9999.0000      -9999.0000
      -9999.0000      -9999.0000      -9999.0000      -9999.0000      -9999.0000
      -9999.0000      -9999.0000      -9999.0000      -9999.0000      -9999.0000
      -9999.0000      -9999.0000      -9999.0000      -9999.0000      -9999.0000
      -9999.0000      -9999.0000      -9999.0000      -9999.0000      -9999.0000
      -9999.0000      -9999.0000      -9999.0000      -9999.0000      -9999.0000
      -9999.0000      -9999.0000      -9999.0000      -9999.0000      -9999.0000
      -9999.0000      -9999.0000      -9999.0000      -9999.0000      -9999.0000
      -9999.0000      -9999.0000      -9999.0000      -9999.0000      -9999.0000
      -9999.0000      -9999.0000      -9999.0000      -9999.0000      -9999.0000
      -9999.0000      -9999.0000      -9999.0000      -9999.0000      -9999.0000
      -9999.0000      -9999.0000      -9999.0000      -9999.0000      -9999.0000
      -9999.0000      -9999.0000      -9999.0000      -9999.0000      -9999.0000
      -9999.0000      -9999.0000      -9999.0000      -9999.0000      -9999.0000
      -9999.0000      -9999.0000      -9999.0000      -9999.0000      -9999.0000
      -9999.0000      -9999.0000      -9999.0000      -9999.0000      -9999.0000
      -9999.0000      -9999.0000      -9999.0000      -9999.0000      -9999.0000
      -9999.0000      -9999.0000      -9999.0000      -9999.0000      -9999.0000
      -9999.0000      -9999.0000      -9999.0000      -9999.0000      -9999.0000
      -9999.0000      -9999.0000      -9999.0000      -9999.0000      -9999.0000
      -9999.0000      -9999.0000      -9999.0000      -9999.0000      -9999.0000
      -9999.0000      -9999.0000      -9999.0000      -9999.0000      -9999.0000
      -9999.0000      -9999.0000      -9999.0000      -9999.0000      -9999.0000
      -9999.0000      -9999.0000      -9999.0000      -9999.0000      -9999.0000
      -9999.0000      -9999.0000      -9999.0000      -9999.0000      -9999.0000
      -9999.0000      -9999.0000      -9999.0000      -9999.0000      -9999.0000
      -9999.0000      -9999.0000      -9999.0000      -9999.0000      -9999.0000
      -9999.0000      -9999.0000      -9999.0000      -9999.0000      -9999.0000
      -9999.0000      -9999.0000      -9999.0000      -9999.0000      -9999.0000
      -9999.0000      -9999.0000      -9999.0000      -9999.0000      -9999.0000
      -9999.0000      -9999.0000      -9999.0000      -9999.0000      -9999.0000
      -9999.0000      -9999.0000      -9999.0000      -9999.0000      -9999.0000
      -9999.0000      -9999.0000      -9999.0000      -9999.0000      -9999.0000
      -9999.0000      -9999.0000      -9999.0000      -9999.0000      -9999.0000
      -9999.0000      -9999.0000      -9999.0000      -9999.0000      -9999.0000
      -9999.0000      -9999.0000      -9999.0000      -9999.0000      -9999.0000
      -9999.0000      -9999.0000      -9999.0000      -9999.0000      -9999.0000
      -9999.0000      -9999.0000      -9999.0000      -9999.0000      -9999.0000
      -9999.0000      -9999.0000      -9999.0000      -9999.0000      -9999.0000
      -9999.0000      -9999.0000      -9999.0000      -9999.0000      -9999.0000
      -9999.0000      -9999.0000      -9999.0000      -9999.0000      -9999.0000
      -9999.0000      -9999.0000      -9999.0000      -9999.0000      -9999.0000
      -9999.0000      -9999.0000      -9999.0000      -9999.0000      -9999.0000
      -9999.0000      -9999.0000      -9999.0000      -9999.0000      -9999.0000
      -9999.0000      -9999.0000      -9999.0000      -9999.0000      -9999.0000
      -9999.0000      -9999.0000      -9999.0000      -9999.0000      -9999.0000
      -9999.0000      -9999.0000      -9999.0000      -9999.0000      -9999.0000
      -9999.0000      -9999.0000      -9999.0000      -9999.0000      -9999.0000
      -9999.0000      -9999.0000      -9999.0000      -9999.0000      -9999.0000
      -9999.0000      -9999.0000      -9999.0000      -9999.0000      -9999.0000
      -9999.0000      -9999.0000      -9999.0000      -9999.0000      -9999.0000
      -9999.0000      -9999.0000      -9999.0000      -9999.0000      -9999.0000
      -9999.0000      -9999.0000      -9999.0000      -9999.0000      -9999.0000
      -9999.0000      -9999.0000      -9999.0000      -9999.0000      -9999.0000
      -9999.0000      -9999.0000      -9999.0000      -9999.0000      -9999.0000
      -9999.0000      -9999.0000      -9999.0000      -9999.0000      -9999.0000
      -9999.0000      -9999.0000      -9999.0000      -9999.0000      -9999.0000
      -9999.0000      -9999.0000      -9999.0000      -9999.0000      -9999.0000
      -9999.0000      -9999.0000      -9999.0000      -9999.0000      -9999.0000
      -9999.0000      -9999.0000      -9999.0000      -9999.0000      -9999.0000
      -9999.0000      -9999.0000      -9999.0000      -9999.0000      -9999.0000
      -9999.0000      -9999.0000      -9999.0000      -9999.0000      -9999.0000
      -9999.0000      -9999.0000      -9999.0000      -9999.0000      -9999.0000
      -9999.0000      -9999.0000      -9999.0000      -9999.0000      -9999.0000
      -9999.0000      -9999.0000      -9999.0000      -9999.0000      -9999.0000
      -9999.0000      -9999.0000      -9999.0000      -9999.0000      -9999.0000
      -9999.0000      -9999.0000      -9999.0000      -9999.0000      -9999.0000
      -9999.0000      -9999.0000      -9999.0000      -9999.0000      -9999.0000
      -9999.0000      -9999.0000      -9999.0000      -9999.0000      -9999.0000
      -9999.0000      -9999.0000      -9999.0000      -9999.0000      -9999.0000
      -9999.0000      -9999.0000      -9999.0000      -9999.0000      -9999.0000
      -9999.0000      -9999.0000      -9999.0000      -9999.0000      -9999.0000
      -9999.0000      -9999.0000      -9999.0000      -9999.0000      -9999.0000
      -9999.0000      -9999.0000      -9999.0000      -9999.0000      -9999.0000
      -9999.0000      -9999.0000      -9999.0000      -9999.0000      -9999.0000
      -9999.0000      -9999.0000      -9999.0000      -9999.0000      -9999.0000
      -9999.0000      -9999.0000      -9999.0000      -9999.0000      -9999.0000
      -9999.0000      -9999.0000      -9999.0000      -9999.0000      -9999.0000
      -9999.0000      -9999.0000      -9999.0000      -9999.0000      -9999.0000
      -9999.0000      -9999.0000      -9999.0000      -9999.0000      -9999.0000
      -9999.0000      -9999.0000      -9999.0000      -9999.0000      -9999.0000
      -9999.0000      -9999.0000      -9999.0000      -9999.0000      -9999.0000
      -9999.0000      -9999.0000      -9999.0000      -9999.0000      -9999.0000
      -9999.0000      -9999.0000      -9999.0000      -9999.0000      -9999.0000
      -9999.0000      -9999.0000      -9999.0000      -9999.0000      -9999.0000
      -9999.0000      -9999.0000      -9999.0000      -9999.0000      -9999.0000
      -9999.0000      -9999.0000      -9999.0000      -9999.0000      -9999.0000
      -9999.0000      -9999.0000      -9999.0000      -9999.0000      -9999.0000
      -9999.0000      -9999.0000      -9999.0000      -9999.0000      -9999.0000
      -9999.0000      -9999.0000      -9999.0000      -9999.0000      -9999.0000
      -9999.0000      -9999.0000      -9999.0000      -9999.0000      -9999.0000
      -9999.0000      -9999.0000      -9999.0000      -9999.0000      -9999.0000
      -9999.0000      -9999.0000      -9999.0000      -9999.0000      -9999.0000
      -9999.0000      -9999.0000      -9999.0000      -9999.0000      -9999.0000
      -9999.0000      -9999.0000      -9999.0000      -9999.0000      -9999.0000
      -9999.0000      -9999.0000      -9999.0000      -9999.0000      -9999.0000
      -9999.0000      -9999.0000      -9999.0000      -9999.0000      -9999.0000
      -9999.0000      -9999.0000      -9999.0000      -9999.0000      -9999.0000
      -9999.0000      -9999.0000      -9999.0000      -9999.0000      -9999.0000
      -9999.0000      -9999.0000      -9999.0000      -9999.0000      -9999.0000
      -9999.0000      -9999.0000      -9999.0000      -9999.0000      -9999.0000
      -9999.0000      -9999.0000      -9999.0000      -9999.0000      -9999.0000
      -9999.0000      -9999.0000      -9999.0000      -9999.0000      -9999.0000
      -9999.0000      -9999.0000      -9999.0000      -9999.0000      -9999.0000
      -9999.0000      -9999.0000      -9999.0000      -9999.0000      -9999.0000
      -9999.0000      -9999.0000      -9999.0000      -9999.0000      -9999.0000
      -9999.0000      -9999.0000      -9999.0000      -9999.0000      -9999.0000
      -9999.0000      -9999.0000      -9999.0000      -9999.0000      -9999.0000
      -9999.0000      -9999.0000      -9999.0000      -9999.0000      -9999.0000
      -9999.0000      -9999.0000      -9999.0000      -9999.0000      -9999.0000
      -9999.0000      -9999.0000      -9999.0000      -9999.0000      -9999.0000
      -9999.0000      -9999.0000      -9999.0000      -9999.0000      -9999.0000
      -9999.0000      -9999.0000      -9999.0000      -9999.0000      -9999.0000
      -9999.0000      -9999.0000      -9999.0000      -9999.0000      -9999.0000
      -9999.0000      -9999.0000      -9999.0000      -9999.0000      -9999.0000
      -9999.0000      -9999.0000      -9999.0000      -9999.0000      -9999.0000
      -9999.0000      -9999.0000      -9999.0000      -9999.0000      -9999.0000
      -9999.0000      -9999.0000      -9999.0000      -9999.0000      -9999.0000
      -9999.0000      -9999.0000      -9999.0000      -9999.0000      -9999.0000
      -9999.0000      -9999.0000      -9999.0000      -9999.0000      -9999.0000
      -9999.0000      -9999.0000      -9999.0000      -9999.0000      -9999.0000
      -9999.0000      -9999.0000      -9999.0000      -9999.0000      -9999.0000
      -9999.0000      -9999.0000      -9999.0000      -9999.0000      -9999.0000
      -9999.0000      -9999.0000      -9999.0000      -9999.0000      -9999.0000
      -9999.0000      -9999.0000      -9999.0000      -9999.0000      -9999.0000
      -9999.0000      -9999.0000      -9999.0000      -9999.0000      -9999.0000
