ncols        92
nrows        134
xllcorner    2636610.000000000000
yllcorner    1101340.000000000000
cellsize     10.000000000000
NODATA_value  -9999
      -9999.0000      -9999.0000      -9999.0000      -9999.0000      -9999.0000
      -9999.0000      -9999.0000      -9999.0000      -9999.0000      -9999.0000
      -9999.0000      -9999.0000      -9999.0000      -9999.0000      -9999.0000
      -9999.0000      -9999.0000      -9999.0000      -9999.0000      -9999.0000
      -9999.0000      -9999.0000      -9999.0000      -9999.0000      -9999.0000
      -9999.0000      -9999.0000      -9999.0000      -9999.0000      -9999.0000
      -9999.0000      -9999.0000      -9999.0000      -9999.0000      -9999.0000
      -9999.0000      -9999.0000      -9999.0000      -9999.0000      -9999.0000
      -9999.0000      -9999.0000      -9999.0000      -9999.0000      -9999.0000
      -9999.0000      -9999.0000      -9999.0000      -9999.0000      -9999.0000
      -9999.0000      -9999.0000      -9999.0000      -9999.0000      -9999.0000
      -9999.0000      -9999.0000      -9999.0000      -9999.0000      -9999.0000
      -9999.0000      -9999.0000      -9999.0000      -9999.0000      -9999.0000
      -9999.0000      -9999.0000      -9999.0000      -9999.0000      -9999.0000
      -9999.0000      -9999.0000      -9999.0000      -9999.0000      -9999.0000
      -9999.0000      -9999.0000      -9999.0000      -9999.0000      -9999.0000
      -9999.0000      -9999.0000      -9999.0000      -9999.0000      -9999.0000
      -9999.0000      -9999.0000      -9999.0000      -9999.0000      -9999.0000
      -9999.0000      -9999.0000
      -9999.0000      -9999.0000      -9999.0000      -9999.0000      -9999.0000
      -9999.0000      -9999.0000      -9999.0000      -9999.0000      -9999.0000
      -9999.0000      -9999.0000      -9999.0000      -9999.0000      -9999.0000
      -9999.0000      -9999.0000      -9999.0000      -9999.0000      -9999.0000
      -9999.0000      -9999.0000      -9999.0000      -9999.0000      -9999.0000
      -9999.0000      -9999.0000      -9999.0000      -9999.0000      -9999.0000
      -9999.0000      -9999.0000      -9999.0000      -9999.0000      -9999.0000
      -9999.0000      -9999.0000      -9999.0000      -9999.0000      -9999.0000
      -9999.0000      -9999.0000      -9999.0000      -9999.0000      -9999.0000
      -9999.0000      -9999.0000      -9999.0000      -9999.0000      -9999.0000
      -9999.0000      -9999.0000      -9999.0000      -9999.0000      -9999.0000
      -9999.0000      -9999.0000      -9999.0000      -9999.0000      -9999.0000
      -9999.0000      -9999.0000      -9999.0000      -9999.0000      -9999.0000
      -9999.0000      -9999.0000      -9999.0000      -9999.0000      -9999.0000
      -9999.0000      -9999.0000      -9999.0000      -9999.0000      -9999.0000
      -9999.0000      -9999.0000      -9999.0000      -9999.0000      -9999.0000
      -9999.0000      -9999.0000      -9999.0000      -9999.0000      -9999.0000
      -9999.0000      -9999.0000      -9999.0000      -9999.0000      -9999.0000
      -9999.0000      -9999.0000
      -9999.0000      -9999.0000      -9999.0000      -9999.0000      -9999.0000
      -9999.0000      -9999.0000      -9999.0000      -9999.0000      -9999.0000
      -9999.0000      -9999.0000      -9999.0000      -9999.0000      -9999.0000
      -9999.0000      -9999.0000      -9999.0000      -9999.0000      -9999.0000
      -9999.0000      -9999.0000      -9999.0000      -9999.0000      -9999.0000
      -9999.0000      -9999.0000      -9999.0000      -9999.0000      -9999.0000
      -9999.0000      -9999.0000      -9999.0000      -9999.0000      -9999.0000
      -9999.0000      -9999.0000      -9999.0000      -9999.0000      -9999.0000
      -9999.0000      -9999.0000      -9999.0000      -9999.0000      -9999.0000
      -9999.0000      -9999.0000      -9999.0000      -9999.0000      -9999.0000
      -9999.0000      -9999.0000      -9999.0000      -9999.0000      -9999.0000
      -9999.0000      -9999.0000      -9999.0000      -9999.0000      -9999.0000
      -9999.0000      -9999.0000      -9999.0000      -9999.0000      -9999.0000
      -9999.0000      -9999.0000      -9999.0000      -9999.0000      -9999.0000
      -9999.0000      -9999.0000      -9999.0000      -9999.0000      -9999.0000
      -9999.0000      -9999.0000      -9999.0000      -9999.0000      -9999.0000
      -9999.0000      -9999.0000      -9999.0000      -9999.0000      -9999.0000
      -9999.0000      -9999.0000      -9999.0000      -9999.0000      -9999.0000
      -9999.0000      -9999.0000
      -9999.0000      -9999.0000      -9999.0000      -9999.0000      -9999.0000
      -9999.0000      -9999.0000      -9999.0000      -9999.0000      -9999.0000
      -9999.0000      -9999.0000      -9999.0000      -9999.0000      -9999.0000
      -9999.0000      -9999.0000      -9999.0000      -9999.0000      -9999.0000
      -9999.0000      -9999.0000      -9999.0000      -9999.0000      -9999.0000
      -9999.0000      -9999.0000      -9999.0000      -9999.0000      -9999.0000
      -9999.0000      -9999.0000      -9999.0000      -9999.0000      -9999.0000
      -9999.0000      -9999.0000      -9999.0000      -9999.0000      -9999.0000
      -9999.0000      -9999.0000      -9999.0000      -9999.0000      -9999.0000
      -9999.0000      -9999.0000      -9999.0000      -9999.0000      -9999.0000
      -9999.0000      -9999.0000      -9999.0000      -9999.0000      -9999.0000
      -9999.0000      -9999.0000      -9999.0000      -9999.0000      -9999.0000
      -9999.0000      -9999.0000      -9999.0000      -9999.0000      -9999.0000
      -9999.0000      -9999.0000      -9999.0000      -9999.0000      -9999.0000
      -9999.0000      -9999.0000      -9999.0000      -9999.0000      -9999.0000
      -9999.0000      -9999.0000      -9999.0000      -9999.0000      -9999.0000
      -9999.0000      -9999.0000      -9999.0000      -9999.0000      -9999.0000
      -9999.0000      -9999.0000      -9999.0000      -9999.0000      -9999.0000
      -9999.0000      -9999.0000
      -9999.0000      -9999.0000      -9999.0000      -9999.0000      -9999.0000
      -9999.0000      -9999.0000      -9999.0000      -9999.0000      -9999.0000
      -9999.0000      -9999.0000      -9999.0000      -9999.0000      -9999.0000
      -9999.0000      -9999.0000      -9999.0000      -9999.0000      -9999.0000
      -9999.0000      -9999.0000      -9999.0000      -9999.0000      -9999.0000
      -9999.0000      -9999.0000      -9999.0000      -9999.0000      -9999.0000
      -9999.0000      -9999.0000      -9999.0000      -9999.0000      -9999.0000
      -9999.0000      -9999.0000      -9999.0000      -9999.0000      -9999.0000
      -9999.0000      -9999.0000      -9999.0000      -9999.0000      -9999.0000
      -9999.0000      -9999.0000      -9999.0000      -9999.0000      -9999.0000
      -9999.0000      -9999.0000      -9999.0000      -9999.0000      -9999.0000
      -9999.0000      -9999.0000      -9999.0000      -9999.0000      -9999.0000
      -9999.0000      -9999.0000      -9999.0000      -9999.0000      -9999.0000
      -9999.0000      -9999.0000      -9999.0000      -9999.0000      -9999.0000
      -9999.0000      -9999.0000      -9999.0000      -9999.0000      -9999.0000
      -9999.0000      -9999.0000      -9999.0000      -9999.0000      -9999.0000
      -9999.0000      -9999.0000      -9999.0000      -9999.0000      -9999.0000
      -9999.0000      -9999.0000      -9999.0000      -9999.0000      -9999.0000
      -9999.0000      -9999.0000
      -9999.0000      -9999.0000      -9999.0000      -9999.0000      -9999.0000
      -9999.0000      -9999.0000      -9999.0000      -9999.0000      -9999.0000
      -9999.0000      -9999.0000      -9999.0000      -9999.0000      -9999.0000
      -9999.0000      -9999.0000      -9999.0000      -9999.0000      -9999.0000
      -9999.0000      -9999.0000      -9999.0000      -9999.0000      -9999.0000
      -9999.0000      -9999.0000      -9999.0000      -9999.0000      -9999.0000
      -9999.0000      -9999.0000      -9999.0000      -9999.0000      -9999.0000
      -9999.0000      -9999.0000      -9999.0000      -9999.0000      -9999.0000
      -9999.0000      -9999.0000      -9999.0000      -9999.0000      -9999.0000
      -9999.0000      -9999.0000      -9999.0000      -9999.0000      -9999.0000
      -9999.0000      -9999.0000      -9999.0000      -9999.0000      -9999.0000
      -9999.0000      -9999.0000      -9999.0000      -9999.0000      -9999.0000
      -9999.0000      -9999.0000      -9999.0000      -9999.0000      -9999.0000
      -9999.0000      -9999.0000      -9999.0000      -9999.0000      -9999.0000
      -9999.0000      -9999.0000      -9999.0000      -9999.0000      -9999.0000
      -9999.0000      -9999.0000      -9999.0000      -9999.0000      -9999.0000
      -9999.0000      -9999.0000      -9999.0000      -9999.0000      -9999.0000
      -9999.0000      -9999.0000      -9999.0000      -9999.0000      -9999.0000
      -9999.0000      -9999.0000
      -9999.0000      -9999.0000      -9999.0000      -9999.0000      -9999.0000
      -9999.0000      -9999.0000      -9999.0000      -9999.0000      -9999.0000
      -9999.0000      -9999.0000      -9999.0000      -9999.0000      -9999.0000
      -9999.0000      -9999.0000      -9999.0000      -9999.0000      -9999.0000
      -9999.0000      -9999.0000      -9999.0000      -9999.0000      -9999.0000
      -9999.0000      -9999.0000      -9999.0000      -9999.0000      -9999.0000
      -9999.0000      -9999.0000      -9999.0000      -9999.0000      -9999.0000
      -9999.0000      -9999.0000      -9999.0000      -9999.0000      -9999.0000
      -9999.0000      -9999.0000      -9999.0000      -9999.0000      -9999.0000
      -9999.0000      -9999.0000      -9999.0000      -9999.0000      -9999.0000
      -9999.0000      -9999.0000      -9999.0000      -9999.0000      -9999.0000
      -9999.0000      -9999.0000      -9999.0000      -9999.0000      -9999.0000
      -9999.0000      -9999.0000      -9999.0000      -9999.0000      -9999.0000
      -9999.0000      -9999.0000      -9999.0000      -9999.0000      -9999.0000
      -9999.0000      -9999.0000      -9999.0000      -9999.0000      -9999.0000
      -9999.0000      -9999.0000      -9999.0000      -9999.0000      -9999.0000
      -9999.0000      -9999.0000      -9999.0000      -9999.0000      -9999.0000
      -9999.0000      -9999.0000      -9999.0000      -9999.0000      -9999.0000
      -9999.0000      -9999.0000
      -9999.0000      -9999.0000      -9999.0000      -9999.0000      -9999.0000
      -9999.0000      -9999.0000      -9999.0000      -9999.0000      -9999.0000
      -9999.0000      -9999.0000      -9999.0000      -9999.0000      -9999.0000
      -9999.0000      -9999.0000      -9999.0000      -9999.0000      -9999.0000
      -9999.0000      -9999.0000      -9999.0000      -9999.0000      -9999.0000
      -9999.0000      -9999.0000      -9999.0000      -9999.0000      -9999.0000
      -9999.0000      -9999.0000      -9999.0000      -9999.0000      -9999.0000
      -9999.0000      -9999.0000      -9999.0000      -9999.0000      -9999.0000
      -9999.0000      -9999.0000      -9999.0000      -9999.0000      -9999.0000
      -9999.0000      -9999.0000      -9999.0000      -9999.0000      -9999.0000
      -9999.0000      -9999.0000      -9999.0000      -9999.0000      -9999.0000
      -9999.0000      -9999.0000      -9999.0000      -9999.0000      -9999.0000
      -9999.0000      -9999.0000      -9999.0000      -9999.0000      -9999.0000
      -9999.0000      -9999.0000      -9999.0000      -9999.0000      -9999.0000
      -9999.0000      -9999.0000      -9999.0000      -9999.0000      -9999.0000
      -9999.0000      -9999.0000      -9999.0000      -9999.0000      -9999.0000
      -9999.0000      -9999.0000      -9999.0000      -9999.0000      -9999.0000
      -9999.0000      -9999.0000      -9999.0000      -9999.0000      -9999.0000
      -9999.0000      -9999.0000
      -9999.0000      -9999.0000      -9999.0000      -9999.0000      -9999.0000
      -9999.0000      -9999.0000      -9999.0000      -9999.0000      -9999.0000
      -9999.0000      -9999.0000      -9999.0000      -9999.0000      -9999.0000
      -9999.0000      -9999.0000      -9999.0000      -9999.0000      -9999.0000
      -9999.0000      -9999.0000      -9999.0000      -9999.0000      -9999.0000
      -9999.0000      -9999.0000      -9999.0000      -9999.0000      -9999.0000
      -9999.0000      -9999.0000      -9999.0000      -9999.0000      -9999.0000
      -9999.0000      -9999.0000      -9999.0000      -9999.0000      -9999.0000
      -9999.0000      -9999.0000      -9999.0000      -9999.0000      -9999.0000
      -9999.0000      -9999.0000      -9999.0000      -9999.0000      -9999.0000
      -9999.0000      -9999.0000      -9999.0000      -9999.0000      -9999.0000
      -9999.0000      -9999.0000      -9999.0000      -9999.0000      -9999.0000
      -9999.0000      -9999.0000      -9999.0000      -9999.0000      -9999.0000
      -9999.0000      -9999.0000      -9999.0000      -9999.0000      -9999.0000
      -9999.0000      -9999.0000      -9999.0000      -9999.0000      -9999.0000
      -9999.0000      -9999.0000      -9999.0000      -9999.0000      -9999.0000
      -9999.0000      -9999.0000      -9999.0000      -9999.0000      -9999.0000
      -9999.0000      -9999.0000      -9999.0000      -9999.0000      -9999.0000
      -9999.0000      -9999.0000
      -9999.0000      -9999.0000      -9999.0000      -9999.0000      -9999.0000
      -9999.0000      -9999.0000      -9999.0000      -9999.0000      -9999.0000
      -9999.0000      -9999.0000      -9999.0000      -9999.0000      -9999.0000
      -9999.0000      -9999.0000      -9999.0000      -9999.0000      -9999.0000
      -9999.0000      -9999.0000      -9999.0000      -9999.0000      -9999.0000
      -9999.0000      -9999.0000      -9999.0000      -9999.0000      -9999.0000
      -9999.0000      -9999.0000      -9999.0000      -9999.0000      -9999.0000
      -9999.0000      -9999.0000      -9999.0000      -9999.0000      -9999.0000
      -9999.0000      -9999.0000      -9999.0000      -9999.0000      -9999.0000
      -9999.0000      -9999.0000      -9999.0000      -9999.0000      -9999.0000
      -9999.0000      -9999.0000      -9999.0000      -9999.0000      -9999.0000
      -9999.0000      -9999.0000      -9999.0000      -9999.0000      -9999.0000
      -9999.0000      -9999.0000      -9999.0000      -9999.0000      -9999.0000
      -9999.0000      -9999.0000      -9999.0000      -9999.0000      -9999.0000
      -9999.0000      -9999.0000      -9999.0000      -9999.0000      -9999.0000
      -9999.0000      -9999.0000      -9999.0000      -9999.0000      -9999.0000
      -9999.0000      -9999.0000      -9999.0000      -9999.0000      -9999.0000
      -9999.0000      -9999.0000      -9999.0000      -9999.0000      -9999.0000
      -9999.0000      -9999.0000
      -9999.0000      -9999.0000      -9999.0000      -9999.0000      -9999.0000
      -9999.0000      -9999.0000      -9999.0000      -9999.0000      -9999.0000
      -9999.0000      -9999.0000      -9999.0000      -9999.0000      -9999.0000
      -9999.0000      -9999.0000      -9999.0000      -9999.0000      -9999.0000
      -9999.0000      -9999.0000      -9999.0000      -9999.0000      -9999.0000
      -9999.0000      -9999.0000      -9999.0000      -9999.0000      -9999.0000
      -9999.0000      -9999.0000      -9999.0000      -9999.0000      -9999.0000
      -9999.0000      -9999.0000      -9999.0000      -9999.0000      -9999.0000
      -9999.0000      -9999.0000      -9999.0000      -9999.0000      -9999.0000
      -9999.0000      -9999.0000      -9999.0000      -9999.0000      -9999.0000
      -9999.0000      -9999.0000      -9999.0000      -9999.0000      -9999.0000
      -9999.0000      -9999.0000      -9999.0000      -9999.0000      -9999.0000
      -9999.0000      -9999.0000      -9999.0000      -9999.0000      -9999.0000
      -9999.0000      -9999.0000      -9999.0000      -9999.0000      -9999.0000
      -9999.0000      -9999.0000      -9999.0000      -9999.0000      -9999.0000
      -9999.0000      -9999.0000      -9999.0000      -9999.0000      -9999.0000
      -9999.0000      -9999.0000      -9999.0000      -9999.0000      -9999.0000
      -9999.0000      -9999.0000      -9999.0000      -9999.0000      -9999.0000
      -9999.0000      -9999.0000
      -9999.0000      -9999.0000      -9999.0000      -9999.0000      -9999.0000
      -9999.0000      -9999.0000      -9999.0000      -9999.0000      -9999.0000
      -9999.0000      -9999.0000      -9999.0000      -9999.0000      -9999.0000
      -9999.0000      -9999.0000      -9999.0000      -9999.0000      -9999.0000
      -9999.0000      -9999.0000      -9999.0000      -9999.0000      -9999.0000
      -9999.0000      -9999.0000      -9999.0000      -9999.0000      -9999.0000
      -9999.0000      -9999.0000      -9999.0000      -9999.0000      -9999.0000
      -9999.0000      -9999.0000      -9999.0000      -9999.0000      -9999.0000
      -9999.0000      -9999.0000      -9999.0000      -9999.0000      -9999.0000
      -9999.0000      -9999.0000      -9999.0000      -9999.0000      -9999.0000
      -9999.0000      -9999.0000      -9999.0000      -9999.0000      -9999.0000
      -9999.0000      -9999.0000      -9999.0000      -9999.0000      -9999.0000
      -9999.0000      -9999.0000      -9999.0000      -9999.0000      -9999.0000
      -9999.0000      -9999.0000      -9999.0000      -9999.0000      -9999.0000
      -9999.0000      -9999.0000      -9999.0000      -9999.0000      -9999.0000
      -9999.0000      -9999.0000      -9999.0000      -9999.0000      -9999.0000
      -9999.0000      -9999.0000      -9999.0000      -9999.0000      -9999.0000
      -9999.0000      -9999.0000      -9999.0000      -9999.0000      -9999.0000
      -9999.0000      -9999.0000
      -9999.0000      -9999.0000      -9999.0000      -9999.0000      -9999.0000
      -9999.0000      -9999.0000      -9999.0000      -9999.0000      -9999.0000
      -9999.0000      -9999.0000      -9999.0000      -9999.0000      -9999.0000
      -9999.0000      -9999.0000      -9999.0000      -9999.0000      -9999.0000
      -9999.0000      -9999.0000      -9999.0000      -9999.0000      -9999.0000
      -9999.0000      -9999.0000      -9999.0000      -9999.0000      -9999.0000
      -9999.0000      -9999.0000      -9999.0000      -9999.0000      -9999.0000
      -9999.0000      -9999.0000      -9999.0000      -9999.0000      -9999.0000
      -9999.0000      -9999.0000      -9999.0000      -9999.0000      -9999.0000
      -9999.0000      -9999.0000      -9999.0000      -9999.0000      -9999.0000
      -9999.0000      -9999.0000      -9999.0000      -9999.0000      -9999.0000
      -9999.0000      -9999.0000      -9999.0000      -9999.0000      -9999.0000
      -9999.0000      -9999.0000      -9999.0000      -9999.0000      -9999.0000
      -9999.0000      -9999.0000      -9999.0000      -9999.0000      -9999.0000
      -9999.0000      -9999.0000      -9999.0000      -9999.0000      -9999.0000
      -9999.0000      -9999.0000      -9999.0000      -9999.0000      -9999.0000
      -9999.0000      -9999.0000      -9999.0000      -9999.0000      -9999.0000
      -9999.0000      -9999.0000      -9999.0000      -9999.0000      -9999.0000
      -9999.0000      -9999.0000
      -9999.0000      -9999.0000      -9999.0000      -9999.0000      -9999.0000
      -9999.0000      -9999.0000      -9999.0000      -9999.0000      -9999.0000
      -9999.0000      -9999.0000      -9999.0000      -9999.0000      -9999.0000
      -9999.0000      -9999.0000      -9999.0000      -9999.0000      -9999.0000
      -9999.0000      -9999.0000      -9999.0000      -9999.0000      -9999.0000
      -9999.0000      -9999.0000      -9999.0000      -9999.0000      -9999.0000
      -9999.0000      -9999.0000      -9999.0000      -9999.0000      -9999.0000
      -9999.0000      -9999.0000      -9999.0000      -9999.0000      -9999.0000
      -9999.0000      -9999.0000      -9999.0000      -9999.0000      -9999.0000
      -9999.0000      -9999.0000      -9999.0000      -9999.0000      -9999.0000
      -9999.0000      -9999.0000      -9999.0000      -9999.0000      -9999.0000
      -9999.0000      -9999.0000      -9999.0000      -9999.0000      -9999.0000
      -9999.0000      -9999.0000      -9999.0000      -9999.0000      -9999.0000
      -9999.0000      -9999.0000      -9999.0000      -9999.0000      -9999.0000
      -9999.0000      -9999.0000      -9999.0000      -9999.0000      -9999.0000
      -9999.0000      -9999.0000      -9999.0000      -9999.0000      -9999.0000
      -9999.0000      -9999.0000      -9999.0000      -9999.0000      -9999.0000
      -9999.0000      -9999.0000      -9999.0000      -9999.0000      -9999.0000
      -9999.0000      -9999.0000
      -9999.0000      -9999.0000      -9999.0000      -9999.0000      -9999.0000
      -9999.0000      -9999.0000      -9999.0000      -9999.0000      -9999.0000
      -9999.0000      -9999.0000      -9999.0000      -9999.0000      -9999.0000
      -9999.0000      -9999.0000      -9999.0000      -9999.0000      -9999.0000
      -9999.0000      -9999.0000      -9999.0000      -9999.0000      -9999.0000
      -9999.0000      -9999.0000      -9999.0000      -9999.0000      -9999.0000
      -9999.0000      -9999.0000      -9999.0000      -9999.0000      -9999.0000
      -9999.0000      -9999.0000      -9999.0000      -9999.0000      -9999.0000
      -9999.0000      -9999.0000      -9999.0000      -9999.0000      -9999.0000
      -9999.0000      -9999.0000      -9999.0000      -9999.0000      -9999.0000
      -9999.0000      -9999.0000      -9999.0000      -9999.0000      -9999.0000
      -9999.0000      -9999.0000      -9999.0000      -9999.0000      -9999.0000
      -9999.0000      -9999.0000      -9999.0000      -9999.0000      -9999.0000
      -9999.0000      -9999.0000      -9999.0000      -9999.0000      -9999.0000
      -9999.0000      -9999.0000      -9999.0000      -9999.0000      -9999.0000
      -9999.0000      -9999.0000      -9999.0000      -9999.0000      -9999.0000
      -9999.0000      -9999.0000      -9999.0000      -9999.0000      -9999.0000
      -9999.0000      -9999.0000      -9999.0000      -9999.0000      -9999.0000
      -9999.0000      -9999.0000
      -9999.0000      -9999.0000      -9999.0000      -9999.0000      -9999.0000
      -9999.0000      -9999.0000      -9999.0000      -9999.0000      -9999.0000
      -9999.0000      -9999.0000      -9999.0000      -9999.0000      -9999.0000
      -9999.0000      -9999.0000      -9999.0000      -9999.0000      -9999.0000
      -9999.0000      -9999.0000      -9999.0000      -9999.0000      -9999.0000
      -9999.0000      -9999.0000      -9999.0000      -9999.0000      -9999.0000
      -9999.0000      -9999.0000      -9999.0000      -9999.0000      -9999.0000
      -9999.0000      -9999.0000      -9999.0000      -9999.0000      -9999.0000
      -9999.0000      -9999.0000      -9999.0000      -9999.0000      -9999.0000
      -9999.0000      -9999.0000      -9999.0000      -9999.0000      -9999.0000
      -9999.0000      -9999.0000      -9999.0000      -9999.0000      -9999.0000
      -9999.0000      -9999.0000      -9999.0000      -9999.0000      -9999.0000
      -9999.0000      -9999.0000      -9999.0000      -9999.0000      -9999.0000
      -9999.0000      -9999.0000      -9999.0000      -9999.0000      -9999.0000
      -9999.0000      -9999.0000      -9999.0000      -9999.0000      -9999.0000
      -9999.0000      -9999.0000      -9999.0000      -9999.0000      -9999.0000
      -9999.0000      -9999.0000      -9999.0000      -9999.0000      -9999.0000
      -9999.0000      -9999.0000      -9999.0000      -9999.0000      -9999.0000
      -9999.0000      -9999.0000
      -9999.0000      -9999.0000      -9999.0000      -9999.0000      -9999.0000
      -9999.0000      -9999.0000      -9999.0000      -9999.0000      -9999.0000
      -9999.0000      -9999.0000      -9999.0000      -9999.0000      -9999.0000
      -9999.0000      -9999.0000      -9999.0000      -9999.0000      -9999.0000
      -9999.0000      -9999.0000      -9999.0000      -9999.0000      -9999.0000
      -9999.0000      -9999.0000      -9999.0000      -9999.0000      -9999.0000
      -9999.0000      -9999.0000      -9999.0000      -9999.0000      -9999.0000
      -9999.0000      -9999.0000      -9999.0000      -9999.0000      -9999.0000
      -9999.0000      -9999.0000      -9999.0000      -9999.0000      -9999.0000
      -9999.0000      -9999.0000      -9999.0000      -9999.0000      -9999.0000
      -9999.0000      -9999.0000      -9999.0000      -9999.0000      -9999.0000
      -9999.0000      -9999.0000      -9999.0000      -9999.0000      -9999.0000
      -9999.0000      -9999.0000      -9999.0000      -9999.0000      -9999.0000
      -9999.0000      -9999.0000      -9999.0000      -9999.0000      -9999.0000
      -9999.0000      -9999.0000      -9999.0000      -9999.0000      -9999.0000
      -9999.0000      -9999.0000      -9999.0000      -9999.0000      -9999.0000
      -9999.0000      -9999.0000      -9999.0000      -9999.0000      -9999.0000
      -9999.0000      -9999.0000      -9999.0000      -9999.0000      -9999.0000
      -9999.0000      -9999.0000
      -9999.0000      -9999.0000      -9999.0000      -9999.0000      -9999.0000
      -9999.0000      -9999.0000      -9999.0000      -9999.0000      -9999.0000
      -9999.0000      -9999.0000      -9999.0000      -9999.0000      -9999.0000
      -9999.0000      -9999.0000      -9999.0000      -9999.0000      -9999.0000
      -9999.0000      -9999.0000      -9999.0000      -9999.0000      -9999.0000
      -9999.0000      -9999.0000      -9999.0000      -9999.0000      -9999.0000
      -9999.0000      -9999.0000      -9999.0000      -9999.0000      -9999.0000
      -9999.0000      -9999.0000      -9999.0000      -9999.0000      -9999.0000
      -9999.0000      -9999.0000      -9999.0000      -9999.0000      -9999.0000
      -9999.0000      -9999.0000      -9999.0000      -9999.0000      -9999.0000
      -9999.0000      -9999.0000      -9999.0000      -9999.0000      -9999.0000
      -9999.0000      -9999.0000      -9999.0000      -9999.0000      -9999.0000
      -9999.0000      -9999.0000      -9999.0000      -9999.0000      -9999.0000
      -9999.0000      -9999.0000      -9999.0000      -9999.0000      -9999.0000
      -9999.0000      -9999.0000      -9999.0000      -9999.0000      -9999.0000
      -9999.0000      -9999.0000      -9999.0000      -9999.0000      -9999.0000
      -9999.0000      -9999.0000      -9999.0000      -9999.0000      -9999.0000
      -9999.0000      -9999.0000      -9999.0000      -9999.0000      -9999.0000
      -9999.0000      -9999.0000
      -9999.0000      -9999.0000      -9999.0000      -9999.0000      -9999.0000
      -9999.0000      -9999.0000      -9999.0000      -9999.0000      -9999.0000
      -9999.0000      -9999.0000      -9999.0000      -9999.0000      -9999.0000
      -9999.0000      -9999.0000      -9999.0000      -9999.0000      -9999.0000
      -9999.0000      -9999.0000      -9999.0000      -9999.0000      -9999.0000
      -9999.0000      -9999.0000      -9999.0000      -9999.0000      -9999.0000
      -9999.0000      -9999.0000      -9999.0000      -9999.0000      -9999.0000
      -9999.0000      -9999.0000      -9999.0000      -9999.0000      -9999.0000
      -9999.0000      -9999.0000      -9999.0000      -9999.0000      -9999.0000
      -9999.0000      -9999.0000      -9999.0000      -9999.0000      -9999.0000
      -9999.0000      -9999.0000      -9999.0000      -9999.0000      -9999.0000
      -9999.0000      -9999.0000      -9999.0000      -9999.0000      -9999.0000
      -9999.0000      -9999.0000      -9999.0000      -9999.0000      -9999.0000
      -9999.0000      -9999.0000      -9999.0000      -9999.0000      -9999.0000
      -9999.0000      -9999.0000      -9999.0000      -9999.0000      -9999.0000
      -9999.0000      -9999.0000      -9999.0000      -9999.0000      -9999.0000
      -9999.0000      -9999.0000      -9999.0000      -9999.0000      -9999.0000
      -9999.0000      -9999.0000      -9999.0000      -9999.0000      -9999.0000
      -9999.0000      -9999.0000
      -9999.0000      -9999.0000      -9999.0000      -9999.0000      -9999.0000
      -9999.0000      -9999.0000      -9999.0000      -9999.0000      -9999.0000
      -9999.0000      -9999.0000      -9999.0000      -9999.0000      -9999.0000
      -9999.0000      -9999.0000      -9999.0000      -9999.0000      -9999.0000
      -9999.0000      -9999.0000      -9999.0000      -9999.0000      -9999.0000
      -9999.0000      -9999.0000      -9999.0000      -9999.0000      -9999.0000
      -9999.0000      -9999.0000      -9999.0000      -9999.0000      -9999.0000
      -9999.0000      -9999.0000      -9999.0000      -9999.0000      -9999.0000
      -9999.0000      -9999.0000      -9999.0000      -9999.0000      -9999.0000
      -9999.0000      -9999.0000      -9999.0000      -9999.0000      -9999.0000
      -9999.0000      -9999.0000      -9999.0000      -9999.0000      -9999.0000
      -9999.0000      -9999.0000      -9999.0000      -9999.0000      -9999.0000
      -9999.0000      -9999.0000      -9999.0000      -9999.0000      -9999.0000
      -9999.0000      -9999.0000      -9999.0000      -9999.0000      -9999.0000
      -9999.0000      -9999.0000      -9999.0000      -9999.0000      -9999.0000
      -9999.0000      -9999.0000      -9999.0000      -9999.0000      -9999.0000
      -9999.0000      -9999.0000      -9999.0000      -9999.0000      -9999.0000
      -9999.0000      -9999.0000      -9999.0000      -9999.0000      -9999.0000
      -9999.0000      -9999.0000
      -9999.0000      -9999.0000      -9999.0000      -9999.0000      -9999.0000
      -9999.0000      -9999.0000      -9999.0000      -9999.0000      -9999.0000
      -9999.0000      -9999.0000      -9999.0000      -9999.0000      -9999.0000
      -9999.0000      -9999.0000      -9999.0000      -9999.0000      -9999.0000
      -9999.0000      -9999.0000      -9999.0000      -9999.0000      -9999.0000
      -9999.0000      -9999.0000      -9999.0000      -9999.0000      -9999.0000
      -9999.0000      -9999.0000      -9999.0000      -9999.0000      -9999.0000
      -9999.0000      -9999.0000      -9999.0000      -9999.0000      -9999.0000
      -9999.0000      -9999.0000      -9999.0000      -9999.0000      -9999.0000
      -9999.0000      -9999.0000      -9999.0000      -9999.0000      -9999.0000
      -9999.0000      -9999.0000      -9999.0000      -9999.0000      -9999.0000
      -9999.0000      -9999.0000      -9999.0000      -9999.0000      -9999.0000
      -9999.0000      -9999.0000      -9999.0000      -9999.0000      -9999.0000
      -9999.0000      -9999.0000      -9999.0000      -9999.0000      -9999.0000
      -9999.0000      -9999.0000      -9999.0000      -9999.0000      -9999.0000
      -9999.0000      -9999.0000      -9999.0000      -9999.0000      -9999.0000
      -9999.0000      -9999.0000      -9999.0000      -9999.0000      -9999.0000
      -9999.0000      -9999.0000      -9999.0000      -9999.0000      -9999.0000
      -9999.0000      -9999.0000
      -9999.0000      -9999.0000      -9999.0000      -9999.0000      -9999.0000
      -9999.0000      -9999.0000      -9999.0000      -9999.0000      -9999.0000
      -9999.0000      -9999.0000      -9999.0000      -9999.0000      -9999.0000
      -9999.0000      -9999.0000      -9999.0000      -9999.0000      -9999.0000
      -9999.0000      -9999.0000      -9999.0000      -9999.0000      -9999.0000
      -9999.0000      -9999.0000      -9999.0000      -9999.0000      -9999.0000
      -9999.0000      -9999.0000      -9999.0000      -9999.0000      -9999.0000
      -9999.0000      -9999.0000      -9999.0000      -9999.0000      -9999.0000
      -9999.0000      -9999.0000      -9999.0000      -9999.0000      -9999.0000
      -9999.0000      -9999.0000      -9999.0000      -9999.0000      -9999.0000
      -9999.0000      -9999.0000      -9999.0000      -9999.0000      -9999.0000
      -9999.0000      -9999.0000      -9999.0000      -9999.0000      -9999.0000
      -9999.0000      -9999.0000      -9999.0000      -9999.0000      -9999.0000
      -9999.0000      -9999.0000      -9999.0000      -9999.0000      -9999.0000
      -9999.0000      -9999.0000      -9999.0000      -9999.0000      -9999.0000
      -9999.0000      -9999.0000      -9999.0000      -9999.0000      -9999.0000
      -9999.0000      -9999.0000      -9999.0000      -9999.0000      -9999.0000
      -9999.0000      -9999.0000      -9999.0000      -9999.0000      -9999.0000
      -9999.0000      -9999.0000
      -9999.0000      -9999.0000      -9999.0000      -9999.0000      -9999.0000
      -9999.0000      -9999.0000      -9999.0000      -9999.0000      -9999.0000
      -9999.0000      -9999.0000      -9999.0000      -9999.0000      -9999.0000
      -9999.0000      -9999.0000      -9999.0000      -9999.0000      -9999.0000
      -9999.0000      -9999.0000      -9999.0000      -9999.0000      -9999.0000
      -9999.0000      -9999.0000      -9999.0000      -9999.0000      -9999.0000
      -9999.0000      -9999.0000      -9999.0000      -9999.0000      -9999.0000
      -9999.0000      -9999.0000      -9999.0000      -9999.0000      -9999.0000
      -9999.0000      -9999.0000      -9999.0000      -9999.0000      -9999.0000
      -9999.0000      -9999.0000      -9999.0000      -9999.0000      -9999.0000
      -9999.0000      -9999.0000      -9999.0000      -9999.0000      -9999.0000
      -9999.0000      -9999.0000      -9999.0000      -9999.0000      -9999.0000
      -9999.0000      -9999.0000      -9999.0000      -9999.0000      -9999.0000
      -9999.0000      -9999.0000      -9999.0000      -9999.0000      -9999.0000
      -9999.0000      -9999.0000      -9999.0000      -9999.0000      -9999.0000
      -9999.0000      -9999.0000      -9999.0000      -9999.0000      -9999.0000
      -9999.0000      -9999.0000      -9999.0000      -9999.0000      -9999.0000
      -9999.0000      -9999.0000      -9999.0000      -9999.0000      -9999.0000
      -9999.0000      -9999.0000
      -9999.0000      -9999.0000      -9999.0000      -9999.0000      -9999.0000
      -9999.0000      -9999.0000      -9999.0000      -9999.0000      -9999.0000
      -9999.0000      -9999.0000      -9999.0000      -9999.0000      -9999.0000
      -9999.0000      -9999.0000      -9999.0000      -9999.0000      -9999.0000
      -9999.0000      -9999.0000      -9999.0000      -9999.0000      -9999.0000
      -9999.0000      -9999.0000      -9999.0000      -9999.0000      -9999.0000
      -9999.0000      -9999.0000      -9999.0000      -9999.0000      -9999.0000
      -9999.0000      -9999.0000      -9999.0000      -9999.0000      -9999.0000
      -9999.0000      -9999.0000      -9999.0000      -9999.0000      -9999.0000
      -9999.0000      -9999.0000      -9999.0000      -9999.0000      -9999.0000
      -9999.0000      -9999.0000      -9999.0000      -9999.0000      -9999.0000
      -9999.0000      -9999.0000      -9999.0000      -9999.0000      -9999.0000
      -9999.0000      -9999.0000      -9999.0000      -9999.0000      -9999.0000
      -9999.0000      -9999.0000      -9999.0000      -9999.0000      -9999.0000
      -9999.0000      -9999.0000      -9999.0000      -9999.0000      -9999.0000
      -9999.0000      -9999.0000      -9999.0000      -9999.0000      -9999.0000
      -9999.0000      -9999.0000      -9999.0000      -9999.0000      -9999.0000
      -9999.0000      -9999.0000      -9999.0000      -9999.0000      -9999.0000
      -9999.0000      -9999.0000
      -9999.0000      -9999.0000      -9999.0000      -9999.0000      -9999.0000
      -9999.0000      -9999.0000      -9999.0000      -9999.0000      -9999.0000
      -9999.0000      -9999.0000      -9999.0000      -9999.0000      -9999.0000
      -9999.0000      -9999.0000      -9999.0000      -9999.0000      -9999.0000
      -9999.0000      -9999.0000      -9999.0000      -9999.0000      -9999.0000
      -9999.0000      -9999.0000      -9999.0000      -9999.0000      -9999.0000
      -9999.0000      -9999.0000      -9999.0000      -9999.0000      -9999.0000
      -9999.0000      -9999.0000      -9999.0000      -9999.0000      -9999.0000
      -9999.0000      -9999.0000      -9999.0000      -9999.0000      -9999.0000
      -9999.0000      -9999.0000      -9999.0000      -9999.0000      -9999.0000
      -9999.0000      -9999.0000      -9999.0000      -9999.0000      -9999.0000
      -9999.0000      -9999.0000      -9999.0000      -9999.0000      -9999.0000
      -9999.0000      -9999.0000      -9999.0000      -9999.0000      -9999.0000
      -9999.0000      -9999.0000      -9999.0000      -9999.0000      -9999.0000
      -9999.0000      -9999.0000      -9999.0000      -9999.0000      -9999.0000
      -9999.0000      -9999.0000      -9999.0000      -9999.0000      -9999.0000
      -9999.0000      -9999.0000      -9999.0000      -9999.0000      -9999.0000
      -9999.0000      -9999.0000      -9999.0000      -9999.0000      -9999.0000
      -9999.0000      -9999.0000
      -9999.0000      -9999.0000      -9999.0000      -9999.0000      -9999.0000
      -9999.0000      -9999.0000      -9999.0000      -9999.0000      -9999.0000
      -9999.0000      -9999.0000      -9999.0000      -9999.0000      -9999.0000
      -9999.0000      -9999.0000      -9999.0000      -9999.0000      -9999.0000
      -9999.0000      -9999.0000      -9999.0000      -9999.0000      -9999.0000
      -9999.0000      -9999.0000      -9999.0000      -9999.0000      -9999.0000
      -9999.0000      -9999.0000      -9999.0000      -9999.0000      -9999.0000
      -9999.0000      -9999.0000      -9999.0000      -9999.0000      -9999.0000
      -9999.0000      -9999.0000      -9999.0000      -9999.0000      -9999.0000
      -9999.0000      -9999.0000      -9999.0000      -9999.0000      -9999.0000
      -9999.0000      -9999.0000      -9999.0000      -9999.0000      -9999.0000
      -9999.0000      -9999.0000      -9999.0000      -9999.0000      -9999.0000
      -9999.0000      -9999.0000      -9999.0000      -9999.0000      -9999.0000
      -9999.0000      -9999.0000      -9999.0000      -9999.0000      -9999.0000
      -9999.0000      -9999.0000      -9999.0000      -9999.0000      -9999.0000
      -9999.0000      -9999.0000      -9999.0000      -9999.0000      -9999.0000
      -9999.0000      -9999.0000      -9999.0000      -9999.0000      -9999.0000
      -9999.0000      -9999.0000      -9999.0000      -9999.0000      -9999.0000
      -9999.0000      -9999.0000
      -9999.0000      -9999.0000      -9999.0000      -9999.0000      -9999.0000
      -9999.0000      -9999.0000      -9999.0000      -9999.0000      -9999.0000
      -9999.0000      -9999.0000      -9999.0000      -9999.0000      -9999.0000
      -9999.0000      -9999.0000      -9999.0000      -9999.0000      -9999.0000
      -9999.0000      -9999.0000      -9999.0000      -9999.0000      -9999.0000
      -9999.0000      -9999.0000      -9999.0000      -9999.0000      -9999.0000
      -9999.0000      -9999.0000      -9999.0000      -9999.0000      -9999.0000
      -9999.0000      -9999.0000      -9999.0000      -9999.0000      -9999.0000
      -9999.0000      -9999.0000      -9999.0000      -9999.0000      -9999.0000
      -9999.0000      -9999.0000      -9999.0000      -9999.0000      -9999.0000
      -9999.0000      -9999.0000      -9999.0000      -9999.0000      -9999.0000
      -9999.0000      -9999.0000      -9999.0000      -9999.0000      -9999.0000
      -9999.0000      -9999.0000      -9999.0000      -9999.0000      -9999.0000
      -9999.0000      -9999.0000      -9999.0000      -9999.0000      -9999.0000
      -9999.0000      -9999.0000      -9999.0000      -9999.0000      -9999.0000
      -9999.0000      -9999.0000      -9999.0000      -9999.0000      -9999.0000
      -9999.0000      -9999.0000      -9999.0000      -9999.0000      -9999.0000
      -9999.0000      -9999.0000      -9999.0000      -9999.0000      -9999.0000
      -9999.0000      -9999.0000
      -9999.0000      -9999.0000      -9999.0000      -9999.0000      -9999.0000
      -9999.0000      -9999.0000      -9999.0000      -9999.0000      -9999.0000
      -9999.0000      -9999.0000      -9999.0000      -9999.0000      -9999.0000
      -9999.0000      -9999.0000      -9999.0000      -9999.0000      -9999.0000
      -9999.0000      -9999.0000      -9999.0000      -9999.0000      -9999.0000
      -9999.0000      -9999.0000      -9999.0000      -9999.0000      -9999.0000
      -9999.0000      -9999.0000      -9999.0000      -9999.0000      -9999.0000
      -9999.0000      -9999.0000      -9999.0000      -9999.0000      -9999.0000
      -9999.0000      -9999.0000      -9999.0000      -9999.0000      -9999.0000
      -9999.0000      -9999.0000      -9999.0000      -9999.0000      -9999.0000
      -9999.0000      -9999.0000      -9999.0000      -9999.0000      -9999.0000
      -9999.0000      -9999.0000      -9999.0000      -9999.0000      -9999.0000
      -9999.0000      -9999.0000      -9999.0000      -9999.0000      -9999.0000
      -9999.0000      -9999.0000      -9999.0000      -9999.0000      -9999.0000
      -9999.0000      -9999.0000      -9999.0000      -9999.0000      -9999.0000
      -9999.0000      -9999.0000      -9999.0000      -9999.0000      -9999.0000
      -9999.0000      -9999.0000      -9999.0000      -9999.0000      -9999.0000
      -9999.0000      -9999.0000      -9999.0000      -9999.0000      -9999.0000
      -9999.0000      -9999.0000
      -9999.0000      -9999.0000      -9999.0000      -9999.0000      -9999.0000
      -9999.0000      -9999.0000      -9999.0000      -9999.0000      -9999.0000
      -9999.0000      -9999.0000      -9999.0000      -9999.0000      -9999.0000
      -9999.0000      -9999.0000      -9999.0000      -9999.0000      -9999.0000
      -9999.0000      -9999.0000      -9999.0000      -9999.0000      -9999.0000
      -9999.0000      -9999.0000      -9999.0000      -9999.0000      -9999.0000
      -9999.0000      -9999.0000      -9999.0000      -9999.0000      -9999.0000
      -9999.0000      -9999.0000      -9999.0000      -9999.0000      -9999.0000
      -9999.0000      -9999.0000      -9999.0000      -9999.0000      -9999.0000
      -9999.0000      -9999.0000      -9999.0000      -9999.0000      -9999.0000
      -9999.0000      -9999.0000      -9999.0000      -9999.0000      -9999.0000
      -9999.0000      -9999.0000      -9999.0000      -9999.0000      -9999.0000
      -9999.0000      -9999.0000      -9999.0000      -9999.0000      -9999.0000
      -9999.0000      -9999.0000      -9999.0000      -9999.0000      -9999.0000
      -9999.0000      -9999.0000      -9999.0000      -9999.0000      -9999.0000
      -9999.0000      -9999.0000      -9999.0000      -9999.0000      -9999.0000
      -9999.0000      -9999.0000      -9999.0000      -9999.0000      -9999.0000
      -9999.0000      -9999.0000      -9999.0000      -9999.0000      -9999.0000
      -9999.0000      -9999.0000
      -9999.0000      -9999.0000      -9999.0000      -9999.0000      -9999.0000
      -9999.0000      -9999.0000      -9999.0000      -9999.0000      -9999.0000
      -9999.0000      -9999.0000      -9999.0000      -9999.0000      -9999.0000
      -9999.0000      -9999.0000      -9999.0000      -9999.0000      -9999.0000
      -9999.0000      -9999.0000      -9999.0000      -9999.0000      -9999.0000
      -9999.0000      -9999.0000      -9999.0000      -9999.0000      -9999.0000
      -9999.0000      -9999.0000      -9999.0000      -9999.0000      -9999.0000
      -9999.0000      -9999.0000      -9999.0000      -9999.0000      -9999.0000
      -9999.0000      -9999.0000      -9999.0000      -9999.0000      -9999.0000
      -9999.0000      -9999.0000      -9999.0000      -9999.0000      -9999.0000
      -9999.0000      -9999.0000      -9999.0000      -9999.0000      -9999.0000
      -9999.0000      -9999.0000      -9999.0000      -9999.0000      -9999.0000
      -9999.0000      -9999.0000      -9999.0000      -9999.0000      -9999.0000
      -9999.0000      -9999.0000      -9999.0000      -9999.0000      -9999.0000
      -9999.0000      -9999.0000      -9999.0000      -9999.0000      -9999.0000
      -9999.0000      -9999.0000      -9999.0000      -9999.0000      -9999.0000
      -9999.0000      -9999.0000      -9999.0000      -9999.0000      -9999.0000
      -9999.0000      -9999.0000      -9999.0000      -9999.0000      -9999.0000
      -9999.0000      -9999.0000
      -9999.0000      -9999.0000      -9999.0000      -9999.0000      -9999.0000
      -9999.0000      -9999.0000      -9999.0000      -9999.0000      -9999.0000
      -9999.0000      -9999.0000      -9999.0000      -9999.0000      -9999.0000
      -9999.0000      -9999.0000      -9999.0000      -9999.0000      -9999.0000
      -9999.0000      -9999.0000      -9999.0000      -9999.0000      -9999.0000
      -9999.0000      -9999.0000      -9999.0000      -9999.0000      -9999.0000
      -9999.0000      -9999.0000      -9999.0000      -9999.0000      -9999.0000
      -9999.0000      -9999.0000      -9999.0000      -9999.0000      -9999.0000
      -9999.0000      -9999.0000      -9999.0000      -9999.0000      -9999.0000
      -9999.0000      -9999.0000      -9999.0000      -9999.0000      -9999.0000
      -9999.0000      -9999.0000      -9999.0000      -9999.0000      -9999.0000
      -9999.0000      -9999.0000      -9999.0000      -9999.0000      -9999.0000
      -9999.0000      -9999.0000      -9999.0000      -9999.0000      -9999.0000
      -9999.0000      -9999.0000      -9999.0000      -9999.0000      -9999.0000
      -9999.0000      -9999.0000      -9999.0000      -9999.0000      -9999.0000
      -9999.0000      -9999.0000      -9999.0000      -9999.0000      -9999.0000
      -9999.0000      -9999.0000      -9999.0000      -9999.0000      -9999.0000
      -9999.0000      -9999.0000      -9999.0000      -9999.0000      -9999.0000
      -9999.0000      -9999.0000
      -9999.0000      -9999.0000      -9999.0000      -9999.0000      -9999.0000
      -9999.0000      -9999.0000      -9999.0000      -9999.0000      -9999.0000
      -9999.0000      -9999.0000      -9999.0000      -9999.0000      -9999.0000
      -9999.0000      -9999.0000      -9999.0000      -9999.0000      -9999.0000
      -9999.0000      -9999.0000      -9999.0000      -9999.0000      -9999.0000
      -9999.0000      -9999.0000      -9999.0000      -9999.0000      -9999.0000
      -9999.0000      -9999.0000      -9999.0000      -9999.0000      -9999.0000
      -9999.0000      -9999.0000      -9999.0000      -9999.0000      -9999.0000
      -9999.0000      -9999.0000      -9999.0000      -9999.0000      -9999.0000
      -9999.0000      -9999.0000      -9999.0000      -9999.0000      -9999.0000
      -9999.0000      -9999.0000      -9999.0000      -9999.0000      -9999.0000
      -9999.0000      -9999.0000      -9999.0000      -9999.0000      -9999.0000
      -9999.0000      -9999.0000      -9999.0000      -9999.0000      -9999.0000
      -9999.0000      -9999.0000      -9999.0000      -9999.0000      -9999.0000
      -9999.0000      -9999.0000      -9999.0000      -9999.0000      -9999.0000
      -9999.0000      -9999.0000      -9999.0000      -9999.0000      -9999.0000
      -9999.0000      -9999.0000      -9999.0000      -9999.0000      -9999.0000
      -9999.0000      -9999.0000      -9999.0000      -9999.0000      -9999.0000
      -9999.0000      -9999.0000
      -9999.0000      -9999.0000      -9999.0000      -9999.0000      -9999.0000
      -9999.0000      -9999.0000      -9999.0000      -9999.0000      -9999.0000
      -9999.0000      -9999.0000      -9999.0000      -9999.0000      -9999.0000
      -9999.0000      -9999.0000      -9999.0000      -9999.0000      -9999.0000
      -9999.0000      -9999.0000      -9999.0000      -9999.0000      -9999.0000
      -9999.0000      -9999.0000      -9999.0000      -9999.0000      -9999.0000
      -9999.0000      -9999.0000      -9999.0000      -9999.0000      -9999.0000
      -9999.0000      -9999.0000      -9999.0000      -9999.0000      -9999.0000
      -9999.0000      -9999.0000      -9999.0000      -9999.0000      -9999.0000
      -9999.0000      -9999.0000      -9999.0000      -9999.0000      -9999.0000
      -9999.0000      -9999.0000      -9999.0000      -9999.0000      -9999.0000
      -9999.0000      -9999.0000      -9999.0000      -9999.0000      -9999.0000
      -9999.0000      -9999.0000      -9999.0000      -9999.0000      -9999.0000
      -9999.0000      -9999.0000      -9999.0000      -9999.0000      -9999.0000
      -9999.0000      -9999.0000      -9999.0000      -9999.0000      -9999.0000
      -9999.0000      -9999.0000      -9999.0000      -9999.0000      -9999.0000
      -9999.0000      -9999.0000      -9999.0000      -9999.0000      -9999.0000
      -9999.0000      -9999.0000      -9999.0000      -9999.0000      -9999.0000
      -9999.0000      -9999.0000
      -9999.0000      -9999.0000      -9999.0000      -9999.0000      -9999.0000
      -9999.0000      -9999.0000      -9999.0000      -9999.0000      -9999.0000
      -9999.0000      -9999.0000      -9999.0000      -9999.0000      -9999.0000
      -9999.0000      -9999.0000      -9999.0000      -9999.0000      -9999.0000
      -9999.0000      -9999.0000      -9999.0000      -9999.0000      -9999.0000
      -9999.0000      -9999.0000      -9999.0000      -9999.0000      -9999.0000
      -9999.0000      -9999.0000      -9999.0000      -9999.0000      -9999.0000
      -9999.0000      -9999.0000      -9999.0000      -9999.0000      -9999.0000
      -9999.0000      -9999.0000      -9999.0000      -9999.0000      -9999.0000
      -9999.0000      -9999.0000      -9999.0000      -9999.0000      -9999.0000
      -9999.0000      -9999.0000      -9999.0000      -9999.0000      -9999.0000
      -9999.0000      -9999.0000      -9999.0000      -9999.0000      -9999.0000
      -9999.0000      -9999.0000      -9999.0000      -9999.0000      -9999.0000
      -9999.0000      -9999.0000      -9999.0000      -9999.0000      -9999.0000
      -9999.0000      -9999.0000      -9999.0000      -9999.0000      -9999.0000
      -9999.0000      -9999.0000      -9999.0000      -9999.0000      -9999.0000
      -9999.0000      -9999.0000      -9999.0000      -9999.0000      -9999.0000
      -9999.0000      -9999.0000      -9999.0000      -9999.0000      -9999.0000
      -9999.0000      -9999.0000
      -9999.0000      -9999.0000      -9999.0000      -9999.0000      -9999.0000
      -9999.0000      -9999.0000      -9999.0000      -9999.0000      -9999.0000
      -9999.0000      -9999.0000      -9999.0000      -9999.0000      -9999.0000
      -9999.0000      -9999.0000      -9999.0000      -9999.0000      -9999.0000
      -9999.0000      -9999.0000      -9999.0000      -9999.0000      -9999.0000
      -9999.0000      -9999.0000      -9999.0000      -9999.0000      -9999.0000
      -9999.0000      -9999.0000      -9999.0000      -9999.0000      -9999.0000
      -9999.0000      -9999.0000      -9999.0000      -9999.0000      -9999.0000
      -9999.0000      -9999.0000      -9999.0000      -9999.0000      -9999.0000
      -9999.0000      -9999.0000      -9999.0000      -9999.0000      -9999.0000
      -9999.0000      -9999.0000      -9999.0000      -9999.0000      -9999.0000
      -9999.0000      -9999.0000      -9999.0000      -9999.0000      -9999.0000
      -9999.0000      -9999.0000      -9999.0000      -9999.0000      -9999.0000
      -9999.0000      -9999.0000      -9999.0000      -9999.0000      -9999.0000
      -9999.0000      -9999.0000      -9999.0000      -9999.0000      -9999.0000
      -9999.0000      -9999.0000      -9999.0000      -9999.0000      -9999.0000
      -9999.0000      -9999.0000      -9999.0000      -9999.0000      -9999.0000
      -9999.0000      -9999.0000      -9999.0000      -9999.0000      -9999.0000
      -9999.0000      -9999.0000
      -9999.0000      -9999.0000      -9999.0000      -9999.0000      -9999.0000
      -9999.0000      -9999.0000      -9999.0000      -9999.0000      -9999.0000
      -9999.0000      -9999.0000      -9999.0000      -9999.0000      -9999.0000
      -9999.0000      -9999.0000      -9999.0000      -9999.0000      -9999.0000
      -9999.0000      -9999.0000      -9999.0000      -9999.0000      -9999.0000
      -9999.0000      -9999.0000      -9999.0000      -9999.0000      -9999.0000
      -9999.0000      -9999.0000      -9999.0000      -9999.0000      -9999.0000
      -9999.0000      -9999.0000      -9999.0000      -9999.0000      -9999.0000
      -9999.0000      -9999.0000      -9999.0000      -9999.0000      -9999.0000
      -9999.0000      -9999.0000      -9999.0000      -9999.0000      -9999.0000
      -9999.0000      -9999.0000      -9999.0000      -9999.0000      -9999.0000
      -9999.0000      -9999.0000      -9999.0000      -9999.0000      -9999.0000
      -9999.0000      -9999.0000      -9999.0000      -9999.0000      -9999.0000
      -9999.0000      -9999.0000      -9999.0000      -9999.0000      -9999.0000
      -9999.0000      -9999.0000      -9999.0000      -9999.0000      -9999.0000
      -9999.0000      -9999.0000      -9999.0000      -9999.0000      -9999.0000
      -9999.0000      -9999.0000      -9999.0000      -9999.0000      -9999.0000
      -9999.0000      -9999.0000      -9999.0000      -9999.0000      -9999.0000
      -9999.0000      -9999.0000
      -9999.0000      -9999.0000      -9999.0000      -9999.0000      -9999.0000
      -9999.0000      -9999.0000      -9999.0000      -9999.0000      -9999.0000
      -9999.0000      -9999.0000      -9999.0000      -9999.0000      -9999.0000
      -9999.0000      -9999.0000      -9999.0000      -9999.0000      -9999.0000
      -9999.0000      -9999.0000      -9999.0000      -9999.0000      -9999.0000
      -9999.0000      -9999.0000      -9999.0000      -9999.0000      -9999.0000
      -9999.0000      -9999.0000      -9999.0000      -9999.0000      -9999.0000
      -9999.0000      -9999.0000      -9999.0000      -9999.0000      -9999.0000
      -9999.0000      -9999.0000      -9999.0000      -9999.0000      -9999.0000
      -9999.0000      -9999.0000      -9999.0000      -9999.0000      -9999.0000
      -9999.0000      -9999.0000      -9999.0000      -9999.0000      -9999.0000
      -9999.0000      -9999.0000      -9999.0000      -9999.0000      -9999.0000
      -9999.0000      -9999.0000      -9999.0000      -9999.0000      -9999.0000
      -9999.0000      -9999.0000      -9999.0000      -9999.0000      -9999.0000
      -9999.0000      -9999.0000      -9999.0000      -9999.0000      -9999.0000
      -9999.0000      -9999.0000      -9999.0000      -9999.0000      -9999.0000
      -9999.0000      -9999.0000      -9999.0000      -9999.0000      -9999.0000
      -9999.0000      -9999.0000      -9999.0000      -9999.0000      -9999.0000
      -9999.0000      -9999.0000
      -9999.0000      -9999.0000      -9999.0000      -9999.0000      -9999.0000
      -9999.0000      -9999.0000      -9999.0000      -9999.0000      -9999.0000
      -9999.0000      -9999.0000      -9999.0000      -9999.0000      -9999.0000
      -9999.0000      -9999.0000      -9999.0000      -9999.0000      -9999.0000
      -9999.0000      -9999.0000      -9999.0000      -9999.0000      -9999.0000
      -9999.0000      -9999.0000      -9999.0000      -9999.0000      -9999.0000
      -9999.0000      -9999.0000      -9999.0000      -9999.0000      -9999.0000
      -9999.0000      -9999.0000      -9999.0000      -9999.0000      -9999.0000
      -9999.0000      -9999.0000      -9999.0000      -9999.0000      -9999.0000
      -9999.0000      -9999.0000      -9999.0000      -9999.0000      -9999.0000
      -9999.0000      -9999.0000      -9999.0000      -9999.0000      -9999.0000
      -9999.0000      -9999.0000      -9999.0000      -9999.0000      -9999.0000
      -9999.0000      -9999.0000      -9999.0000      -9999.0000      -9999.0000
      -9999.0000      -9999.0000      -9999.0000      -9999.0000      -9999.0000
      -9999.0000      -9999.0000      -9999.0000      -9999.0000      -9999.0000
      -9999.0000      -9999.0000      -9999.0000      -9999.0000      -9999.0000
      -9999.0000      -9999.0000      -9999.0000      -9999.0000      -9999.0000
      -9999.0000      -9999.0000      -9999.0000      -9999.0000      -9999.0000
      -9999.0000      -9999.0000
      -9999.0000      -9999.0000      -9999.0000      -9999.0000      -9999.0000
      -9999.0000      -9999.0000      -9999.0000      -9999.0000      -9999.0000
      -9999.0000      -9999.0000      -9999.0000      -9999.0000      -9999.0000
      -9999.0000      -9999.0000      -9999.0000      -9999.0000      -9999.0000
      -9999.0000      -9999.0000      -9999.0000      -9999.0000      -9999.0000
      -9999.0000      -9999.0000      -9999.0000      -9999.0000      -9999.0000
      -9999.0000      -9999.0000      -9999.0000      -9999.0000      -9999.0000
      -9999.0000      -9999.0000      -9999.0000      -9999.0000      -9999.0000
      -9999.0000      -9999.0000      -9999.0000      -9999.0000      -9999.0000
      -9999.0000      -9999.0000      -9999.0000      -9999.0000      -9999.0000
      -9999.0000      -9999.0000      -9999.0000      -9999.0000      -9999.0000
      -9999.0000      -9999.0000      -9999.0000      -9999.0000      -9999.0000
      -9999.0000      -9999.0000      -9999.0000      -9999.0000      -9999.0000
      -9999.0000      -9999.0000      -9999.0000      -9999.0000      -9999.0000
      -9999.0000      -9999.0000      -9999.0000      -9999.0000      -9999.0000
      -9999.0000      -9999.0000      -9999.0000      -9999.0000      -9999.0000
      -9999.0000      -9999.0000      -9999.0000      -9999.0000      -9999.0000
      -9999.0000      -9999.0000      -9999.0000      -9999.0000      -9999.0000
      -9999.0000      -9999.0000
      -9999.0000      -9999.0000      -9999.0000      -9999.0000      -9999.0000
      -9999.0000      -9999.0000      -9999.0000      -9999.0000      -9999.0000
      -9999.0000      -9999.0000      -9999.0000      -9999.0000      -9999.0000
      -9999.0000      -9999.0000      -9999.0000      -9999.0000      -9999.0000
      -9999.0000      -9999.0000      -9999.0000      -9999.0000      -9999.0000
      -9999.0000      -9999.0000      -9999.0000      -9999.0000      -9999.0000
      -9999.0000      -9999.0000      -9999.0000      -9999.0000      -9999.0000
      -9999.0000      -9999.0000      -9999.0000      -9999.0000      -9999.0000
      -9999.0000      -9999.0000      -9999.0000      -9999.0000      -9999.0000
      -9999.0000      -9999.0000      -9999.0000      -9999.0000      -9999.0000
      -9999.0000      -9999.0000      -9999.0000      -9999.0000      -9999.0000
      -9999.0000      -9999.0000      -9999.0000      -9999.0000      -9999.0000
      -9999.0000      -9999.0000      -9999.0000      -9999.0000      -9999.0000
      -9999.0000      -9999.0000      -9999.0000      -9999.0000      -9999.0000
      -9999.0000      -9999.0000      -9999.0000      -9999.0000      -9999.0000
      -9999.0000      -9999.0000      -9999.0000      -9999.0000      -9999.0000
      -9999.0000      -9999.0000      -9999.0000      -9999.0000      -9999.0000
      -9999.0000      -9999.0000      -9999.0000      -9999.0000      -9999.0000
      -9999.0000      -9999.0000
      -9999.0000      -9999.0000      -9999.0000      -9999.0000      -9999.0000
      -9999.0000      -9999.0000      -9999.0000      -9999.0000      -9999.0000
      -9999.0000      -9999.0000      -9999.0000      -9999.0000      -9999.0000
      -9999.0000      -9999.0000      -9999.0000      -9999.0000      -9999.0000
      -9999.0000      -9999.0000      -9999.0000      -9999.0000      -9999.0000
      -9999.0000      -9999.0000      -9999.0000      -9999.0000      -9999.0000
      -9999.0000      -9999.0000      -9999.0000      -9999.0000      -9999.0000
      -9999.0000      -9999.0000      -9999.0000      -9999.0000      -9999.0000
      -9999.0000      -9999.0000      -9999.0000      -9999.0000      -9999.0000
      -9999.0000      -9999.0000      -9999.0000      -9999.0000      -9999.0000
      -9999.0000      -9999.0000      -9999.0000      -9999.0000      -9999.0000
      -9999.0000      -9999.0000      -9999.0000      -9999.0000      -9999.0000
      -9999.0000      -9999.0000      -9999.0000      -9999.0000      -9999.0000
      -9999.0000      -9999.0000      -9999.0000      -9999.0000      -9999.0000
      -9999.0000      -9999.0000      -9999.0000      -9999.0000      -9999.0000
      -9999.0000      -9999.0000      -9999.0000      -9999.0000      -9999.0000
      -9999.0000      -9999.0000      -9999.0000      -9999.0000      -9999.0000
      -9999.0000      -9999.0000      -9999.0000      -9999.0000      -9999.0000
      -9999.0000      -9999.0000
      -9999.0000      -9999.0000      -9999.0000      -9999.0000      -9999.0000
      -9999.0000      -9999.0000      -9999.0000      -9999.0000      -9999.0000
      -9999.0000      -9999.0000      -9999.0000      -9999.0000      -9999.0000
      -9999.0000      -9999.0000      -9999.0000      -9999.0000      -9999.0000
      -9999.0000      -9999.0000      -9999.0000      -9999.0000      -9999.0000
      -9999.0000      -9999.0000      -9999.0000      -9999.0000      -9999.0000
      -9999.0000      -9999.0000      -9999.0000      -9999.0000      -9999.0000
      -9999.0000      -9999.0000      -9999.0000      -9999.0000      -9999.0000
      -9999.0000      -9999.0000      -9999.0000      -9999.0000      -9999.0000
      -9999.0000      -9999.0000      -9999.0000      -9999.0000      -9999.0000
      -9999.0000      -9999.0000      -9999.0000      -9999.0000      -9999.0000
      -9999.0000      -9999.0000      -9999.0000      -9999.0000      -9999.0000
      -9999.0000      -9999.0000      -9999.0000      -9999.0000      -9999.0000
      -9999.0000      -9999.0000      -9999.0000      -9999.0000      -9999.0000
      -9999.0000      -9999.0000      -9999.0000      -9999.0000      -9999.0000
      -9999.0000      -9999.0000      -9999.0000      -9999.0000      -9999.0000
      -9999.0000      -9999.0000      -9999.0000      -9999.0000      -9999.0000
      -9999.0000      -9999.0000      -9999.0000      -9999.0000      -9999.0000
      -9999.0000      -9999.0000
      -9999.0000      -9999.0000      -9999.0000      -9999.0000      -9999.0000
      -9999.0000      -9999.0000      -9999.0000      -9999.0000      -9999.0000
      -9999.0000      -9999.0000      -9999.0000      -9999.0000      -9999.0000
      -9999.0000      -9999.0000      -9999.0000      -9999.0000      -9999.0000
      -9999.0000      -9999.0000      -9999.0000      -9999.0000      -9999.0000
      -9999.0000      -9999.0000      -9999.0000      -9999.0000      -9999.0000
      -9999.0000      -9999.0000      -9999.0000      -9999.0000      -9999.0000
      -9999.0000      -9999.0000      -9999.0000      -9999.0000      -9999.0000
      -9999.0000      -9999.0000      -9999.0000      -9999.0000      -9999.0000
      -9999.0000      -9999.0000      -9999.0000      -9999.0000      -9999.0000
      -9999.0000      -9999.0000      -9999.0000      -9999.0000      -9999.0000
      -9999.0000      -9999.0000      -9999.0000      -9999.0000      -9999.0000
      -9999.0000      -9999.0000      -9999.0000      -9999.0000      -9999.0000
      -9999.0000      -9999.0000      -9999.0000      -9999.0000      -9999.0000
      -9999.0000      -9999.0000      -9999.0000      -9999.0000      -9999.0000
      -9999.0000      -9999.0000      -9999.0000      -9999.0000      -9999.0000
      -9999.0000      -9999.0000      -9999.0000      -9999.0000      -9999.0000
      -9999.0000      -9999.0000      -9999.0000      -9999.0000      -9999.0000
      -9999.0000      -9999.0000
      -9999.0000      -9999.0000      -9999.0000      -9999.0000      -9999.0000
      -9999.0000      -9999.0000      -9999.0000      -9999.0000      -9999.0000
      -9999.0000      -9999.0000      -9999.0000      -9999.0000      -9999.0000
      -9999.0000      -9999.0000      -9999.0000      -9999.0000      -9999.0000
      -9999.0000      -9999.0000      -9999.0000      -9999.0000      -9999.0000
      -9999.0000      -9999.0000      -9999.0000      -9999.0000      -9999.0000
      -9999.0000      -9999.0000      -9999.0000      -9999.0000      -9999.0000
      -9999.0000      -9999.0000      -9999.0000      -9999.0000      -9999.0000
      -9999.0000      -9999.0000      -9999.0000      -9999.0000      -9999.0000
      -9999.0000      -9999.0000      -9999.0000      -9999.0000      -9999.0000
      -9999.0000      -9999.0000      -9999.0000      -9999.0000      -9999.0000
      -9999.0000      -9999.0000      -9999.0000      -9999.0000      -9999.0000
      -9999.0000      -9999.0000      -9999.0000      -9999.0000      -9999.0000
      -9999.0000      -9999.0000      -9999.0000      -9999.0000      -9999.0000
      -9999.0000      -9999.0000      -9999.0000      -9999.0000      -9999.0000
      -9999.0000      -9999.0000      -9999.0000      -9999.0000      -9999.0000
      -9999.0000      -9999.0000      -9999.0000      -9999.0000      -9999.0000
      -9999.0000      -9999.0000      -9999.0000      -9999.0000      -9999.0000
      -9999.0000      -9999.0000
      -9999.0000      -9999.0000      -9999.0000      -9999.0000      -9999.0000
      -9999.0000      -9999.0000      -9999.0000      -9999.0000      -9999.0000
      -9999.0000      -9999.0000      -9999.0000      -9999.0000      -9999.0000
      -9999.0000      -9999.0000      -9999.0000      -9999.0000      -9999.0000
      -9999.0000      -9999.0000      -9999.0000      -9999.0000      -9999.0000
      -9999.0000      -9999.0000      -9999.0000      -9999.0000      -9999.0000
      -9999.0000      -9999.0000      -9999.0000      -9999.0000      -9999.0000
      -9999.0000      -9999.0000      -9999.0000      -9999.0000      -9999.0000
      -9999.0000      -9999.0000      -9999.0000      -9999.0000      -9999.0000
      -9999.0000      -9999.0000      -9999.0000      -9999.0000      -9999.0000
      -9999.0000      -9999.0000      -9999.0000      -9999.0000      -9999.0000
      -9999.0000      -9999.0000      -9999.0000      -9999.0000      -9999.0000
      -9999.0000      -9999.0000      -9999.0000      -9999.0000      -9999.0000
      -9999.0000      -9999.0000      -9999.0000      -9999.0000      -9999.0000
      -9999.0000      -9999.0000      -9999.0000      -9999.0000      -9999.0000
      -9999.0000      -9999.0000      -9999.0000      -9999.0000      -9999.0000
      -9999.0000      -9999.0000      -9999.0000      -9999.0000      -9999.0000
      -9999.0000      -9999.0000      -9999.0000      -9999.0000      -9999.0000
      -9999.0000      -9999.0000
      -9999.0000      -9999.0000      -9999.0000      -9999.0000      -9999.0000
      -9999.0000      -9999.0000      -9999.0000      -9999.0000      -9999.0000
      -9999.0000      -9999.0000      -9999.0000      -9999.0000      -9999.0000
      -9999.0000      -9999.0000      -9999.0000      -9999.0000      -9999.0000
      -9999.0000      -9999.0000      -9999.0000      -9999.0000      -9999.0000
      -9999.0000      -9999.0000      -9999.0000      -9999.0000      -9999.0000
      -9999.0000      -9999.0000      -9999.0000      -9999.0000      -9999.0000
      -9999.0000      -9999.0000      -9999.0000      -9999.0000      -9999.0000
      -9999.0000      -9999.0000      -9999.0000      -9999.0000      -9999.0000
      -9999.0000      -9999.0000      -9999.0000      -9999.0000      -9999.0000
      -9999.0000      -9999.0000      -9999.0000      -9999.0000      -9999.0000
      -9999.0000      -9999.0000      -9999.0000      -9999.0000      -9999.0000
      -9999.0000      -9999.0000      -9999.0000      -9999.0000      -9999.0000
      -9999.0000      -9999.0000      -9999.0000      -9999.0000      -9999.0000
      -9999.0000      -9999.0000      -9999.0000      -9999.0000      -9999.0000
      -9999.0000      -9999.0000      -9999.0000      -9999.0000      -9999.0000
      -9999.0000      -9999.0000      -9999.0000      -9999.0000      -9999.0000
      -9999.0000      -9999.0000      -9999.0000      -9999.0000      -9999.0000
      -9999.0000      -9999.0000
      -9999.0000      -9999.0000      -9999.0000      -9999.0000      -9999.0000
      -9999.0000      -9999.0000      -9999.0000      -9999.0000      -9999.0000
      -9999.0000      -9999.0000      -9999.0000      -9999.0000      -9999.0000
      -9999.0000      -9999.0000      -9999.0000      -9999.0000      -9999.0000
      -9999.0000      -9999.0000      -9999.0000      -9999.0000      -9999.0000
      -9999.0000      -9999.0000      -9999.0000      -9999.0000      -9999.0000
      -9999.0000      -9999.0000      -9999.0000      -9999.0000      -9999.0000
      -9999.0000      -9999.0000      -9999.0000      -9999.0000      -9999.0000
      -9999.0000      -9999.0000      -9999.0000      -9999.0000      -9999.0000
      -9999.0000      -9999.0000      -9999.0000      -9999.0000      -9999.0000
      -9999.0000      -9999.0000      -9999.0000      -9999.0000      -9999.0000
      -9999.0000      -9999.0000      -9999.0000      -9999.0000      -9999.0000
      -9999.0000      -9999.0000      -9999.0000      -9999.0000      -9999.0000
      -9999.0000      -9999.0000      -9999.0000      -9999.0000      -9999.0000
      -9999.0000      -9999.0000      -9999.0000      -9999.0000      -9999.0000
      -9999.0000      -9999.0000      -9999.0000      -9999.0000      -9999.0000
      -9999.0000      -9999.0000      -9999.0000      -9999.0000      -9999.0000
      -9999.0000      -9999.0000      -9999.0000      -9999.0000      -9999.0000
      -9999.0000      -9999.0000
      -9999.0000      -9999.0000      -9999.0000      -9999.0000      -9999.0000
      -9999.0000      -9999.0000      -9999.0000      -9999.0000      -9999.0000
      -9999.0000      -9999.0000      -9999.0000      -9999.0000      -9999.0000
      -9999.0000      -9999.0000      -9999.0000      -9999.0000      -9999.0000
      -9999.0000      -9999.0000      -9999.0000      -9999.0000      -9999.0000
      -9999.0000      -9999.0000      -9999.0000      -9999.0000      -9999.0000
      -9999.0000      -9999.0000      -9999.0000      -9999.0000      -9999.0000
      -9999.0000      -9999.0000      -9999.0000      -9999.0000      -9999.0000
      -9999.0000      -9999.0000      -9999.0000      -9999.0000      -9999.0000
      -9999.0000      -9999.0000      -9999.0000      -9999.0000      -9999.0000
      -9999.0000      -9999.0000      -9999.0000      -9999.0000      -9999.0000
      -9999.0000      -9999.0000      -9999.0000      -9999.0000      -9999.0000
      -9999.0000      -9999.0000      -9999.0000      -9999.0000      -9999.0000
      -9999.0000      -9999.0000      -9999.0000      -9999.0000      -9999.0000
      -9999.0000      -9999.0000      -9999.0000      -9999.0000      -9999.0000
      -9999.0000      -9999.0000      -9999.0000      -9999.0000      -9999.0000
      -9999.0000      -9999.0000      -9999.0000      -9999.0000      -9999.0000
      -9999.0000      -9999.0000      -9999.0000      -9999.0000      -9999.0000
      -9999.0000      -9999.0000
      -9999.0000      -9999.0000      -9999.0000      -9999.0000      -9999.0000
      -9999.0000      -9999.0000      -9999.0000      -9999.0000      -9999.0000
      -9999.0000      -9999.0000      -9999.0000      -9999.0000      -9999.0000
      -9999.0000      -9999.0000      -9999.0000      -9999.0000      -9999.0000
      -9999.0000      -9999.0000      -9999.0000      -9999.0000      -9999.0000
      -9999.0000      -9999.0000      -9999.0000      -9999.0000      -9999.0000
      -9999.0000      -9999.0000      -9999.0000      -9999.0000      -9999.0000
      -9999.0000      -9999.0000      -9999.0000      -9999.0000      -9999.0000
      -9999.0000      -9999.0000      -9999.0000      -9999.0000      -9999.0000
      -9999.0000      -9999.0000      -9999.0000      -9999.0000      -9999.0000
      -9999.0000      -9999.0000      -9999.0000      -9999.0000      -9999.0000
      -9999.0000      -9999.0000      -9999.0000      -9999.0000      -9999.0000
      -9999.0000      -9999.0000      -9999.0000      -9999.0000      -9999.0000
      -9999.0000      -9999.0000      -9999.0000      -9999.0000      -9999.0000
      -9999.0000      -9999.0000      -9999.0000      -9999.0000      -9999.0000
      -9999.0000      -9999.0000      -9999.0000      -9999.0000      -9999.0000
      -9999.0000      -9999.0000      -9999.0000      -9999.0000      -9999.0000
      -9999.0000      -9999.0000      -9999.0000      -9999.0000      -9999.0000
      -9999.0000      -9999.0000
      -9999.0000      -9999.0000      -9999.0000      -9999.0000      -9999.0000
      -9999.0000      -9999.0000      -9999.0000      -9999.0000      -9999.0000
      -9999.0000      -9999.0000      -9999.0000      -9999.0000      -9999.0000
      -9999.0000      -9999.0000      -9999.0000      -9999.0000      -9999.0000
      -9999.0000      -9999.0000      -9999.0000      -9999.0000      -9999.0000
      -9999.0000      -9999.0000      -9999.0000      -9999.0000      -9999.0000
      -9999.0000      -9999.0000      -9999.0000      -9999.0000      -9999.0000
      -9999.0000      -9999.0000      -9999.0000      -9999.0000      -9999.0000
      -9999.0000      -9999.0000      -9999.0000      -9999.0000      -9999.0000
      -9999.0000      -9999.0000      -9999.0000      -9999.0000      -9999.0000
      -9999.0000      -9999.0000      -9999.0000      -9999.0000      -9999.0000
      -9999.0000      -9999.0000      -9999.0000      -9999.0000      -9999.0000
      -9999.0000      -9999.0000      -9999.0000      -9999.0000      -9999.0000
      -9999.0000      -9999.0000      -9999.0000      -9999.0000      -9999.0000
      -9999.0000      -9999.0000      -9999.0000      -9999.0000      -9999.0000
      -9999.0000      -9999.0000      -9999.0000      -9999.0000      -9999.0000
      -9999.0000      -9999.0000      -9999.0000      -9999.0000      -9999.0000
      -9999.0000      -9999.0000      -9999.0000      -9999.0000      -9999.0000
      -9999.0000      -9999.0000
      -9999.0000      -9999.0000      -9999.0000      -9999.0000      -9999.0000
      -9999.0000      -9999.0000      -9999.0000      -9999.0000      -9999.0000
      -9999.0000      -9999.0000      -9999.0000      -9999.0000      -9999.0000
      -9999.0000      -9999.0000      -9999.0000      -9999.0000      -9999.0000
      -9999.0000      -9999.0000      -9999.0000      -9999.0000      -9999.0000
      -9999.0000      -9999.0000      -9999.0000      -9999.0000      -9999.0000
      -9999.0000      -9999.0000      -9999.0000      -9999.0000      -9999.0000
      -9999.0000      -9999.0000      -9999.0000      -9999.0000      -9999.0000
      -9999.0000      -9999.0000      -9999.0000      -9999.0000      -9999.0000
      -9999.0000      -9999.0000      -9999.0000      -9999.0000      -9999.0000
      -9999.0000      -9999.0000      -9999.0000      -9999.0000      -9999.0000
      -9999.0000      -9999.0000      -9999.0000      -9999.0000      -9999.0000
      -9999.0000      -9999.0000      -9999.0000      -9999.0000      -9999.0000
      -9999.0000      -9999.0000      -9999.0000      -9999.0000      -9999.0000
      -9999.0000      -9999.0000      -9999.0000      -9999.0000      -9999.0000
      -9999.0000      -9999.0000      -9999.0000      -9999.0000      -9999.0000
      -9999.0000      -9999.0000      -9999.0000      -9999.0000      -9999.0000
      -9999.0000      -9999.0000      -9999.0000      -9999.0000      -9999.0000
      -9999.0000      -9999.0000
      -9999.0000      -9999.0000      -9999.0000      -9999.0000      -9999.0000
      -9999.0000      -9999.0000      -9999.0000      -9999.0000      -9999.0000
      -9999.0000      -9999.0000      -9999.0000      -9999.0000      -9999.0000
      -9999.0000      -9999.0000      -9999.0000      -9999.0000      -9999.0000
      -9999.0000      -9999.0000      -9999.0000      -9999.0000      -9999.0000
      -9999.0000      -9999.0000      -9999.0000      -9999.0000      -9999.0000
      -9999.0000      -9999.0000      -9999.0000      -9999.0000      -9999.0000
      -9999.0000      -9999.0000      -9999.0000      -9999.0000      -9999.0000
      -9999.0000      -9999.0000      -9999.0000      -9999.0000      -9999.0000
      -9999.0000      -9999.0000      -9999.0000      -9999.0000      -9999.0000
      -9999.0000      -9999.0000      -9999.0000      -9999.0000      -9999.0000
      -9999.0000      -9999.0000      -9999.0000      -9999.0000      -9999.0000
      -9999.0000      -9999.0000      -9999.0000      -9999.0000      -9999.0000
      -9999.0000      -9999.0000      -9999.0000      -9999.0000      -9999.0000
      -9999.0000      -9999.0000      -9999.0000      -9999.0000      -9999.0000
      -9999.0000      -9999.0000      -9999.0000      -9999.0000      -9999.0000
      -9999.0000      -9999.0000      -9999.0000      -9999.0000      -9999.0000
      -9999.0000      -9999.0000      -9999.0000      -9999.0000      -9999.0000
      -9999.0000      -9999.0000
      -9999.0000      -9999.0000      -9999.0000      -9999.0000      -9999.0000
      -9999.0000      -9999.0000      -9999.0000      -9999.0000      -9999.0000
      -9999.0000      -9999.0000      -9999.0000      -9999.0000      -9999.0000
      -9999.0000      -9999.0000      -9999.0000      -9999.0000      -9999.0000
      -9999.0000      -9999.0000      -9999.0000      -9999.0000      -9999.0000
      -9999.0000      -9999.0000      -9999.0000      -9999.0000      -9999.0000
      -9999.0000      -9999.0000      -9999.0000      -9999.0000      -9999.0000
      -9999.0000      -9999.0000      -9999.0000      -9999.0000      -9999.0000
      -9999.0000      -9999.0000      -9999.0000      -9999.0000      -9999.0000
      -9999.0000      -9999.0000      -9999.0000      -9999.0000      -9999.0000
      -9999.0000      -9999.0000      -9999.0000      -9999.0000      -9999.0000
      -9999.0000      -9999.0000      -9999.0000      -9999.0000      -9999.0000
      -9999.0000      -9999.0000      -9999.0000      -9999.0000      -9999.0000
      -9999.0000      -9999.0000      -9999.0000      -9999.0000      -9999.0000
      -9999.0000      -9999.0000      -9999.0000      -9999.0000      -9999.0000
      -9999.0000      -9999.0000      -9999.0000      -9999.0000      -9999.0000
      -9999.0000      -9999.0000      -9999.0000      -9999.0000      -9999.0000
      -9999.0000      -9999.0000      -9999.0000      -9999.0000      -9999.0000
      -9999.0000      -9999.0000
      -9999.0000      -9999.0000      -9999.0000      -9999.0000      -9999.0000
      -9999.0000      -9999.0000      -9999.0000      -9999.0000      -9999.0000
      -9999.0000      -9999.0000      -9999.0000      -9999.0000      -9999.0000
      -9999.0000      -9999.0000      -9999.0000      -9999.0000      -9999.0000
      -9999.0000      -9999.0000      -9999.0000      -9999.0000      -9999.0000
      -9999.0000      -9999.0000      -9999.0000      -9999.0000      -9999.0000
      -9999.0000      -9999.0000      -9999.0000      -9999.0000      -9999.0000
      -9999.0000      -9999.0000      -9999.0000      -9999.0000      -9999.0000
      -9999.0000      -9999.0000      -9999.0000      -9999.0000      -9999.0000
      -9999.0000      -9999.0000      -9999.0000      -9999.0000      -9999.0000
      -9999.0000      -9999.0000      -9999.0000      -9999.0000      -9999.0000
      -9999.0000      -9999.0000      -9999.0000      -9999.0000      -9999.0000
      -9999.0000      -9999.0000      -9999.0000      -9999.0000      -9999.0000
      -9999.0000      -9999.0000      -9999.0000      -9999.0000      -9999.0000
      -9999.0000      -9999.0000      -9999.0000      -9999.0000      -9999.0000
      -9999.0000      -9999.0000      -9999.0000      -9999.0000      -9999.0000
      -9999.0000      -9999.0000      -9999.0000      -9999.0000      -9999.0000
      -9999.0000      -9999.0000      -9999.0000      -9999.0000      -9999.0000
      -9999.0000      -9999.0000
      -9999.0000      -9999.0000      -9999.0000      -9999.0000      -9999.0000
      -9999.0000      -9999.0000      -9999.0000      -9999.0000      -9999.0000
      -9999.0000      -9999.0000      -9999.0000      -9999.0000      -9999.0000
      -9999.0000      -9999.0000      -9999.0000      -9999.0000      -9999.0000
      -9999.0000      -9999.0000      -9999.0000      -9999.0000      -9999.0000
      -9999.0000      -9999.0000      -9999.0000      -9999.0000      -9999.0000
      -9999.0000      -9999.0000      -9999.0000      -9999.0000      -9999.0000
      -9999.0000      -9999.0000      -9999.0000      -9999.0000      -9999.0000
      -9999.0000      -9999.0000      -9999.0000      -9999.0000      -9999.0000
      -9999.0000      -9999.0000      -9999.0000      -9999.0000      -9999.0000
      -9999.0000      -9999.0000      -9999.0000      -9999.0000      -9999.0000
      -9999.0000      -9999.0000      -9999.0000      -9999.0000      -9999.0000
      -9999.0000      -9999.0000      -9999.0000      -9999.0000      -9999.0000
      -9999.0000      -9999.0000      -9999.0000      -9999.0000      -9999.0000
      -9999.0000      -9999.0000      -9999.0000      -9999.0000      -9999.0000
      -9999.0000      -9999.0000      -9999.0000      -9999.0000      -9999.0000
      -9999.0000      -9999.0000      -9999.0000      -9999.0000      -9999.0000
      -9999.0000      -9999.0000      -9999.0000      -9999.0000      -9999.0000
      -9999.0000      -9999.0000
      -9999.0000      -9999.0000      -9999.0000      -9999.0000      -9999.0000
      -9999.0000      -9999.0000      -9999.0000      -9999.0000      -9999.0000
      -9999.0000      -9999.0000      -9999.0000      -9999.0000      -9999.0000
      -9999.0000      -9999.0000      -9999.0000      -9999.0000      -9999.0000
      -9999.0000      -9999.0000      -9999.0000      -9999.0000      -9999.0000
      -9999.0000      -9999.0000      -9999.0000      -9999.0000      -9999.0000
      -9999.0000      -9999.0000      -9999.0000      -9999.0000      -9999.0000
      -9999.0000      -9999.0000      -9999.0000      -9999.0000      -9999.0000
      -9999.0000      -9999.0000      -9999.0000      -9999.0000      -9999.0000
      -9999.0000      -9999.0000      -9999.0000      -9999.0000      -9999.0000
      -9999.0000      -9999.0000      -9999.0000      -9999.0000      -9999.0000
      -9999.0000      -9999.0000      -9999.0000      -9999.0000      -9999.0000
      -9999.0000      -9999.0000      -9999.0000      -9999.0000      -9999.0000
      -9999.0000      -9999.0000      -9999.0000      -9999.0000      -9999.0000
      -9999.0000      -9999.0000      -9999.0000      -9999.0000      -9999.0000
      -9999.0000      -9999.0000      -9999.0000      -9999.0000      -9999.0000
      -9999.0000      -9999.0000      -9999.0000      -9999.0000      -9999.0000
      -9999.0000      -9999.0000      -9999.0000      -9999.0000      -9999.0000
      -9999.0000      -9999.0000
      -9999.0000      -9999.0000      -9999.0000      -9999.0000      -9999.0000
      -9999.0000      -9999.0000      -9999.0000      -9999.0000      -9999.0000
      -9999.0000      -9999.0000      -9999.0000      -9999.0000      -9999.0000
      -9999.0000      -9999.0000      -9999.0000      -9999.0000      -9999.0000
      -9999.0000      -9999.0000      -9999.0000      -9999.0000      -9999.0000
      -9999.0000      -9999.0000      -9999.0000      -9999.0000      -9999.0000
      -9999.0000      -9999.0000      -9999.0000      -9999.0000      -9999.0000
      -9999.0000      -9999.0000      -9999.0000      -9999.0000      -9999.0000
      -9999.0000      -9999.0000      -9999.0000      -9999.0000      -9999.0000
      -9999.0000      -9999.0000      -9999.0000      -9999.0000      -9999.0000
      -9999.0000      -9999.0000      -9999.0000      -9999.0000      -9999.0000
      -9999.0000      -9999.0000      -9999.0000      -9999.0000      -9999.0000
      -9999.0000      -9999.0000      -9999.0000      -9999.0000      -9999.0000
      -9999.0000      -9999.0000      -9999.0000      -9999.0000      -9999.0000
      -9999.0000      -9999.0000      -9999.0000      -9999.0000      -9999.0000
      -9999.0000      -9999.0000      -9999.0000      -9999.0000      -9999.0000
      -9999.0000      -9999.0000      -9999.0000      -9999.0000      -9999.0000
      -9999.0000      -9999.0000      -9999.0000      -9999.0000      -9999.0000
      -9999.0000      -9999.0000
      -9999.0000      -9999.0000      -9999.0000      -9999.0000      -9999.0000
      -9999.0000      -9999.0000      -9999.0000      -9999.0000      -9999.0000
      -9999.0000      -9999.0000      -9999.0000      -9999.0000      -9999.0000
      -9999.0000      -9999.0000      -9999.0000      -9999.0000      -9999.0000
      -9999.0000      -9999.0000      -9999.0000      -9999.0000      -9999.0000
      -9999.0000      -9999.0000      -9999.0000      -9999.0000      -9999.0000
      -9999.0000      -9999.0000      -9999.0000      -9999.0000      -9999.0000
      -9999.0000      -9999.0000      -9999.0000      -9999.0000      -9999.0000
      -9999.0000      -9999.0000      -9999.0000      -9999.0000      -9999.0000
      -9999.0000      -9999.0000      -9999.0000      -9999.0000      -9999.0000
      -9999.0000      -9999.0000      -9999.0000      -9999.0000      -9999.0000
      -9999.0000      -9999.0000      -9999.0000      -9999.0000      -9999.0000
      -9999.0000      -9999.0000      -9999.0000      -9999.0000      -9999.0000
      -9999.0000      -9999.0000      -9999.0000      -9999.0000      -9999.0000
      -9999.0000      -9999.0000      -9999.0000      -9999.0000      -9999.0000
      -9999.0000      -9999.0000      -9999.0000      -9999.0000      -9999.0000
      -9999.0000      -9999.0000      -9999.0000      -9999.0000      -9999.0000
      -9999.0000      -9999.0000      -9999.0000      -9999.0000      -9999.0000
      -9999.0000      -9999.0000
      -9999.0000      -9999.0000      -9999.0000      -9999.0000      -9999.0000
      -9999.0000      -9999.0000      -9999.0000      -9999.0000      -9999.0000
      -9999.0000      -9999.0000      -9999.0000      -9999.0000      -9999.0000
      -9999.0000      -9999.0000      -9999.0000      -9999.0000      -9999.0000
      -9999.0000      -9999.0000      -9999.0000      -9999.0000      -9999.0000
      -9999.0000      -9999.0000      -9999.0000      -9999.0000      -9999.0000
      -9999.0000      -9999.0000      -9999.0000      -9999.0000      -9999.0000
      -9999.0000      -9999.0000      -9999.0000      -9999.0000      -9999.0000
      -9999.0000      -9999.0000      -9999.0000      -9999.0000      -9999.0000
      -9999.0000      -9999.0000      -9999.0000      -9999.0000      -9999.0000
      -9999.0000      -9999.0000      -9999.0000      -9999.0000      -9999.0000
      -9999.0000      -9999.0000      -9999.0000      -9999.0000      -9999.0000
      -9999.0000      -9999.0000      -9999.0000      -9999.0000      -9999.0000
      -9999.0000      -9999.0000      -9999.0000      -9999.0000      -9999.0000
      -9999.0000      -9999.0000      -9999.0000      -9999.0000      -9999.0000
      -9999.0000      -9999.0000      -9999.0000      -9999.0000      -9999.0000
      -9999.0000      -9999.0000      -9999.0000      -9999.0000      -9999.0000
      -9999.0000      -9999.0000      -9999.0000      -9999.0000      -9999.0000
      -9999.0000      -9999.0000
      -9999.0000      -9999.0000      -9999.0000      -9999.0000      -9999.0000
      -9999.0000      -9999.0000      -9999.0000      -9999.0000      -9999.0000
      -9999.0000      -9999.0000      -9999.0000      -9999.0000      -9999.0000
      -9999.0000      -9999.0000      -9999.0000      -9999.0000      -9999.0000
      -9999.0000      -9999.0000      -9999.0000      -9999.0000      -9999.0000
      -9999.0000      -9999.0000      -9999.0000      -9999.0000      -9999.0000
      -9999.0000      -9999.0000      -9999.0000      -9999.0000      -9999.0000
      -9999.0000      -9999.0000      -9999.0000      -9999.0000      -9999.0000
      -9999.0000      -9999.0000      -9999.0000      -9999.0000      -9999.0000
      -9999.0000      -9999.0000      -9999.0000      -9999.0000      -9999.0000
      -9999.0000      -9999.0000      -9999.0000      -9999.0000      -9999.0000
      -9999.0000      -9999.0000      -9999.0000      -9999.0000      -9999.0000
      -9999.0000      -9999.0000      -9999.0000      -9999.0000      -9999.0000
      -9999.0000      -9999.0000      -9999.0000      -9999.0000      -9999.0000
      -9999.0000      -9999.0000      -9999.0000      -9999.0000      -9999.0000
      -9999.0000      -9999.0000      -9999.0000      -9999.0000      -9999.0000
      -9999.0000      -9999.0000      -9999.0000      -9999.0000      -9999.0000
      -9999.0000      -9999.0000      -9999.0000      -9999.0000      -9999.0000
      -9999.0000      -9999.0000
      -9999.0000      -9999.0000      -9999.0000      -9999.0000      -9999.0000
      -9999.0000      -9999.0000      -9999.0000      -9999.0000      -9999.0000
      -9999.0000      -9999.0000      -9999.0000      -9999.0000      -9999.0000
      -9999.0000      -9999.0000      -9999.0000      -9999.0000      -9999.0000
      -9999.0000      -9999.0000      -9999.0000      -9999.0000      -9999.0000
      -9999.0000      -9999.0000      -9999.0000      -9999.0000      -9999.0000
      -9999.0000      -9999.0000      -9999.0000      -9999.0000      -9999.0000
      -9999.0000      -9999.0000      -9999.0000      -9999.0000      -9999.0000
      -9999.0000      -9999.0000      -9999.0000      -9999.0000      -9999.0000
      -9999.0000      -9999.0000      -9999.0000      -9999.0000      -9999.0000
      -9999.0000      -9999.0000      -9999.0000      -9999.0000      -9999.0000
      -9999.0000      -9999.0000      -9999.0000      -9999.0000      -9999.0000
      -9999.0000      -9999.0000      -9999.0000      -9999.0000      -9999.0000
      -9999.0000      -9999.0000      -9999.0000      -9999.0000      -9999.0000
      -9999.0000      -9999.0000      -9999.0000      -9999.0000      -9999.0000
      -9999.0000      -9999.0000      -9999.0000      -9999.0000      -9999.0000
      -9999.0000      -9999.0000      -9999.0000      -9999.0000      -9999.0000
      -9999.0000      -9999.0000      -9999.0000      -9999.0000      -9999.0000
      -9999.0000      -9999.0000
      -9999.0000      -9999.0000      -9999.0000      -9999.0000      -9999.0000
      -9999.0000      -9999.0000      -9999.0000      -9999.0000      -9999.0000
      -9999.0000      -9999.0000      -9999.0000      -9999.0000      -9999.0000
      -9999.0000      -9999.0000      -9999.0000      -9999.0000      -9999.0000
      -9999.0000      -9999.0000      -9999.0000      -9999.0000      -9999.0000
      -9999.0000      -9999.0000      -9999.0000      -9999.0000      -9999.0000
      -9999.0000      -9999.0000      -9999.0000      -9999.0000      -9999.0000
      -9999.0000      -9999.0000      -9999.0000      -9999.0000      -9999.0000
      -9999.0000      -9999.0000      -9999.0000      -9999.0000      -9999.0000
      -9999.0000      -9999.0000      -9999.0000      -9999.0000      -9999.0000
      -9999.0000      -9999.0000      -9999.0000      -9999.0000      -9999.0000
      -9999.0000      -9999.0000      -9999.0000      -9999.0000      -9999.0000
      -9999.0000      -9999.0000      -9999.0000      -9999.0000      -9999.0000
      -9999.0000      -9999.0000      -9999.0000      -9999.0000      -9999.0000
      -9999.0000      -9999.0000      -9999.0000      -9999.0000      -9999.0000
      -9999.0000      -9999.0000      -9999.0000      -9999.0000      -9999.0000
      -9999.0000      -9999.0000      -9999.0000      -9999.0000      -9999.0000
      -9999.0000      -9999.0000      -9999.0000      -9999.0000      -9999.0000
      -9999.0000      -9999.0000
      -9999.0000      -9999.0000      -9999.0000      -9999.0000      -9999.0000
      -9999.0000      -9999.0000      -9999.0000      -9999.0000      -9999.0000
      -9999.0000      -9999.0000      -9999.0000      -9999.0000      -9999.0000
      -9999.0000      -9999.0000      -9999.0000      -9999.0000      -9999.0000
      -9999.0000      -9999.0000      -9999.0000      -9999.0000      -9999.0000
      -9999.0000      -9999.0000      -9999.0000      -9999.0000      -9999.0000
      -9999.0000      -9999.0000      -9999.0000      -9999.0000      -9999.0000
      -9999.0000      -9999.0000      -9999.0000      -9999.0000      -9999.0000
      -9999.0000      -9999.0000      -9999.0000      -9999.0000      -9999.0000
      -9999.0000      -9999.0000      -9999.0000      -9999.0000      -9999.0000
      -9999.0000      -9999.0000      -9999.0000      -9999.0000      -9999.0000
      -9999.0000      -9999.0000      -9999.0000      -9999.0000      -9999.0000
      -9999.0000      -9999.0000      -9999.0000      -9999.0000      -9999.0000
      -9999.0000      -9999.0000      -9999.0000      -9999.0000      -9999.0000
      -9999.0000      -9999.0000      -9999.0000      -9999.0000      -9999.0000
      -9999.0000      -9999.0000      -9999.0000      -9999.0000      -9999.0000
      -9999.0000      -9999.0000      -9999.0000      -9999.0000      -9999.0000
      -9999.0000      -9999.0000      -9999.0000      -9999.0000      -9999.0000
      -9999.0000      -9999.0000
      -9999.0000      -9999.0000      -9999.0000      -9999.0000      -9999.0000
      -9999.0000      -9999.0000      -9999.0000      -9999.0000      -9999.0000
      -9999.0000      -9999.0000      -9999.0000      -9999.0000      -9999.0000
      -9999.0000      -9999.0000      -9999.0000      -9999.0000      -9999.0000
      -9999.0000      -9999.0000      -9999.0000      -9999.0000      -9999.0000
      -9999.0000      -9999.0000      -9999.0000      -9999.0000      -9999.0000
      -9999.0000      -9999.0000      -9999.0000      -9999.0000      -9999.0000
      -9999.0000      -9999.0000      -9999.0000      -9999.0000      -9999.0000
      -9999.0000      -9999.0000      -9999.0000      -9999.0000      -9999.0000
      -9999.0000      -9999.0000      -9999.0000      -9999.0000      -9999.0000
      -9999.0000      -9999.0000      -9999.0000      -9999.0000      -9999.0000
      -9999.0000      -9999.0000      -9999.0000      -9999.0000      -9999.0000
      -9999.0000      -9999.0000      -9999.0000      -9999.0000      -9999.0000
      -9999.0000      -9999.0000      -9999.0000      -9999.0000      -9999.0000
      -9999.0000      -9999.0000      -9999.0000      -9999.0000      -9999.0000
      -9999.0000      -9999.0000      -9999.0000      -9999.0000      -9999.0000
      -9999.0000      -9999.0000      -9999.0000      -9999.0000      -9999.0000
      -9999.0000      -9999.0000      -9999.0000      -9999.0000      -9999.0000
      -9999.0000      -9999.0000
      -9999.0000      -9999.0000      -9999.0000      -9999.0000      -9999.0000
      -9999.0000      -9999.0000      -9999.0000      -9999.0000      -9999.0000
      -9999.0000      -9999.0000      -9999.0000      -9999.0000      -9999.0000
      -9999.0000      -9999.0000      -9999.0000      -9999.0000      -9999.0000
      -9999.0000      -9999.0000      -9999.0000      -9999.0000      -9999.0000
      -9999.0000      -9999.0000      -9999.0000      -9999.0000      -9999.0000
      -9999.0000      -9999.0000      -9999.0000      -9999.0000      -9999.0000
      -9999.0000      -9999.0000      -9999.0000      -9999.0000      -9999.0000
      -9999.0000      -9999.0000      -9999.0000      -9999.0000      -9999.0000
      -9999.0000      -9999.0000      -9999.0000      -9999.0000      -9999.0000
      -9999.0000      -9999.0000      -9999.0000      -9999.0000       2.1800698
       0.0000000      -9999.0000      -9999.0000      -9999.0000      -9999.0000
      -9999.0000      -9999.0000      -9999.0000      -9999.0000      -9999.0000
      -9999.0000      -9999.0000      -9999.0000      -9999.0000      -9999.0000
      -9999.0000      -9999.0000      -9999.0000      -9999.0000      -9999.0000
      -9999.0000      -9999.0000      -9999.0000      -9999.0000      -9999.0000
      -9999.0000      -9999.0000      -9999.0000      -9999.0000      -9999.0000
      -9999.0000      -9999.0000      -9999.0000      -9999.0000      -9999.0000
      -9999.0000      -9999.0000
      -9999.0000      -9999.0000      -9999.0000      -9999.0000      -9999.0000
      -9999.0000      -9999.0000      -9999.0000      -9999.0000      -9999.0000
      -9999.0000      -9999.0000      -9999.0000      -9999.0000      -9999.0000
      -9999.0000      -9999.0000      -9999.0000      -9999.0000      -9999.0000
      -9999.0000      -9999.0000      -9999.0000      -9999.0000      -9999.0000
      -9999.0000      -9999.0000      -9999.0000      -9999.0000      -9999.0000
      -9999.0000      -9999.0000      -9999.0000      -9999.0000      -9999.0000
      -9999.0000      -9999.0000      -9999.0000      -9999.0000      -9999.0000
      -9999.0000      -9999.0000      -9999.0000      -9999.0000      -9999.0000
      -9999.0000      -9999.0000      -9999.0000      -9999.0000      -9999.0000
      -9999.0000      -9999.0000      -9999.0000       3.4766110       5.0059143
       3.2544510       3.2081433       5.7575402      -9999.0000      -9999.0000
      -9999.0000      -9999.0000      -9999.0000      -9999.0000      -9999.0000
      -9999.0000      -9999.0000      -9999.0000      -9999.0000      -9999.0000
      -9999.0000      -9999.0000      -9999.0000      -9999.0000      -9999.0000
      -9999.0000      -9999.0000      -9999.0000      -9999.0000      -9999.0000
      -9999.0000      -9999.0000      -9999.0000      -9999.0000      -9999.0000
      -9999.0000      -9999.0000      -9999.0000      -9999.0000      -9999.0000
      -9999.0000      -9999.0000
      -9999.0000      -9999.0000      -9999.0000      -9999.0000      -9999.0000
      -9999.0000      -9999.0000      -9999.0000      -9999.0000      -9999.0000
      -9999.0000      -9999.0000      -9999.0000      -9999.0000      -9999.0000
      -9999.0000      -9999.0000      -9999.0000      -9999.0000      -9999.0000
      -9999.0000      -9999.0000      -9999.0000      -9999.0000      -9999.0000
      -9999.0000      -9999.0000      -9999.0000      -9999.0000      -9999.0000
      -9999.0000      -9999.0000      -9999.0000      -9999.0000      -9999.0000
      -9999.0000      -9999.0000      -9999.0000      -9999.0000      -9999.0000
      -9999.0000      -9999.0000      -9999.0000      -9999.0000      -9999.0000
      -9999.0000      -9999.0000      -9999.0000      -9999.0000      -9999.0000
      -9999.0000      -9999.0000       0.0000000       3.1939408       5.6888962
       6.5442224       8.3790055       10.001449      -9999.0000      -9999.0000
      -9999.0000      -9999.0000      -9999.0000      -9999.0000      -9999.0000
      -9999.0000      -9999.0000      -9999.0000      -9999.0000      -9999.0000
      -9999.0000      -9999.0000      -9999.0000      -9999.0000      -9999.0000
      -9999.0000      -9999.0000      -9999.0000      -9999.0000      -9999.0000
      -9999.0000      -9999.0000      -9999.0000      -9999.0000      -9999.0000
      -9999.0000      -9999.0000      -9999.0000      -9999.0000      -9999.0000
      -9999.0000      -9999.0000
      -9999.0000      -9999.0000      -9999.0000      -9999.0000      -9999.0000
      -9999.0000      -9999.0000      -9999.0000      -9999.0000      -9999.0000
      -9999.0000      -9999.0000      -9999.0000      -9999.0000      -9999.0000
      -9999.0000      -9999.0000      -9999.0000      -9999.0000      -9999.0000
      -9999.0000      -9999.0000      -9999.0000      -9999.0000      -9999.0000
      -9999.0000      -9999.0000      -9999.0000      -9999.0000      -9999.0000
      -9999.0000      -9999.0000      -9999.0000      -9999.0000      -9999.0000
      -9999.0000      -9999.0000      -9999.0000      -9999.0000      -9999.0000
      -9999.0000      -9999.0000      -9999.0000      -9999.0000      -9999.0000
      -9999.0000      -9999.0000      -9999.0000      -9999.0000      -9999.0000
       0.0000000       0.0000000       2.2382013       3.2950919       4.9004396
       5.8273494       6.9252345       8.3593078       9.7165338      -9999.0000
      -9999.0000      -9999.0000      -9999.0000      -9999.0000      -9999.0000
      -9999.0000      -9999.0000      -9999.0000      -9999.0000      -9999.0000
      -9999.0000      -9999.0000      -9999.0000      -9999.0000      -9999.0000
      -9999.0000      -9999.0000      -9999.0000      -9999.0000      -9999.0000
      -9999.0000      -9999.0000      -9999.0000      -9999.0000      -9999.0000
      -9999.0000      -9999.0000      -9999.0000      -9999.0000      -9999.0000
      -9999.0000      -9999.0000
      -9999.0000      -9999.0000      -9999.0000      -9999.0000      -9999.0000
      -9999.0000      -9999.0000      -9999.0000      -9999.0000      -9999.0000
      -9999.0000      -9999.0000      -9999.0000      -9999.0000      -9999.0000
      -9999.0000      -9999.0000      -9999.0000      -9999.0000      -9999.0000
      -9999.0000      -9999.0000      -9999.0000      -9999.0000      -9999.0000
      -9999.0000      -9999.0000      -9999.0000      -9999.0000      -9999.0000
      -9999.0000      -9999.0000      -9999.0000      -9999.0000      -9999.0000
      -9999.0000      -9999.0000      -9999.0000      -9999.0000      -9999.0000
      -9999.0000      -9999.0000      -9999.0000      -9999.0000      -9999.0000
      -9999.0000      -9999.0000      -9999.0000      -9999.0000       0.0000000
       0.0000000       2.7908433       3.6987211       4.7767783       4.9130414
       5.1067073       5.4867001       6.4434093       7.4546465       9.8887823
      -9999.0000      -9999.0000      -9999.0000      -9999.0000      -9999.0000
      -9999.0000      -9999.0000      -9999.0000      -9999.0000      -9999.0000
      -9999.0000      -9999.0000      -9999.0000      -9999.0000      -9999.0000
      -9999.0000      -9999.0000      -9999.0000      -9999.0000      -9999.0000
      -9999.0000      -9999.0000      -9999.0000      -9999.0000      -9999.0000
      -9999.0000      -9999.0000      -9999.0000      -9999.0000      -9999.0000
      -9999.0000      -9999.0000
      -9999.0000      -9999.0000      -9999.0000      -9999.0000      -9999.0000
      -9999.0000      -9999.0000      -9999.0000      -9999.0000      -9999.0000
      -9999.0000      -9999.0000      -9999.0000      -9999.0000      -9999.0000
      -9999.0000      -9999.0000      -9999.0000      -9999.0000      -9999.0000
      -9999.0000      -9999.0000      -9999.0000      -9999.0000      -9999.0000
      -9999.0000      -9999.0000      -9999.0000      -9999.0000      -9999.0000
      -9999.0000      -9999.0000      -9999.0000      -9999.0000      -9999.0000
      -9999.0000      -9999.0000      -9999.0000      -9999.0000      -9999.0000
      -9999.0000      -9999.0000      -9999.0000      -9999.0000      -9999.0000
      -9999.0000      -9999.0000      -9999.0000       0.0000000       0.0000000
       2.1093651       3.0157673       3.7718483       4.7906591       4.9493891
       5.0648988       5.9036986       6.5357675       8.2121934       10.604992
      -9999.0000      -9999.0000      -9999.0000      -9999.0000      -9999.0000
      -9999.0000      -9999.0000      -9999.0000      -9999.0000      -9999.0000
      -9999.0000      -9999.0000      -9999.0000      -9999.0000      -9999.0000
      -9999.0000      -9999.0000      -9999.0000      -9999.0000      -9999.0000
      -9999.0000      -9999.0000      -9999.0000      -9999.0000      -9999.0000
      -9999.0000      -9999.0000      -9999.0000      -9999.0000      -9999.0000
      -9999.0000      -9999.0000
      -9999.0000      -9999.0000      -9999.0000      -9999.0000      -9999.0000
      -9999.0000      -9999.0000      -9999.0000      -9999.0000      -9999.0000
      -9999.0000      -9999.0000      -9999.0000      -9999.0000      -9999.0000
      -9999.0000      -9999.0000      -9999.0000      -9999.0000      -9999.0000
      -9999.0000      -9999.0000      -9999.0000      -9999.0000      -9999.0000
      -9999.0000      -9999.0000      -9999.0000      -9999.0000      -9999.0000
      -9999.0000      -9999.0000      -9999.0000      -9999.0000      -9999.0000
      -9999.0000      -9999.0000      -9999.0000      -9999.0000      -9999.0000
      -9999.0000      -9999.0000      -9999.0000      -9999.0000      -9999.0000
      -9999.0000      -9999.0000       0.0000000       1.3993342       2.6865703
       3.1347732       3.8013520       3.3268926       3.8394749       4.9358224
       5.7512103       6.2321715       6.6839568       7.8891796       9.2280313
      -9999.0000      -9999.0000      -9999.0000      -9999.0000      -9999.0000
      -9999.0000      -9999.0000      -9999.0000      -9999.0000      -9999.0000
      -9999.0000      -9999.0000      -9999.0000      -9999.0000      -9999.0000
      -9999.0000      -9999.0000      -9999.0000      -9999.0000      -9999.0000
      -9999.0000      -9999.0000      -9999.0000      -9999.0000      -9999.0000
      -9999.0000      -9999.0000      -9999.0000      -9999.0000      -9999.0000
      -9999.0000      -9999.0000
      -9999.0000      -9999.0000      -9999.0000      -9999.0000      -9999.0000
      -9999.0000      -9999.0000      -9999.0000      -9999.0000      -9999.0000
      -9999.0000      -9999.0000      -9999.0000      -9999.0000      -9999.0000
      -9999.0000      -9999.0000      -9999.0000      -9999.0000      -9999.0000
      -9999.0000      -9999.0000      -9999.0000      -9999.0000      -9999.0000
      -9999.0000      -9999.0000      -9999.0000      -9999.0000      -9999.0000
      -9999.0000      -9999.0000      -9999.0000      -9999.0000      -9999.0000
      -9999.0000      -9999.0000      -9999.0000      -9999.0000      -9999.0000
      -9999.0000      -9999.0000      -9999.0000      -9999.0000      -9999.0000
      -9999.0000       1.5051035       2.3253758       3.1885895       3.8888989
       4.8976054       5.0121439       4.7922370       4.6644929       5.4563948
       6.3325953       6.7520359       7.5799717       7.6873840       7.8419488
      -9999.0000      -9999.0000       3.4192948       3.1945917       2.7181067
      -9999.0000      -9999.0000      -9999.0000      -9999.0000      -9999.0000
      -9999.0000      -9999.0000      -9999.0000      -9999.0000      -9999.0000
      -9999.0000      -9999.0000      -9999.0000      -9999.0000      -9999.0000
      -9999.0000      -9999.0000      -9999.0000      -9999.0000      -9999.0000
      -9999.0000      -9999.0000      -9999.0000      -9999.0000      -9999.0000
      -9999.0000      -9999.0000
      -9999.0000      -9999.0000      -9999.0000      -9999.0000      -9999.0000
      -9999.0000      -9999.0000      -9999.0000      -9999.0000      -9999.0000
      -9999.0000      -9999.0000      -9999.0000      -9999.0000      -9999.0000
      -9999.0000      -9999.0000      -9999.0000      -9999.0000      -9999.0000
      -9999.0000      -9999.0000      -9999.0000      -9999.0000      -9999.0000
      -9999.0000      -9999.0000      -9999.0000      -9999.0000      -9999.0000
      -9999.0000      -9999.0000      -9999.0000      -9999.0000      -9999.0000
      -9999.0000      -9999.0000      -9999.0000      -9999.0000      -9999.0000
      -9999.0000      -9999.0000      -9999.0000      -9999.0000      -9999.0000
       2.5731376       4.0770187       5.3261981       5.1199899       4.7815438
       3.8853328       3.8547465       4.6734298       5.0007887       6.0352263
       7.2809586       8.6589608       9.1896924       8.8201316       7.9096979
       6.4352772       5.6208861      -9999.0000       4.4664767       4.3619419
      -9999.0000      -9999.0000      -9999.0000      -9999.0000      -9999.0000
      -9999.0000      -9999.0000      -9999.0000      -9999.0000      -9999.0000
      -9999.0000      -9999.0000      -9999.0000      -9999.0000      -9999.0000
      -9999.0000      -9999.0000      -9999.0000      -9999.0000      -9999.0000
      -9999.0000      -9999.0000      -9999.0000      -9999.0000      -9999.0000
      -9999.0000      -9999.0000
      -9999.0000      -9999.0000      -9999.0000      -9999.0000      -9999.0000
      -9999.0000      -9999.0000      -9999.0000      -9999.0000      -9999.0000
      -9999.0000      -9999.0000      -9999.0000      -9999.0000      -9999.0000
      -9999.0000      -9999.0000      -9999.0000      -9999.0000      -9999.0000
      -9999.0000      -9999.0000      -9999.0000      -9999.0000      -9999.0000
      -9999.0000      -9999.0000      -9999.0000      -9999.0000      -9999.0000
      -9999.0000      -9999.0000      -9999.0000      -9999.0000      -9999.0000
      -9999.0000      -9999.0000      -9999.0000      -9999.0000      -9999.0000
      -9999.0000      -9999.0000      -9999.0000       2.5887253       5.3312788
       6.1075753       6.9610613       6.7914887       5.9891420       5.2631969
       3.9757622       3.7472157       4.9161706       5.8256711       6.5496411
       7.8198068       9.0974342       11.333298       11.348911       10.056797
       8.0024213       6.7815570       5.7526655       4.5755136      -9999.0000
      -9999.0000      -9999.0000      -9999.0000      -9999.0000      -9999.0000
      -9999.0000      -9999.0000      -9999.0000      -9999.0000      -9999.0000
      -9999.0000      -9999.0000      -9999.0000      -9999.0000      -9999.0000
      -9999.0000      -9999.0000      -9999.0000      -9999.0000      -9999.0000
      -9999.0000      -9999.0000      -9999.0000      -9999.0000      -9999.0000
      -9999.0000      -9999.0000
      -9999.0000      -9999.0000      -9999.0000      -9999.0000      -9999.0000
      -9999.0000      -9999.0000      -9999.0000      -9999.0000      -9999.0000
      -9999.0000      -9999.0000      -9999.0000      -9999.0000      -9999.0000
      -9999.0000      -9999.0000      -9999.0000      -9999.0000      -9999.0000
      -9999.0000      -9999.0000      -9999.0000      -9999.0000      -9999.0000
      -9999.0000      -9999.0000      -9999.0000      -9999.0000      -9999.0000
      -9999.0000       4.3545225       3.6845100      -9999.0000      -9999.0000
      -9999.0000      -9999.0000      -9999.0000      -9999.0000      -9999.0000
      -9999.0000       2.5971669       8.7303688       11.378858       10.096698
       8.2212006       8.3582658       7.9767361       6.7649665       6.4350028
       5.4586289       5.1070802       5.0845453       6.0448618       7.4262810
       7.7802035       9.1338062       11.555108       12.851789       12.670401
       11.357999       10.049757       8.6350652      -9999.0000      -9999.0000
      -9999.0000      -9999.0000      -9999.0000      -9999.0000      -9999.0000
      -9999.0000      -9999.0000      -9999.0000      -9999.0000      -9999.0000
      -9999.0000      -9999.0000      -9999.0000      -9999.0000      -9999.0000
      -9999.0000      -9999.0000      -9999.0000      -9999.0000      -9999.0000
      -9999.0000      -9999.0000      -9999.0000      -9999.0000      -9999.0000
      -9999.0000      -9999.0000
      -9999.0000      -9999.0000      -9999.0000      -9999.0000      -9999.0000
      -9999.0000      -9999.0000      -9999.0000      -9999.0000      -9999.0000
      -9999.0000      -9999.0000      -9999.0000      -9999.0000      -9999.0000
      -9999.0000      -9999.0000      -9999.0000      -9999.0000      -9999.0000
      -9999.0000      -9999.0000      -9999.0000      -9999.0000      -9999.0000
      -9999.0000      -9999.0000      -9999.0000      -9999.0000      -9999.0000
       4.6476163       4.2573005       3.7604865       2.6956891       0.0000000
       0.0000000       0.0000000       2.6190163       4.2323326       6.6869179
      -9999.0000      -9999.0000      -9999.0000      -9999.0000      -9999.0000
       6.9950448       7.0924103       6.8481302       6.6064829       6.7606953
       6.4926130       6.0763984       5.4408469       6.3207373       7.6253998
       7.9002446       9.0036174       10.539588       12.139683       12.955804
       12.845028       12.075168       11.472160       11.955387      -9999.0000
      -9999.0000      -9999.0000      -9999.0000      -9999.0000      -9999.0000
      -9999.0000      -9999.0000      -9999.0000      -9999.0000      -9999.0000
      -9999.0000      -9999.0000      -9999.0000      -9999.0000      -9999.0000
      -9999.0000      -9999.0000      -9999.0000      -9999.0000      -9999.0000
      -9999.0000      -9999.0000      -9999.0000      -9999.0000      -9999.0000
      -9999.0000      -9999.0000
      -9999.0000      -9999.0000      -9999.0000      -9999.0000      -9999.0000
      -9999.0000      -9999.0000      -9999.0000      -9999.0000      -9999.0000
      -9999.0000      -9999.0000      -9999.0000      -9999.0000      -9999.0000
      -9999.0000      -9999.0000      -9999.0000      -9999.0000      -9999.0000
      -9999.0000      -9999.0000      -9999.0000      -9999.0000      -9999.0000
      -9999.0000      -9999.0000      -9999.0000       0.0000000       4.2199813
       4.2213054       4.0591269       4.2818342       5.6761157       5.6128140
       5.4745194       5.6913396       8.5896971      -9999.0000      -9999.0000
      -9999.0000      -9999.0000      -9999.0000      -9999.0000      -9999.0000
       6.3595273       6.1478724       5.5124227       5.6550189       6.3379082
       6.5084314       6.2847449       5.6051590       6.4414641       7.7584763
       8.6768789       8.6503113       8.7476422       8.9514188       9.9700875
       11.148297       12.000047       12.626335      -9999.0000      -9999.0000
      -9999.0000      -9999.0000      -9999.0000      -9999.0000      -9999.0000
      -9999.0000      -9999.0000      -9999.0000      -9999.0000      -9999.0000
      -9999.0000      -9999.0000      -9999.0000      -9999.0000      -9999.0000
      -9999.0000      -9999.0000      -9999.0000      -9999.0000      -9999.0000
      -9999.0000      -9999.0000      -9999.0000      -9999.0000      -9999.0000
      -9999.0000      -9999.0000
      -9999.0000      -9999.0000      -9999.0000      -9999.0000      -9999.0000
      -9999.0000      -9999.0000      -9999.0000      -9999.0000      -9999.0000
      -9999.0000      -9999.0000      -9999.0000      -9999.0000      -9999.0000
      -9999.0000      -9999.0000      -9999.0000      -9999.0000      -9999.0000
      -9999.0000      -9999.0000      -9999.0000      -9999.0000      -9999.0000
      -9999.0000      -9999.0000      -9999.0000       3.8414324       4.2852199
       4.1361124       4.3925350       5.7700739       6.6700964       6.8514632
       8.0030985       8.2186354       9.2307977      -9999.0000      -9999.0000
      -9999.0000      -9999.0000      -9999.0000      -9999.0000       9.7866311
       8.8106622       6.8337685       5.5166078       5.4990200       5.6584821
       6.3755321       6.2968862       5.6317703       6.1738587       7.0541414
       8.7284999       7.9791407       7.1003068       6.8165960       6.7606517
       8.4688765       9.9070869       11.728810       11.771095      -9999.0000
      -9999.0000      -9999.0000      -9999.0000      -9999.0000      -9999.0000
      -9999.0000      -9999.0000      -9999.0000      -9999.0000      -9999.0000
      -9999.0000      -9999.0000      -9999.0000      -9999.0000      -9999.0000
      -9999.0000      -9999.0000      -9999.0000      -9999.0000      -9999.0000
      -9999.0000      -9999.0000      -9999.0000      -9999.0000      -9999.0000
      -9999.0000      -9999.0000
      -9999.0000      -9999.0000      -9999.0000      -9999.0000      -9999.0000
      -9999.0000      -9999.0000      -9999.0000      -9999.0000      -9999.0000
      -9999.0000      -9999.0000      -9999.0000      -9999.0000      -9999.0000
      -9999.0000      -9999.0000      -9999.0000      -9999.0000      -9999.0000
      -9999.0000      -9999.0000      -9999.0000      -9999.0000      -9999.0000
      -9999.0000      -9999.0000      -9999.0000       4.5738139       4.1323084
       4.4249262       5.7488039       6.6501341       6.6995248       6.5909110
       7.8347782       8.1556816       8.0990913      -9999.0000      -9999.0000
      -9999.0000      -9999.0000      -9999.0000      -9999.0000      -9999.0000
       10.462903       8.5426474       6.0219605       5.4266409       5.4801461
       6.1831932       6.4351784       6.2587134       6.2684219       6.9816400
       9.0430983       9.1308140       8.6609815       7.1903858       6.8521479
       7.1215658       8.5689093       10.138356       11.397237       10.394158
      -9999.0000      -9999.0000      -9999.0000      -9999.0000      -9999.0000
      -9999.0000      -9999.0000      -9999.0000      -9999.0000      -9999.0000
      -9999.0000      -9999.0000      -9999.0000      -9999.0000      -9999.0000
      -9999.0000      -9999.0000      -9999.0000      -9999.0000      -9999.0000
      -9999.0000      -9999.0000      -9999.0000      -9999.0000      -9999.0000
      -9999.0000      -9999.0000
      -9999.0000      -9999.0000      -9999.0000      -9999.0000      -9999.0000
      -9999.0000      -9999.0000      -9999.0000      -9999.0000      -9999.0000
      -9999.0000      -9999.0000      -9999.0000      -9999.0000      -9999.0000
      -9999.0000      -9999.0000      -9999.0000      -9999.0000      -9999.0000
      -9999.0000      -9999.0000      -9999.0000      -9999.0000      -9999.0000
      -9999.0000      -9999.0000      -9999.0000       4.7204601       4.5063752
       5.7067755       5.8710881       6.6197956       6.5110918       6.5480402
       7.9077552       8.1608583       8.2261281       7.8715015      -9999.0000
      -9999.0000      -9999.0000      -9999.0000      -9999.0000      -9999.0000
      -9999.0000       7.5160122       5.3642279       4.3085664       5.3647221
       5.6049680       6.2429464       6.6152652       6.9696856       8.7101971
       10.260191       11.168346       10.921890       9.9350718       8.4972870
       8.2700214       8.4078254       10.014097       11.913031       12.372499
       11.938616      -9999.0000      -9999.0000      -9999.0000      -9999.0000
      -9999.0000      -9999.0000      -9999.0000      -9999.0000      -9999.0000
      -9999.0000      -9999.0000      -9999.0000      -9999.0000      -9999.0000
      -9999.0000      -9999.0000      -9999.0000      -9999.0000      -9999.0000
      -9999.0000      -9999.0000      -9999.0000      -9999.0000      -9999.0000
      -9999.0000      -9999.0000
      -9999.0000      -9999.0000      -9999.0000      -9999.0000      -9999.0000
      -9999.0000      -9999.0000      -9999.0000      -9999.0000      -9999.0000
      -9999.0000      -9999.0000      -9999.0000      -9999.0000      -9999.0000
      -9999.0000      -9999.0000      -9999.0000      -9999.0000      -9999.0000
      -9999.0000      -9999.0000      -9999.0000      -9999.0000      -9999.0000
      -9999.0000      -9999.0000       4.6941696       4.7572551       5.8492934
       5.9318833       5.8144565       6.2095016       6.2666835       6.1887362
       6.5221925       7.7703030       7.9109568       7.8097012       7.0568195
       6.0168834       5.9920527       6.4340054       7.2321467       7.8352198
       8.0960474       6.4068172       4.3773240       4.3252635       5.4731872
       5.5808190       5.7462621       6.6503350       8.3753942       9.6820038
       11.036670       11.904684       12.230553       11.659418       10.688145
       9.2800170       8.5054812       10.005037       12.087558       14.739255
       16.218353      -9999.0000      -9999.0000      -9999.0000      -9999.0000
      -9999.0000      -9999.0000      -9999.0000      -9999.0000      -9999.0000
      -9999.0000      -9999.0000      -9999.0000      -9999.0000      -9999.0000
      -9999.0000      -9999.0000      -9999.0000      -9999.0000      -9999.0000
      -9999.0000      -9999.0000      -9999.0000      -9999.0000      -9999.0000
      -9999.0000      -9999.0000
      -9999.0000      -9999.0000      -9999.0000      -9999.0000      -9999.0000
      -9999.0000      -9999.0000      -9999.0000      -9999.0000      -9999.0000
      -9999.0000      -9999.0000      -9999.0000      -9999.0000      -9999.0000
      -9999.0000      -9999.0000      -9999.0000      -9999.0000      -9999.0000
      -9999.0000      -9999.0000      -9999.0000      -9999.0000      -9999.0000
      -9999.0000      -9999.0000       4.0666447       4.6911038       6.0927509
       6.0119249       5.8179257       5.6446662       5.5042372       5.4061809
       5.9599058       6.1604108       6.2650004       6.3106722       7.0592891
       7.7984825       7.9182919       7.9542021       8.0830503       8.1464611
       8.2335953       7.8697078       6.4723036       6.4347595       6.5121217
       6.5640883       6.7479974       8.4821070       9.7219869       10.457759
       11.345900       12.091586       12.704978       12.713992       12.421397
       11.071893       9.8332494       10.628945       12.761384       16.111050
      -9999.0000      -9999.0000      -9999.0000      -9999.0000      -9999.0000
      -9999.0000      -9999.0000      -9999.0000      -9999.0000      -9999.0000
      -9999.0000      -9999.0000      -9999.0000      -9999.0000      -9999.0000
      -9999.0000      -9999.0000      -9999.0000      -9999.0000      -9999.0000
      -9999.0000      -9999.0000      -9999.0000      -9999.0000      -9999.0000
      -9999.0000      -9999.0000
      -9999.0000      -9999.0000      -9999.0000      -9999.0000      -9999.0000
      -9999.0000      -9999.0000      -9999.0000      -9999.0000      -9999.0000
      -9999.0000      -9999.0000      -9999.0000      -9999.0000      -9999.0000
      -9999.0000      -9999.0000      -9999.0000      -9999.0000      -9999.0000
      -9999.0000      -9999.0000      -9999.0000      -9999.0000      -9999.0000
      -9999.0000      -9999.0000       2.7414464       4.3152472       6.1187479
       6.8702828       5.7395300       5.4865501       5.3861741       5.2996833
       5.3266612       5.4656793       5.9710396       6.1074612       6.2273355
       6.3746716       6.4294157       7.1165223       7.2570684       7.9930545
       8.1800961       8.4866663       9.3434369       9.4081639       9.3755762
       9.6141374       10.187088       10.624354       11.177412       11.931964
       12.376879       12.660770       13.139285       13.423472       13.517434
       12.733492       11.594103       11.679739       12.929990       16.032339
      -9999.0000      -9999.0000      -9999.0000      -9999.0000      -9999.0000
      -9999.0000      -9999.0000      -9999.0000      -9999.0000      -9999.0000
      -9999.0000      -9999.0000      -9999.0000      -9999.0000      -9999.0000
      -9999.0000      -9999.0000      -9999.0000      -9999.0000      -9999.0000
      -9999.0000      -9999.0000      -9999.0000      -9999.0000      -9999.0000
      -9999.0000      -9999.0000
      -9999.0000      -9999.0000      -9999.0000      -9999.0000      -9999.0000
      -9999.0000      -9999.0000      -9999.0000      -9999.0000      -9999.0000
      -9999.0000      -9999.0000      -9999.0000      -9999.0000      -9999.0000
      -9999.0000      -9999.0000      -9999.0000      -9999.0000      -9999.0000
      -9999.0000      -9999.0000      -9999.0000      -9999.0000      -9999.0000
      -9999.0000      -9999.0000       0.0000000       3.5740412       5.8278757
       6.0853307       5.8027844       5.5205439       5.4140880       5.3705499
       5.3183528       5.3978450       5.4703927       5.7279248       5.9984777
       6.0177650       6.3143633       7.2012590       7.9542941       8.1368170
       8.2659614       9.1932279       9.9466973       11.039391       11.363369
       11.833905       11.798769       11.244280       10.962201       11.806344
       12.904702       13.096703       13.342129       13.717833       13.981434
       13.909343       13.110405       12.901418       13.694592       16.079106
      -9999.0000      -9999.0000      -9999.0000      -9999.0000      -9999.0000
      -9999.0000      -9999.0000      -9999.0000      -9999.0000      -9999.0000
      -9999.0000      -9999.0000      -9999.0000      -9999.0000      -9999.0000
      -9999.0000      -9999.0000      -9999.0000      -9999.0000      -9999.0000
      -9999.0000      -9999.0000      -9999.0000      -9999.0000      -9999.0000
      -9999.0000      -9999.0000
      -9999.0000      -9999.0000      -9999.0000      -9999.0000      -9999.0000
      -9999.0000      -9999.0000      -9999.0000      -9999.0000      -9999.0000
      -9999.0000      -9999.0000      -9999.0000      -9999.0000      -9999.0000
      -9999.0000      -9999.0000      -9999.0000      -9999.0000      -9999.0000
      -9999.0000      -9999.0000      -9999.0000      -9999.0000      -9999.0000
      -9999.0000       2.1663438       2.7055771       2.6492758       4.2557932
       4.5767362       5.6464896       5.6015983       5.5262031       5.4713002
       5.5431556       5.5465034       5.5798660       6.0175107       6.0922255
       6.3412707       7.2770967       8.2046634       9.1482726       9.4497274
       9.6554569       10.045637       11.015123       12.014198       12.426733
       12.402607       11.717445       11.010951       10.371272       11.443714
       12.950529       13.902286       14.193958       14.258620       14.530055
       14.644447       14.036909       14.147215       15.993481      -9999.0000
      -9999.0000      -9999.0000      -9999.0000      -9999.0000      -9999.0000
      -9999.0000      -9999.0000      -9999.0000      -9999.0000      -9999.0000
      -9999.0000      -9999.0000      -9999.0000      -9999.0000      -9999.0000
      -9999.0000      -9999.0000      -9999.0000      -9999.0000      -9999.0000
      -9999.0000      -9999.0000      -9999.0000      -9999.0000      -9999.0000
      -9999.0000      -9999.0000
      -9999.0000      -9999.0000      -9999.0000      -9999.0000      -9999.0000
      -9999.0000      -9999.0000      -9999.0000      -9999.0000      -9999.0000
      -9999.0000      -9999.0000      -9999.0000      -9999.0000      -9999.0000
      -9999.0000      -9999.0000      -9999.0000      -9999.0000      -9999.0000
      -9999.0000      -9999.0000      -9999.0000      -9999.0000      -9999.0000
       5.0577473       4.5784026       3.9978229       3.4975043       3.5455277
       3.6749939       4.1657122       4.4503000       4.5187351       5.4114754
       5.5247922       5.6167494       5.9240177       6.1719694       6.2912695
       6.6333038       8.1680219       9.3255090       9.8130830       10.162732
       10.700236       11.116227       11.587700       12.223291       12.515254
       12.075399       11.395182       11.323366       11.244651       11.791165
       13.426326       14.736319       15.034843       15.234344       15.425090
       14.995037       14.721116       15.415110       12.992051      -9999.0000
      -9999.0000      -9999.0000      -9999.0000      -9999.0000      -9999.0000
      -9999.0000      -9999.0000      -9999.0000      -9999.0000      -9999.0000
      -9999.0000      -9999.0000      -9999.0000      -9999.0000      -9999.0000
      -9999.0000      -9999.0000      -9999.0000      -9999.0000      -9999.0000
      -9999.0000      -9999.0000      -9999.0000      -9999.0000      -9999.0000
      -9999.0000      -9999.0000
      -9999.0000      -9999.0000      -9999.0000      -9999.0000      -9999.0000
      -9999.0000      -9999.0000      -9999.0000      -9999.0000      -9999.0000
      -9999.0000      -9999.0000      -9999.0000      -9999.0000      -9999.0000
      -9999.0000      -9999.0000      -9999.0000      -9999.0000      -9999.0000
      -9999.0000      -9999.0000      -9999.0000      -9999.0000       6.6969180
       6.2902128       6.1192036       4.6854362       4.1939026       3.7240686
       2.7870355       3.1783377       3.8564323       4.2051382       4.4295661
       5.4535228       5.5539433       5.7247783       6.3210272       6.5383983
       7.9134152       8.9093851       9.6876312       10.148526       10.732861
       10.944163       11.246916       11.583361       11.833601       12.052162
       11.731847       11.328214       11.609863       11.979536       12.719046
       14.189102       15.248793       15.532210       15.338387       14.664618
       14.376899       15.108165       15.544190      -9999.0000      -9999.0000
      -9999.0000      -9999.0000      -9999.0000      -9999.0000      -9999.0000
      -9999.0000      -9999.0000      -9999.0000      -9999.0000      -9999.0000
      -9999.0000      -9999.0000      -9999.0000      -9999.0000      -9999.0000
      -9999.0000      -9999.0000      -9999.0000      -9999.0000      -9999.0000
      -9999.0000      -9999.0000      -9999.0000      -9999.0000      -9999.0000
      -9999.0000      -9999.0000
      -9999.0000      -9999.0000      -9999.0000      -9999.0000      -9999.0000
      -9999.0000      -9999.0000      -9999.0000      -9999.0000      -9999.0000
      -9999.0000      -9999.0000      -9999.0000      -9999.0000      -9999.0000
      -9999.0000      -9999.0000      -9999.0000      -9999.0000      -9999.0000
      -9999.0000      -9999.0000       9.6503382       9.3865215       7.2686057
       6.2310588       6.0247005       4.5780342       4.6114924       4.4785812
       4.4093948       4.0699656       3.8555761       3.9379659       4.1429480
       4.4197388       5.4735805       5.6865714       6.3415034       6.7202940
       8.1403900       9.1001531       9.7002861       10.126338       10.764686
       10.906653       10.933994       11.135874       11.255875       11.438212
       11.613718       11.643293       11.790122       12.596935       13.655695
       14.765174       14.493860       14.078863       13.858908       12.873390
       13.564436       15.248718       14.444716      -9999.0000      -9999.0000
      -9999.0000      -9999.0000      -9999.0000      -9999.0000      -9999.0000
      -9999.0000       7.7959369      -9999.0000      -9999.0000      -9999.0000
      -9999.0000      -9999.0000      -9999.0000      -9999.0000      -9999.0000
      -9999.0000      -9999.0000      -9999.0000      -9999.0000      -9999.0000
      -9999.0000      -9999.0000      -9999.0000      -9999.0000      -9999.0000
      -9999.0000      -9999.0000
      -9999.0000      -9999.0000      -9999.0000      -9999.0000      -9999.0000
      -9999.0000      -9999.0000      -9999.0000      -9999.0000      -9999.0000
      -9999.0000      -9999.0000      -9999.0000      -9999.0000      -9999.0000
      -9999.0000      -9999.0000      -9999.0000      -9999.0000      -9999.0000
      -9999.0000      -9999.0000       12.180711       11.717037       9.4016848
       8.1451794       5.8962340       5.5590600       5.4277327       5.4062449
       5.5038024       5.5715394       5.5614611       4.6594493       4.5272434
       4.5032242       4.5937892       5.5553136       5.8110229       7.9120531
       8.8043081       9.3526785       9.5394046       9.6948164       9.8254425
       10.037810       9.8894951       9.9425416       10.589507       10.931110
       11.365330       11.610758       12.037536       13.030820       13.893752
       14.160724       13.084208       11.795502       11.686391       12.504948
       14.386803       16.286046       12.644397       5.7411619      -9999.0000
      -9999.0000      -9999.0000      -9999.0000      -9999.0000       4.5753940
       6.0899905       8.4995956       10.263754       12.176048      -9999.0000
      -9999.0000      -9999.0000      -9999.0000      -9999.0000      -9999.0000
      -9999.0000      -9999.0000      -9999.0000      -9999.0000      -9999.0000
      -9999.0000      -9999.0000      -9999.0000      -9999.0000      -9999.0000
      -9999.0000      -9999.0000
      -9999.0000      -9999.0000      -9999.0000      -9999.0000      -9999.0000
      -9999.0000      -9999.0000      -9999.0000      -9999.0000      -9999.0000
      -9999.0000      -9999.0000      -9999.0000      -9999.0000      -9999.0000
      -9999.0000      -9999.0000      -9999.0000      -9999.0000      -9999.0000
      -9999.0000       11.299294       13.023269       12.013111       10.156865
       8.8550635       5.8210046       5.5909430       5.4845594       5.5153585
       5.7174785       6.3985131       5.8053000       5.8139752       6.4955289
       6.6705506       6.4552367       5.7913704       6.3511352       7.9433058
       8.9300319       9.3494543       9.6489343       9.7719039       9.9468151
       10.558606       9.8121353       9.2760079       9.5169993       10.388514
       11.002517       11.418148       11.909975       12.444933       13.078361
       12.643974       11.551984       11.223067       12.679178       14.951784
       14.915660       12.957800       12.331923       10.335916      -9999.0000
      -9999.0000      -9999.0000      -9999.0000       4.7380325       7.7933525
       9.5305958       10.313543       11.758843       12.468295      -9999.0000
      -9999.0000      -9999.0000      -9999.0000      -9999.0000      -9999.0000
      -9999.0000      -9999.0000      -9999.0000      -9999.0000      -9999.0000
      -9999.0000      -9999.0000      -9999.0000      -9999.0000      -9999.0000
      -9999.0000      -9999.0000
      -9999.0000      -9999.0000      -9999.0000      -9999.0000      -9999.0000
      -9999.0000      -9999.0000      -9999.0000      -9999.0000      -9999.0000
      -9999.0000      -9999.0000      -9999.0000      -9999.0000      -9999.0000
      -9999.0000      -9999.0000      -9999.0000      -9999.0000      -9999.0000
      -9999.0000       10.077800       10.339935       9.5934130       9.3641748
       8.9351143       6.3627502       6.3739575       5.9504697       5.6744607
       5.8905460       7.6809098       7.9215487       7.7585612       7.6568714
       8.0104430       8.0719605       7.9238242       7.2585969       8.0331737
       8.3073410       8.9690955       9.2384527       9.6287139       10.183119
       10.920372       10.426728       9.2204569       8.8637223       9.4136854
       9.8879969       10.621905       11.038352       11.420035       11.626880
       12.025280       12.751659       14.509149       15.500262       14.030206
       11.976088       11.582449       14.147348       15.478956      -9999.0000
      -9999.0000      -9999.0000      -9999.0000       6.2479758       10.506503
       12.185016       12.683618       12.896238       12.715633      -9999.0000
      -9999.0000      -9999.0000      -9999.0000      -9999.0000      -9999.0000
      -9999.0000      -9999.0000      -9999.0000      -9999.0000      -9999.0000
      -9999.0000      -9999.0000      -9999.0000      -9999.0000      -9999.0000
      -9999.0000      -9999.0000
      -9999.0000      -9999.0000      -9999.0000      -9999.0000      -9999.0000
      -9999.0000      -9999.0000      -9999.0000      -9999.0000      -9999.0000
      -9999.0000      -9999.0000      -9999.0000      -9999.0000      -9999.0000
      -9999.0000      -9999.0000      -9999.0000      -9999.0000      -9999.0000
       6.3058148       7.0658389       6.9444489       6.9212674       8.8929083
       8.6049039       5.6038588       5.6330453       6.2630442       7.7017700
       7.6414007       7.9229275       7.8698824       7.6796503       6.4478088
       8.5060123       9.1733769       9.1101887       8.4635550       7.1770102
       7.1507268       7.2714007       8.9475644       9.2758525       9.9320439
       10.294022       10.666008       10.027097       9.7277423       9.4779045
       9.5747691       9.8685806       10.607250       11.173290       12.481894
       14.533364       16.020800       15.237188       12.990989       11.695324
       11.802321       14.553523       17.342565       16.893908       13.941576
       9.4101750       4.0580841       7.2554194       11.544159       13.418190
       13.866031       13.658309       13.710825       13.650796       13.481741
      -9999.0000      -9999.0000      -9999.0000      -9999.0000      -9999.0000
      -9999.0000      -9999.0000      -9999.0000      -9999.0000      -9999.0000
      -9999.0000      -9999.0000      -9999.0000      -9999.0000      -9999.0000
      -9999.0000      -9999.0000
      -9999.0000      -9999.0000      -9999.0000      -9999.0000      -9999.0000
      -9999.0000      -9999.0000      -9999.0000      -9999.0000      -9999.0000
      -9999.0000      -9999.0000      -9999.0000      -9999.0000      -9999.0000
      -9999.0000      -9999.0000      -9999.0000      -9999.0000       10.000260
       9.5059386       9.8718737       9.6783359       10.037521       10.244323
       8.0586860       6.1933798       6.3285641       7.5399556       7.0265317
       6.3352434       6.4163454       7.6387912       6.9559192       5.6281823
       5.6391273       7.7568635       9.1103215       9.5059279       8.8630772
       7.8700073       7.0565075       8.0291417       9.1597346       9.6709759
       9.9211476       10.683633       11.103044       11.017533       11.444946
       12.560297       13.210291       13.164149       14.097696       15.535377
       16.421095       15.174510       13.112688       12.152682       13.009284
       16.179900       18.574441       18.339925       16.023718       14.554581
       14.689397       13.974374       13.998801       14.815219       15.155283
       14.730764       14.243682       14.335117       14.824285       14.945930
       14.385496      -9999.0000      -9999.0000      -9999.0000      -9999.0000
      -9999.0000      -9999.0000      -9999.0000      -9999.0000      -9999.0000
      -9999.0000      -9999.0000      -9999.0000      -9999.0000      -9999.0000
      -9999.0000      -9999.0000
      -9999.0000      -9999.0000      -9999.0000      -9999.0000      -9999.0000
      -9999.0000      -9999.0000      -9999.0000      -9999.0000      -9999.0000
      -9999.0000      -9999.0000      -9999.0000      -9999.0000      -9999.0000
      -9999.0000      -9999.0000      -9999.0000      -9999.0000       13.179092
       12.649967       12.117588       12.053673       12.159184       10.694462
       8.4306926       7.8656169       7.7671605       6.3867158       5.6958241
       5.7508573       7.5616620       7.8691914       7.5768462       6.1909188
       5.4669281       5.5886650       7.7485963       9.1647306       9.6525433
       9.4418759       8.9340223       8.8574699       9.1871665       9.5470517
       10.169849       11.369008       11.907907       13.018884       14.389426
       15.732296       16.053423       16.279851       17.411100       17.337795
       16.062958       14.573726       13.606618       14.865680       18.169855
       20.390813       19.496141       16.659237       15.748332       17.515018
       17.556208       16.323301       15.414782       15.269169       15.200023
       14.746288       14.712577       14.807396       15.493687       15.895457
       15.140427      -9999.0000      -9999.0000      -9999.0000      -9999.0000
      -9999.0000      -9999.0000      -9999.0000      -9999.0000      -9999.0000
      -9999.0000      -9999.0000      -9999.0000      -9999.0000      -9999.0000
      -9999.0000      -9999.0000
      -9999.0000      -9999.0000      -9999.0000      -9999.0000      -9999.0000
      -9999.0000      -9999.0000      -9999.0000      -9999.0000      -9999.0000
      -9999.0000      -9999.0000      -9999.0000      -9999.0000      -9999.0000
      -9999.0000      -9999.0000      -9999.0000      -9999.0000       14.884933
       15.173164       14.144106       13.632565       12.972394       10.744511
       9.1646356       8.8021452       8.6212903       7.7728181       5.6823450
       5.5393954       5.6514502       6.2087718       5.6547536       5.6498146
       5.5042164       5.5733425       6.9713047       8.5731501       9.3061321
       9.9527193       9.9638334       9.8176007       9.7522810       9.8314907
       10.309470       10.719347       11.962843       13.507129       15.302355
       17.331508       18.267345       18.403759       18.070953       17.343617
       17.848973       17.694416       18.529941       21.039203       21.980832
       21.271719       18.984254       18.327647       18.464057       18.936881
       17.635818       16.411681       15.543124       15.572747       15.261852
       15.187784       15.148760       15.494960       15.978391       16.461679
       16.006783      -9999.0000      -9999.0000       17.384415      -9999.0000
      -9999.0000      -9999.0000      -9999.0000      -9999.0000      -9999.0000
      -9999.0000      -9999.0000      -9999.0000      -9999.0000      -9999.0000
      -9999.0000      -9999.0000
      -9999.0000      -9999.0000      -9999.0000      -9999.0000      -9999.0000
      -9999.0000      -9999.0000      -9999.0000      -9999.0000      -9999.0000
      -9999.0000      -9999.0000      -9999.0000      -9999.0000      -9999.0000
      -9999.0000      -9999.0000      -9999.0000      -9999.0000       14.930637
       15.812420       15.183127       14.696051       13.661919       11.946001
       10.796229       10.070980       9.2628855       8.6801333       7.9360199
       5.9131227       5.7031213       5.6330259       5.6761636       5.5955350
       6.3521473       7.8102976       8.1004018       8.8498442       9.5766957
       10.439003       11.377670       11.422119       11.432937       10.861772
       10.963006       11.516857       12.706158       14.480889       15.875996
       17.327976       18.497296       18.911494       19.458926       20.854250
       24.650478       27.426080       27.090051       25.927634       25.455164
       21.272403       22.773417       22.804902       22.392587       21.122870
       17.506771       16.346321       16.088629       16.626604       16.575755
       16.282015       16.052034       16.302395       16.693583       17.168027
       17.250760       17.256170       18.475598       22.751645      -9999.0000
      -9999.0000      -9999.0000      -9999.0000      -9999.0000      -9999.0000
      -9999.0000      -9999.0000      -9999.0000      -9999.0000      -9999.0000
      -9999.0000      -9999.0000
      -9999.0000      -9999.0000      -9999.0000      -9999.0000      -9999.0000
      -9999.0000      -9999.0000      -9999.0000      -9999.0000      -9999.0000
      -9999.0000      -9999.0000      -9999.0000      -9999.0000      -9999.0000
      -9999.0000      -9999.0000      -9999.0000      -9999.0000       12.856911
       14.173124       14.417141       14.349411       14.078937       13.118926
       12.773326       12.087023       10.642933       9.9372951       9.3099388
       8.0003792       5.9346857       5.7584987       6.5253113       7.7250391
       8.8108471       9.5455876       9.8537295       9.9615595       9.9232765
       10.398123       10.780381       12.023783       12.660439       13.991264
       16.322001       17.067096       17.347994       17.540634       18.173055
       18.699171       19.480595       21.115325       24.834792       27.155017
      -9999.0000      -9999.0000      -9999.0000       26.887821       21.529483
       18.512614       15.005091       10.972662       14.087322       23.983069
       21.352943       17.163104       16.705593       17.736204       17.826526
       17.537563       17.334590       17.288917       17.792838       18.038806
       18.722535       20.924859       22.429377       12.927845      -9999.0000
      -9999.0000      -9999.0000      -9999.0000      -9999.0000      -9999.0000
      -9999.0000      -9999.0000      -9999.0000      -9999.0000      -9999.0000
      -9999.0000      -9999.0000
      -9999.0000      -9999.0000      -9999.0000      -9999.0000      -9999.0000
      -9999.0000      -9999.0000      -9999.0000      -9999.0000      -9999.0000
      -9999.0000      -9999.0000      -9999.0000      -9999.0000      -9999.0000
      -9999.0000      -9999.0000      -9999.0000      -9999.0000       12.373494
       13.311416       13.828657       13.942439       13.454147       13.255793
       13.667577       13.871960       12.880373       10.959830       9.6630273
       8.7583298       7.9584714       8.6829786       9.5739213       9.9771250
       9.9798440       10.083454       10.309667       10.500498       10.228017
       10.416479       11.707449       13.482042       15.430479       17.254671
       19.570556       20.660058       20.507379       20.281850       20.498507
       21.044836       23.181156       28.683358       24.623664      -9999.0000
      -9999.0000      -9999.0000      -9999.0000      -9999.0000      -9999.0000
      -9999.0000      -9999.0000      -9999.0000      -9999.0000      -9999.0000
       26.533196       20.703887       17.878156       19.044047       19.353973
       18.850557       18.246358       18.181530       18.453288       18.788868
       20.598796       22.439033       23.302920      -9999.0000      -9999.0000
      -9999.0000      -9999.0000      -9999.0000      -9999.0000      -9999.0000
      -9999.0000      -9999.0000      -9999.0000      -9999.0000      -9999.0000
      -9999.0000      -9999.0000
      -9999.0000      -9999.0000      -9999.0000      -9999.0000      -9999.0000
      -9999.0000      -9999.0000      -9999.0000      -9999.0000      -9999.0000
      -9999.0000      -9999.0000      -9999.0000      -9999.0000      -9999.0000
      -9999.0000      -9999.0000      -9999.0000      -9999.0000       14.779051
       15.765470       15.486202       15.065163       14.356803       13.710394
       13.512845       13.806359       13.493392       12.756407       11.721925
       10.708635       9.8879794       9.3679997       10.135716       11.584784
       11.886670       10.983978       10.759368       10.771139       10.622911
       11.673326       12.617006       15.018892       17.645051       19.568792
       8.7181436      0.98827438       8.5370588       16.629577       23.834564
       24.377509       21.701907       14.223588       0.0000000      -9999.0000
      -9999.0000      -9999.0000      -9999.0000      -9999.0000      -9999.0000
      -9999.0000      -9999.0000      -9999.0000      -9999.0000      -9999.0000
      -9999.0000       24.871772       20.833800       20.191265       20.670210
       20.166724       19.565428       19.392051       19.654857       20.311813
       21.670876       22.770264       21.615337      -9999.0000      -9999.0000
      -9999.0000      -9999.0000      -9999.0000      -9999.0000      -9999.0000
      -9999.0000      -9999.0000      -9999.0000      -9999.0000      -9999.0000
      -9999.0000      -9999.0000
      -9999.0000      -9999.0000      -9999.0000      -9999.0000      -9999.0000
      -9999.0000      -9999.0000      -9999.0000      -9999.0000      -9999.0000
      -9999.0000      -9999.0000      -9999.0000      -9999.0000      -9999.0000
      -9999.0000      -9999.0000      -9999.0000      -9999.0000       16.185919
       17.571442       17.322071       16.705146       15.799965       14.897582
       14.258892       14.160426       14.266765       13.506675       12.643944
       12.648590       12.996191       12.542011       12.037218       12.319515
       12.494602       12.350017       12.168541       12.397524       13.555935
       14.592289       15.383581       17.808626       19.030368       2.6607632
       0.0000000       0.0000000       13.036517       22.962033       23.259903
       20.321560       18.068729       6.8804936      -9999.0000      -9999.0000
      -9999.0000      -9999.0000      -9999.0000      -9999.0000      -9999.0000
      -9999.0000      -9999.0000      -9999.0000      -9999.0000      -9999.0000
      -9999.0000      -9999.0000       25.106349       22.335621       21.818998
       21.525708       21.346221       21.255430       21.555708       21.735693
       22.340400       21.760141       19.057754      -9999.0000      -9999.0000
      -9999.0000      -9999.0000      -9999.0000      -9999.0000      -9999.0000
      -9999.0000      -9999.0000      -9999.0000      -9999.0000      -9999.0000
      -9999.0000      -9999.0000
      -9999.0000      -9999.0000      -9999.0000      -9999.0000      -9999.0000
      -9999.0000      -9999.0000      -9999.0000      -9999.0000      -9999.0000
      -9999.0000      -9999.0000      -9999.0000      -9999.0000      -9999.0000
      -9999.0000      -9999.0000      -9999.0000      -9999.0000      -9999.0000
       17.395300       17.774266       17.822358       17.264687       16.256937
       15.621857       15.394335       15.684730       15.739352       15.226490
       14.599253       14.143558       13.089915       12.345221       12.586024
       12.933100       13.088361       13.073457       13.774163       15.461649
       16.451420       17.355902       18.142925       16.770545       8.3668297
       16.410413       24.119179       32.428268       28.253496       20.377092
       15.136045       7.6511720      -9999.0000      -9999.0000      -9999.0000
      -9999.0000      -9999.0000      -9999.0000      -9999.0000      -9999.0000
      -9999.0000      -9999.0000      -9999.0000      -9999.0000      -9999.0000
      -9999.0000      -9999.0000       21.177488       28.139897       26.747452
       24.864084       23.967466       23.468973       23.227676       22.767511
       22.145090       19.907590       15.212208      -9999.0000      -9999.0000
      -9999.0000      -9999.0000      -9999.0000      -9999.0000      -9999.0000
      -9999.0000      -9999.0000      -9999.0000      -9999.0000      -9999.0000
      -9999.0000      -9999.0000
      -9999.0000      -9999.0000      -9999.0000      -9999.0000      -9999.0000
      -9999.0000      -9999.0000      -9999.0000      -9999.0000      -9999.0000
      -9999.0000      -9999.0000      -9999.0000      -9999.0000      -9999.0000
      -9999.0000      -9999.0000      -9999.0000      -9999.0000      -9999.0000
       17.357305       17.720639       18.121566       18.098640       17.125242
       16.883875       16.749947       16.808534       16.767853       16.688942
       16.160061       15.424216       13.979427       12.300141       12.064939
       11.614467       11.868775       12.749869       14.498040       16.519987
       17.797442       18.507614       18.509782       16.395965       18.513846
      -9999.0000      -9999.0000      -9999.0000      -9999.0000       0.0000000
       0.0000000      -9999.0000      -9999.0000      -9999.0000      -9999.0000
      -9999.0000      -9999.0000      -9999.0000      -9999.0000      -9999.0000
      -9999.0000      -9999.0000      -9999.0000      -9999.0000      -9999.0000
      -9999.0000      -9999.0000      -9999.0000       33.103680       32.186404
       29.659413       27.352093       25.823529       22.000656       16.978730
       19.907479       18.138602      -9999.0000      -9999.0000      -9999.0000
      -9999.0000      -9999.0000      -9999.0000      -9999.0000      -9999.0000
      -9999.0000      -9999.0000      -9999.0000      -9999.0000      -9999.0000
      -9999.0000      -9999.0000
      -9999.0000      -9999.0000      -9999.0000      -9999.0000      -9999.0000
      -9999.0000      -9999.0000      -9999.0000      -9999.0000      -9999.0000
      -9999.0000      -9999.0000      -9999.0000      -9999.0000      -9999.0000
      -9999.0000      -9999.0000      -9999.0000      -9999.0000      -9999.0000
       17.387928       18.853212       18.810771       18.569671       17.910729
       17.632511       17.698121       18.012706       18.166603       17.674532
       17.147585       16.594399       15.482173       14.125366       13.755004
       13.664806       14.366899       15.234071       16.573718       17.530052
       19.083353       20.071454       20.266417       21.957674       25.332530
      -9999.0000      -9999.0000      -9999.0000      -9999.0000      -9999.0000
      -9999.0000      -9999.0000      -9999.0000      -9999.0000      -9999.0000
      -9999.0000      -9999.0000      -9999.0000      -9999.0000      -9999.0000
      -9999.0000      -9999.0000      -9999.0000      -9999.0000      -9999.0000
      -9999.0000      -9999.0000      -9999.0000      -9999.0000       6.6209919
       12.321184       19.789231       19.279209       16.269294       20.576523
       19.059946       18.667192      -9999.0000      -9999.0000      -9999.0000
      -9999.0000      -9999.0000      -9999.0000      -9999.0000      -9999.0000
      -9999.0000      -9999.0000      -9999.0000      -9999.0000      -9999.0000
      -9999.0000      -9999.0000
      -9999.0000      -9999.0000      -9999.0000      -9999.0000      -9999.0000
      -9999.0000      -9999.0000      -9999.0000      -9999.0000      -9999.0000
      -9999.0000      -9999.0000      -9999.0000      -9999.0000      -9999.0000
      -9999.0000      -9999.0000      -9999.0000      -9999.0000      -9999.0000
       16.380044       19.264828       19.781073       19.402137       19.129927
       18.595364       18.573999       19.005632       19.590194       19.252948
       18.714130       18.155438       17.802716       17.363976       17.301490
       17.556633       17.970508       18.118186       18.455031       19.852751
       21.157869       22.053682       23.574832       27.737686       31.094548
      -9999.0000      -9999.0000      -9999.0000      -9999.0000      -9999.0000
      -9999.0000      -9999.0000      -9999.0000      -9999.0000      -9999.0000
      -9999.0000      -9999.0000      -9999.0000      -9999.0000      -9999.0000
      -9999.0000      -9999.0000      -9999.0000      -9999.0000      -9999.0000
      -9999.0000      -9999.0000      -9999.0000      -9999.0000      -9999.0000
      -9999.0000      -9999.0000      -9999.0000       25.879250       21.289015
       19.840452      -9999.0000      -9999.0000      -9999.0000      -9999.0000
      -9999.0000      -9999.0000      -9999.0000      -9999.0000      -9999.0000
      -9999.0000      -9999.0000      -9999.0000      -9999.0000      -9999.0000
      -9999.0000      -9999.0000
      -9999.0000      -9999.0000      -9999.0000      -9999.0000      -9999.0000
      -9999.0000      -9999.0000      -9999.0000      -9999.0000      -9999.0000
      -9999.0000      -9999.0000      -9999.0000      -9999.0000      -9999.0000
      -9999.0000      -9999.0000      -9999.0000      -9999.0000      -9999.0000
      -9999.0000      -9999.0000       20.467944       22.026718       22.175197
       22.085279       21.871335       21.840000       21.897263       21.738195
       21.465598       20.841474       20.736895       21.196017       22.124934
       22.220899       21.756505       21.303540       22.450385       24.034092
       26.048936       28.093505       31.240151       35.470138      -9999.0000
      -9999.0000      -9999.0000      -9999.0000      -9999.0000      -9999.0000
      -9999.0000      -9999.0000      -9999.0000      -9999.0000      -9999.0000
      -9999.0000      -9999.0000      -9999.0000      -9999.0000      -9999.0000
      -9999.0000      -9999.0000      -9999.0000      -9999.0000      -9999.0000
      -9999.0000      -9999.0000      -9999.0000      -9999.0000      -9999.0000
      -9999.0000      -9999.0000      -9999.0000      -9999.0000       22.313339
      -9999.0000      -9999.0000      -9999.0000      -9999.0000      -9999.0000
      -9999.0000      -9999.0000      -9999.0000      -9999.0000      -9999.0000
      -9999.0000      -9999.0000      -9999.0000      -9999.0000      -9999.0000
      -9999.0000      -9999.0000
      -9999.0000      -9999.0000      -9999.0000      -9999.0000      -9999.0000
      -9999.0000      -9999.0000      -9999.0000      -9999.0000      -9999.0000
      -9999.0000      -9999.0000      -9999.0000      -9999.0000      -9999.0000
      -9999.0000      -9999.0000      -9999.0000      -9999.0000      -9999.0000
      -9999.0000      -9999.0000      -9999.0000       21.984905       23.107179
       23.480884       24.114299       24.081514       23.929577       23.632656
       23.170560       22.144062       22.063703       23.226907       23.942441
       24.147070       24.292633       25.214261       26.344606       28.150179
       31.087341       33.992545       36.980534       7.7797837      -9999.0000
      -9999.0000      -9999.0000      -9999.0000      -9999.0000      -9999.0000
      -9999.0000      -9999.0000      -9999.0000      -9999.0000      -9999.0000
      -9999.0000      -9999.0000      -9999.0000      -9999.0000      -9999.0000
      -9999.0000      -9999.0000      -9999.0000      -9999.0000      -9999.0000
      -9999.0000      -9999.0000      -9999.0000      -9999.0000      -9999.0000
      -9999.0000      -9999.0000      -9999.0000      -9999.0000       20.167502
      -9999.0000      -9999.0000      -9999.0000      -9999.0000      -9999.0000
      -9999.0000      -9999.0000      -9999.0000      -9999.0000      -9999.0000
      -9999.0000      -9999.0000      -9999.0000      -9999.0000      -9999.0000
      -9999.0000      -9999.0000
      -9999.0000      -9999.0000      -9999.0000      -9999.0000      -9999.0000
      -9999.0000      -9999.0000      -9999.0000      -9999.0000      -9999.0000
      -9999.0000      -9999.0000      -9999.0000      -9999.0000      -9999.0000
      -9999.0000      -9999.0000      -9999.0000      -9999.0000       10.753981
       12.388715       13.985101      -9999.0000      -9999.0000       21.991756
       22.634716       23.858453       24.754796       24.816530       25.067630
       25.421396       25.350888       25.546968       25.604933       26.185116
       26.671168       27.285974       28.336052       30.686071       33.831107
       37.547124       39.947870       8.0645783      -9999.0000      -9999.0000
      -9999.0000      -9999.0000      -9999.0000      -9999.0000      -9999.0000
      -9999.0000      -9999.0000      -9999.0000      -9999.0000      -9999.0000
       0.0000000      -9999.0000       0.0000000      -9999.0000      -9999.0000
      -9999.0000      -9999.0000      -9999.0000       21.359228       24.316258
      -9999.0000      -9999.0000      -9999.0000      -9999.0000      -9999.0000
      -9999.0000      -9999.0000      -9999.0000      -9999.0000      -9999.0000
      -9999.0000      -9999.0000      -9999.0000      -9999.0000      -9999.0000
      -9999.0000      -9999.0000      -9999.0000      -9999.0000      -9999.0000
      -9999.0000      -9999.0000      -9999.0000      -9999.0000      -9999.0000
      -9999.0000      -9999.0000
      -9999.0000      -9999.0000      -9999.0000      -9999.0000      -9999.0000
      -9999.0000      -9999.0000      -9999.0000      -9999.0000      -9999.0000
      -9999.0000      -9999.0000      -9999.0000      -9999.0000      -9999.0000
      -9999.0000      -9999.0000      -9999.0000      -9999.0000       13.414822
       15.840537       17.191854       18.129106      -9999.0000      -9999.0000
      -9999.0000      -9999.0000       14.114479       14.610118       17.908725
       24.266315       29.815537       30.749082       31.311896       32.478407
       32.532695       33.522239       35.648099       39.040656       33.445647
      -9999.0000      -9999.0000      -9999.0000      -9999.0000      -9999.0000
      -9999.0000      -9999.0000      -9999.0000      -9999.0000      -9999.0000
      -9999.0000       0.0000000       0.0000000       4.0834112       14.232213
       23.792462       20.203137       7.9958033      -9999.0000      -9999.0000
      -9999.0000      -9999.0000      -9999.0000      -9999.0000       20.464765
      -9999.0000      -9999.0000      -9999.0000      -9999.0000      -9999.0000
      -9999.0000      -9999.0000      -9999.0000      -9999.0000      -9999.0000
      -9999.0000      -9999.0000      -9999.0000      -9999.0000      -9999.0000
      -9999.0000      -9999.0000      -9999.0000      -9999.0000      -9999.0000
      -9999.0000      -9999.0000      -9999.0000      -9999.0000      -9999.0000
      -9999.0000      -9999.0000
      -9999.0000      -9999.0000      -9999.0000      -9999.0000      -9999.0000
      -9999.0000      -9999.0000      -9999.0000      -9999.0000      -9999.0000
      -9999.0000      -9999.0000      -9999.0000      -9999.0000      -9999.0000
      -9999.0000      -9999.0000      -9999.0000      -9999.0000       13.780206
       16.224993       18.238644       19.220422       19.968207       15.640292
      -9999.0000       9.6910972       6.5024074       3.4443655      -9999.0000
      -9999.0000      -9999.0000      -9999.0000      -9999.0000      -9999.0000
       16.756655       16.534669      -9999.0000      -9999.0000      -9999.0000
      -9999.0000      -9999.0000      -9999.0000      -9999.0000      -9999.0000
      -9999.0000      -9999.0000      -9999.0000      -9999.0000      -9999.0000
       0.0000000       7.5610831       13.563069       14.150248       14.823501
       17.990102       16.329670       8.6133603      -9999.0000      -9999.0000
      -9999.0000       20.044351       19.708487       19.444144       22.544971
      -9999.0000      -9999.0000      -9999.0000      -9999.0000      -9999.0000
      -9999.0000      -9999.0000      -9999.0000      -9999.0000      -9999.0000
      -9999.0000      -9999.0000      -9999.0000      -9999.0000      -9999.0000
      -9999.0000      -9999.0000      -9999.0000      -9999.0000      -9999.0000
      -9999.0000      -9999.0000      -9999.0000      -9999.0000      -9999.0000
      -9999.0000      -9999.0000
      -9999.0000      -9999.0000      -9999.0000      -9999.0000      -9999.0000
      -9999.0000      -9999.0000      -9999.0000      -9999.0000      -9999.0000
      -9999.0000      -9999.0000      -9999.0000      -9999.0000      -9999.0000
      -9999.0000      -9999.0000      -9999.0000      -9999.0000      -9999.0000
       15.786703       17.976571       19.295565       20.038269       19.539873
       16.051395       13.681563       11.219111      -9999.0000      -9999.0000
      -9999.0000      -9999.0000      -9999.0000      -9999.0000      -9999.0000
      -9999.0000      -9999.0000      -9999.0000      -9999.0000      -9999.0000
      -9999.0000      -9999.0000      -9999.0000      -9999.0000      -9999.0000
      -9999.0000      -9999.0000      -9999.0000       0.0000000       1.9546187
       10.523429       16.979071       19.411288       20.008537       16.681621
       14.546149       12.927483       11.928391       12.939008       16.603642
       19.181865       19.524175       20.791395       23.291318       21.726800
       19.314124      -9999.0000      -9999.0000      -9999.0000      -9999.0000
      -9999.0000      -9999.0000      -9999.0000      -9999.0000      -9999.0000
      -9999.0000      -9999.0000      -9999.0000      -9999.0000      -9999.0000
      -9999.0000      -9999.0000      -9999.0000      -9999.0000      -9999.0000
      -9999.0000      -9999.0000      -9999.0000      -9999.0000      -9999.0000
      -9999.0000      -9999.0000
      -9999.0000      -9999.0000      -9999.0000      -9999.0000      -9999.0000
      -9999.0000      -9999.0000      -9999.0000      -9999.0000      -9999.0000
      -9999.0000      -9999.0000      -9999.0000      -9999.0000      -9999.0000
      -9999.0000      -9999.0000      -9999.0000      -9999.0000      -9999.0000
      -9999.0000       16.849777       18.432841       19.145043       19.974689
       21.170259       20.624750       19.227768       16.295047       11.520377
       5.3091092       0.0000000      -9999.0000      -9999.0000      -9999.0000
      -9999.0000      -9999.0000      -9999.0000      -9999.0000      -9999.0000
      -9999.0000      -9999.0000      -9999.0000      -9999.0000      -9999.0000
       0.0000000       0.0000000       7.1302468       15.927846       15.888034
       16.071010       16.260485       17.608689       19.995469       22.135188
       21.298623       20.174516       19.881103       21.126511       22.083708
       22.232441       23.107367       23.111493       22.440698       21.842925
       20.968020      -9999.0000      -9999.0000      -9999.0000      -9999.0000
      -9999.0000      -9999.0000      -9999.0000      -9999.0000      -9999.0000
      -9999.0000      -9999.0000      -9999.0000      -9999.0000      -9999.0000
      -9999.0000      -9999.0000      -9999.0000      -9999.0000      -9999.0000
      -9999.0000      -9999.0000      -9999.0000      -9999.0000      -9999.0000
      -9999.0000      -9999.0000
      -9999.0000      -9999.0000      -9999.0000      -9999.0000      -9999.0000
      -9999.0000      -9999.0000      -9999.0000      -9999.0000      -9999.0000
      -9999.0000      -9999.0000      -9999.0000      -9999.0000      -9999.0000
      -9999.0000      -9999.0000      -9999.0000      -9999.0000      -9999.0000
      -9999.0000       16.281581       17.393694       18.072504       18.693672
       19.722398       21.097774       22.744722       23.560557       22.986712
       22.040917       21.412858       22.193187       21.455569       17.594493
       10.606530       0.0000000      -9999.0000      -9999.0000       0.0000000
      -9999.0000      -9999.0000       0.0000000       5.9836520       16.609296
       16.166386       15.034542       14.371015       15.348376       16.081024
       15.796598       15.299586       15.816437       17.584100       19.252621
       20.517168       21.599675       22.409460       22.955200       23.195412
       23.632543       23.374954       22.718728       22.334932       22.247953
       21.831766       21.102911      -9999.0000      -9999.0000      -9999.0000
       22.620898       22.071939      -9999.0000      -9999.0000      -9999.0000
      -9999.0000      -9999.0000      -9999.0000      -9999.0000      -9999.0000
      -9999.0000      -9999.0000      -9999.0000      -9999.0000      -9999.0000
      -9999.0000      -9999.0000      -9999.0000      -9999.0000      -9999.0000
      -9999.0000      -9999.0000
      -9999.0000      -9999.0000      -9999.0000      -9999.0000      -9999.0000
      -9999.0000      -9999.0000      -9999.0000      -9999.0000      -9999.0000
      -9999.0000      -9999.0000      -9999.0000      -9999.0000      -9999.0000
      -9999.0000      -9999.0000      -9999.0000      -9999.0000      -9999.0000
      -9999.0000      -9999.0000       16.729489       17.411882       18.123022
       18.933831       19.990230       21.030761       21.730065       22.010638
       22.145942       22.493355       23.401593       24.439192       24.986122
       22.873151       21.002895       17.770768       16.695909       18.250931
       18.375163       19.010964       18.326123       18.246456       17.608576
       17.186054       17.276666       16.973422       16.992535       16.727252
       16.397273       15.741952       15.634591       16.472523       17.924129
       19.461381       20.393682       20.860697       21.505410       21.897849
       22.345961       22.333242       22.138071       22.301573       22.600727
       22.613661       22.572090       22.705949      -9999.0000      -9999.0000
       24.469428       24.274520      -9999.0000      -9999.0000      -9999.0000
      -9999.0000      -9999.0000      -9999.0000      -9999.0000      -9999.0000
      -9999.0000      -9999.0000      -9999.0000      -9999.0000      -9999.0000
      -9999.0000      -9999.0000      -9999.0000      -9999.0000      -9999.0000
      -9999.0000      -9999.0000
      -9999.0000      -9999.0000      -9999.0000      -9999.0000      -9999.0000
      -9999.0000      -9999.0000      -9999.0000      -9999.0000      -9999.0000
      -9999.0000      -9999.0000      -9999.0000      -9999.0000      -9999.0000
      -9999.0000      -9999.0000      -9999.0000      -9999.0000      -9999.0000
      -9999.0000      -9999.0000       16.370745       17.264129       17.723804
       18.181093       18.592530       19.134823       19.640200       20.207630
       21.304166       22.263719       23.412369       24.256417       24.546919
       24.241991       23.424057       21.693029       20.930265       19.578144
       18.052729       17.553541       18.964189       20.161709       20.126343
       19.139253       18.744171       18.365843       17.934567       17.631135
       17.562073       17.344149       16.890599       16.879557       17.491698
       18.243005       19.360921       20.259114       21.041854       21.179640
       21.317893       21.643265       22.109198       22.449215       22.842679
       23.249199       23.507218       23.423929      -9999.0000      -9999.0000
      -9999.0000       25.884697      -9999.0000      -9999.0000      -9999.0000
      -9999.0000      -9999.0000      -9999.0000      -9999.0000      -9999.0000
      -9999.0000      -9999.0000      -9999.0000      -9999.0000      -9999.0000
      -9999.0000      -9999.0000      -9999.0000      -9999.0000      -9999.0000
      -9999.0000      -9999.0000
      -9999.0000      -9999.0000      -9999.0000      -9999.0000      -9999.0000
      -9999.0000      -9999.0000      -9999.0000      -9999.0000      -9999.0000
      -9999.0000      -9999.0000      -9999.0000      -9999.0000      -9999.0000
      -9999.0000      -9999.0000      -9999.0000      -9999.0000      -9999.0000
      -9999.0000      -9999.0000      -9999.0000       17.581303       17.745500
       17.878465       18.196126       18.717650       19.079546       19.721469
       20.351362       21.262844       22.174242       23.060354       23.333620
       23.268390       23.013636       22.937549       22.170806       21.150237
       20.481192       20.743247       21.145580       20.900289       19.861372
       19.216349       18.468428       18.237039       18.469479       18.744638
       18.913267       19.197161       18.842773       18.229559       17.751893
       17.725938       18.582771       19.572004       20.119867       20.559953
       20.962973       21.746986       22.333674       22.573248       23.008673
       23.527532       23.913822       23.779183      -9999.0000       24.543709
       25.955913       26.931594      -9999.0000      -9999.0000      -9999.0000
      -9999.0000      -9999.0000      -9999.0000      -9999.0000      -9999.0000
      -9999.0000      -9999.0000      -9999.0000      -9999.0000      -9999.0000
      -9999.0000      -9999.0000      -9999.0000      -9999.0000      -9999.0000
      -9999.0000      -9999.0000
      -9999.0000      -9999.0000      -9999.0000      -9999.0000      -9999.0000
      -9999.0000      -9999.0000      -9999.0000      -9999.0000      -9999.0000
      -9999.0000      -9999.0000      -9999.0000      -9999.0000      -9999.0000
      -9999.0000      -9999.0000      -9999.0000      -9999.0000      -9999.0000
      -9999.0000      -9999.0000      -9999.0000      -9999.0000       17.223014
       17.359835       17.912466       18.536271       19.224931       19.886653
       20.360111       20.862099       21.455094       22.280696       22.712030
       23.144538       23.331899       23.302364       22.412853       22.389230
       22.273775       21.921806       20.910459       20.421177       20.109557
       19.363317       18.729982       19.174944       19.641852       19.912041
       20.030310       20.469990       20.398337       19.741103       19.064785
       18.064990       18.839277       19.639739       19.797202       19.976633
       20.404354       21.163226       21.660666       22.034645       22.730854
       23.594482       24.520907       24.907349       25.213047       26.140900
       27.208190      -9999.0000      -9999.0000      -9999.0000      -9999.0000
      -9999.0000      -9999.0000      -9999.0000      -9999.0000      -9999.0000
      -9999.0000      -9999.0000      -9999.0000      -9999.0000      -9999.0000
      -9999.0000      -9999.0000      -9999.0000      -9999.0000      -9999.0000
      -9999.0000      -9999.0000
      -9999.0000      -9999.0000      -9999.0000      -9999.0000      -9999.0000
      -9999.0000      -9999.0000      -9999.0000      -9999.0000      -9999.0000
      -9999.0000      -9999.0000      -9999.0000      -9999.0000      -9999.0000
      -9999.0000      -9999.0000      -9999.0000      -9999.0000      -9999.0000
      -9999.0000      -9999.0000      -9999.0000      -9999.0000      -9999.0000
      -9999.0000       17.629354       18.341915       19.128043       19.658805
       20.052267       20.709715       21.670631       22.688360       23.572461
       24.441575       24.953893       24.530586       24.111295       23.364995
       22.659126       21.552994       21.169985       21.026231       20.515300
       20.118615       19.849549       19.987788       19.981027       20.092980
       20.274027       20.668470       20.681173       20.535559       20.331996
       20.527965       20.980482       20.657229       19.149870       19.001947
       19.439730       19.992685       20.490110       21.687219       23.221304
       24.538757       25.467346       26.278862       27.321768       28.211347
       29.077077      -9999.0000      -9999.0000      -9999.0000      -9999.0000
      -9999.0000      -9999.0000      -9999.0000      -9999.0000      -9999.0000
      -9999.0000      -9999.0000      -9999.0000      -9999.0000      -9999.0000
      -9999.0000      -9999.0000      -9999.0000      -9999.0000      -9999.0000
      -9999.0000      -9999.0000
      -9999.0000      -9999.0000      -9999.0000      -9999.0000      -9999.0000
      -9999.0000      -9999.0000      -9999.0000      -9999.0000      -9999.0000
      -9999.0000      -9999.0000      -9999.0000      -9999.0000      -9999.0000
      -9999.0000      -9999.0000      -9999.0000      -9999.0000      -9999.0000
      -9999.0000      -9999.0000      -9999.0000      -9999.0000      -9999.0000
      -9999.0000      -9999.0000       18.222888       18.937052       19.508058
       20.104724       20.738153       21.774651       23.027537       24.430829
       25.056417       24.668394       23.938844       23.432643       22.996640
       22.458827       21.964228       21.409762       20.917318       20.367857
       20.038053       19.972420       20.282756       20.449526       20.677973
       20.977546       21.238565       21.302741       21.359683       21.589928
       22.003806       20.711153       19.446769       18.741383       18.768587
       19.083815       19.920850       21.961469       23.658361       24.598160
       26.416736       28.176311       29.467700       29.678732       30.191062
       31.112710      -9999.0000      -9999.0000      -9999.0000      -9999.0000
      -9999.0000      -9999.0000      -9999.0000      -9999.0000      -9999.0000
      -9999.0000      -9999.0000      -9999.0000      -9999.0000      -9999.0000
      -9999.0000      -9999.0000      -9999.0000      -9999.0000      -9999.0000
      -9999.0000      -9999.0000
      -9999.0000      -9999.0000      -9999.0000      -9999.0000      -9999.0000
      -9999.0000      -9999.0000      -9999.0000      -9999.0000      -9999.0000
      -9999.0000      -9999.0000      -9999.0000      -9999.0000      -9999.0000
      -9999.0000      -9999.0000      -9999.0000      -9999.0000      -9999.0000
      -9999.0000      -9999.0000      -9999.0000      -9999.0000      -9999.0000
      -9999.0000      -9999.0000      -9999.0000      -9999.0000       19.624164
       20.274188       20.890216       21.445970       21.991074       22.419708
       22.765296       22.684577       22.476126       22.439248       22.199275
       21.886712       21.392560       21.069780       20.817663       20.594367
       20.481458       20.663864       21.025038       21.188394       21.606924
       22.195405       22.286330       21.792714       22.594121       23.467674
       24.067180       19.225363       16.544451       18.241490       20.554104
       22.210065       23.357539       25.113577       26.543828       27.026970
       28.179533       28.949314       31.815870       33.392237       34.138709
      -9999.0000      -9999.0000      -9999.0000      -9999.0000      -9999.0000
      -9999.0000      -9999.0000      -9999.0000      -9999.0000      -9999.0000
      -9999.0000      -9999.0000      -9999.0000      -9999.0000      -9999.0000
      -9999.0000      -9999.0000      -9999.0000      -9999.0000      -9999.0000
      -9999.0000      -9999.0000
      -9999.0000      -9999.0000      -9999.0000      -9999.0000      -9999.0000
      -9999.0000      -9999.0000      -9999.0000      -9999.0000      -9999.0000
      -9999.0000      -9999.0000      -9999.0000      -9999.0000      -9999.0000
      -9999.0000      -9999.0000      -9999.0000      -9999.0000      -9999.0000
      -9999.0000      -9999.0000      -9999.0000      -9999.0000      -9999.0000
      -9999.0000      -9999.0000      -9999.0000      -9999.0000      -9999.0000
      -9999.0000       20.838184       20.861689       20.965012       21.135774
       21.400047       21.448759       21.535700       21.494364       21.538007
       21.384377       21.435089       21.282888       21.232922       21.154129
       21.418736       21.691474       22.053222       22.455242       22.458166
       22.821622       23.025073       23.092850       24.363509       25.659628
       26.754117       22.988461       21.249570       24.080430       26.629685
       27.769043       28.796410       30.759799       31.793474       32.571171
       33.524155       34.392553       32.070949       34.121982      -9999.0000
      -9999.0000      -9999.0000      -9999.0000      -9999.0000      -9999.0000
      -9999.0000      -9999.0000      -9999.0000      -9999.0000      -9999.0000
      -9999.0000      -9999.0000      -9999.0000      -9999.0000      -9999.0000
      -9999.0000      -9999.0000      -9999.0000      -9999.0000      -9999.0000
      -9999.0000      -9999.0000
      -9999.0000      -9999.0000      -9999.0000      -9999.0000      -9999.0000
      -9999.0000      -9999.0000      -9999.0000      -9999.0000      -9999.0000
      -9999.0000      -9999.0000      -9999.0000      -9999.0000      -9999.0000
      -9999.0000      -9999.0000      -9999.0000      -9999.0000      -9999.0000
      -9999.0000      -9999.0000      -9999.0000      -9999.0000      -9999.0000
      -9999.0000      -9999.0000      -9999.0000      -9999.0000      -9999.0000
      -9999.0000      -9999.0000       21.240467       21.166668       21.186220
       21.136041       21.430042       21.530955       21.491328       21.516479
       21.553655       21.703812       21.796170       21.830233       22.108758
       22.620662       23.116654       23.393949       23.652839       23.658279
       24.041327       25.137489       26.534348       29.102490       31.133541
       32.985225       30.604237       31.139186       34.235715       37.611636
       38.113897       36.968346      -9999.0000      -9999.0000      -9999.0000
      -9999.0000      -9999.0000      -9999.0000      -9999.0000      -9999.0000
      -9999.0000      -9999.0000      -9999.0000      -9999.0000      -9999.0000
      -9999.0000      -9999.0000      -9999.0000      -9999.0000      -9999.0000
      -9999.0000      -9999.0000      -9999.0000      -9999.0000      -9999.0000
      -9999.0000      -9999.0000      -9999.0000      -9999.0000      -9999.0000
      -9999.0000      -9999.0000
      -9999.0000      -9999.0000      -9999.0000      -9999.0000      -9999.0000
      -9999.0000      -9999.0000      -9999.0000      -9999.0000      -9999.0000
      -9999.0000      -9999.0000      -9999.0000      -9999.0000      -9999.0000
      -9999.0000      -9999.0000      -9999.0000      -9999.0000      -9999.0000
      -9999.0000      -9999.0000      -9999.0000      -9999.0000      -9999.0000
      -9999.0000      -9999.0000      -9999.0000      -9999.0000      -9999.0000
      -9999.0000      -9999.0000      -9999.0000      -9999.0000       22.046543
       21.989610       21.942683       21.918354       21.880012       22.117897
       22.412373       22.525997       22.724755       22.913463       23.260039
       23.809784       24.289877       24.432486       24.775320       26.363392
       28.634841       30.718750       33.634306       36.089539       37.864838
       39.867509       41.368843       44.202127       45.703162      -9999.0000
      -9999.0000      -9999.0000      -9999.0000      -9999.0000      -9999.0000
      -9999.0000      -9999.0000      -9999.0000      -9999.0000      -9999.0000
      -9999.0000      -9999.0000      -9999.0000      -9999.0000      -9999.0000
      -9999.0000      -9999.0000      -9999.0000      -9999.0000      -9999.0000
      -9999.0000      -9999.0000      -9999.0000      -9999.0000      -9999.0000
      -9999.0000      -9999.0000      -9999.0000      -9999.0000      -9999.0000
      -9999.0000      -9999.0000
      -9999.0000      -9999.0000      -9999.0000      -9999.0000      -9999.0000
      -9999.0000      -9999.0000      -9999.0000      -9999.0000      -9999.0000
      -9999.0000      -9999.0000      -9999.0000      -9999.0000      -9999.0000
      -9999.0000      -9999.0000      -9999.0000      -9999.0000      -9999.0000
      -9999.0000      -9999.0000      -9999.0000      -9999.0000      -9999.0000
      -9999.0000      -9999.0000      -9999.0000      -9999.0000      -9999.0000
      -9999.0000      -9999.0000      -9999.0000      -9999.0000      -9999.0000
      -9999.0000       22.587407       22.694493       23.014721       23.364784
       23.820214       24.242760       24.168848       24.245445       24.313474
       24.526882       24.915107       26.193338       29.050028       33.182716
       36.655201      -9999.0000      -9999.0000      -9999.0000      -9999.0000
      -9999.0000      -9999.0000      -9999.0000      -9999.0000      -9999.0000
      -9999.0000      -9999.0000      -9999.0000      -9999.0000      -9999.0000
      -9999.0000      -9999.0000      -9999.0000      -9999.0000      -9999.0000
      -9999.0000      -9999.0000      -9999.0000      -9999.0000      -9999.0000
      -9999.0000      -9999.0000      -9999.0000      -9999.0000      -9999.0000
      -9999.0000      -9999.0000      -9999.0000      -9999.0000      -9999.0000
      -9999.0000      -9999.0000      -9999.0000      -9999.0000      -9999.0000
      -9999.0000      -9999.0000
      -9999.0000      -9999.0000      -9999.0000      -9999.0000      -9999.0000
      -9999.0000      -9999.0000      -9999.0000      -9999.0000      -9999.0000
      -9999.0000      -9999.0000      -9999.0000      -9999.0000      -9999.0000
      -9999.0000      -9999.0000      -9999.0000      -9999.0000      -9999.0000
      -9999.0000      -9999.0000      -9999.0000      -9999.0000      -9999.0000
      -9999.0000      -9999.0000      -9999.0000      -9999.0000      -9999.0000
      -9999.0000      -9999.0000      -9999.0000      -9999.0000      -9999.0000
      -9999.0000      -9999.0000       23.982905       24.741177       25.465341
       26.235817       26.320363       25.811006       25.322388       25.168850
       26.336994       28.261768       31.296862      -9999.0000      -9999.0000
      -9999.0000      -9999.0000      -9999.0000      -9999.0000      -9999.0000
      -9999.0000      -9999.0000      -9999.0000      -9999.0000      -9999.0000
      -9999.0000      -9999.0000      -9999.0000      -9999.0000      -9999.0000
      -9999.0000      -9999.0000      -9999.0000      -9999.0000      -9999.0000
      -9999.0000      -9999.0000      -9999.0000      -9999.0000      -9999.0000
      -9999.0000      -9999.0000      -9999.0000      -9999.0000      -9999.0000
      -9999.0000      -9999.0000      -9999.0000      -9999.0000      -9999.0000
      -9999.0000      -9999.0000      -9999.0000      -9999.0000      -9999.0000
      -9999.0000      -9999.0000
      -9999.0000      -9999.0000      -9999.0000      -9999.0000      -9999.0000
      -9999.0000      -9999.0000      -9999.0000      -9999.0000      -9999.0000
      -9999.0000      -9999.0000      -9999.0000      -9999.0000      -9999.0000
      -9999.0000      -9999.0000      -9999.0000      -9999.0000      -9999.0000
      -9999.0000      -9999.0000      -9999.0000      -9999.0000      -9999.0000
      -9999.0000      -9999.0000      -9999.0000      -9999.0000      -9999.0000
      -9999.0000      -9999.0000      -9999.0000      -9999.0000      -9999.0000
      -9999.0000      -9999.0000      -9999.0000      -9999.0000       26.271142
       27.336606       27.818812       27.865895       27.161964       27.094433
       28.653031      -9999.0000      -9999.0000      -9999.0000      -9999.0000
      -9999.0000      -9999.0000      -9999.0000      -9999.0000      -9999.0000
      -9999.0000      -9999.0000      -9999.0000      -9999.0000      -9999.0000
      -9999.0000      -9999.0000      -9999.0000      -9999.0000      -9999.0000
      -9999.0000      -9999.0000      -9999.0000      -9999.0000      -9999.0000
      -9999.0000      -9999.0000      -9999.0000      -9999.0000      -9999.0000
      -9999.0000      -9999.0000      -9999.0000      -9999.0000      -9999.0000
      -9999.0000      -9999.0000      -9999.0000      -9999.0000      -9999.0000
      -9999.0000      -9999.0000      -9999.0000      -9999.0000      -9999.0000
      -9999.0000      -9999.0000
      -9999.0000      -9999.0000      -9999.0000      -9999.0000      -9999.0000
      -9999.0000      -9999.0000      -9999.0000      -9999.0000      -9999.0000
      -9999.0000      -9999.0000      -9999.0000      -9999.0000      -9999.0000
      -9999.0000      -9999.0000      -9999.0000      -9999.0000      -9999.0000
      -9999.0000      -9999.0000      -9999.0000      -9999.0000      -9999.0000
      -9999.0000      -9999.0000      -9999.0000      -9999.0000      -9999.0000
      -9999.0000      -9999.0000      -9999.0000      -9999.0000      -9999.0000
      -9999.0000      -9999.0000      -9999.0000      -9999.0000      -9999.0000
      -9999.0000      -9999.0000      -9999.0000      -9999.0000      -9999.0000
      -9999.0000      -9999.0000      -9999.0000      -9999.0000      -9999.0000
      -9999.0000      -9999.0000      -9999.0000      -9999.0000      -9999.0000
      -9999.0000      -9999.0000      -9999.0000      -9999.0000      -9999.0000
      -9999.0000      -9999.0000      -9999.0000      -9999.0000      -9999.0000
      -9999.0000      -9999.0000      -9999.0000      -9999.0000      -9999.0000
      -9999.0000      -9999.0000      -9999.0000      -9999.0000      -9999.0000
      -9999.0000      -9999.0000      -9999.0000      -9999.0000      -9999.0000
      -9999.0000      -9999.0000      -9999.0000      -9999.0000      -9999.0000
      -9999.0000      -9999.0000      -9999.0000      -9999.0000      -9999.0000
      -9999.0000      -9999.0000
      -9999.0000      -9999.0000      -9999.0000      -9999.0000      -9999.0000
      -9999.0000      -9999.0000      -9999.0000      -9999.0000      -9999.0000
      -9999.0000      -9999.0000      -9999.0000      -9999.0000      -9999.0000
      -9999.0000      -9999.0000      -9999.0000      -9999.0000      -9999.0000
      -9999.0000      -9999.0000      -9999.0000      -9999.0000      -9999.0000
      -9999.0000      -9999.0000      -9999.0000      -9999.0000      -9999.0000
      -9999.0000      -9999.0000      -9999.0000      -9999.0000      -9999.0000
      -9999.0000      -9999.0000      -9999.0000      -9999.0000      -9999.0000
      -9999.0000      -9999.0000      -9999.0000      -9999.0000      -9999.0000
      -9999.0000      -9999.0000      -9999.0000      -9999.0000      -9999.0000
      -9999.0000      -9999.0000      -9999.0000      -9999.0000      -9999.0000
      -9999.0000      -9999.0000      -9999.0000      -9999.0000      -9999.0000
      -9999.0000      -9999.0000      -9999.0000      -9999.0000      -9999.0000
      -9999.0000      -9999.0000      -9999.0000      -9999.0000      -9999.0000
      -9999.0000      -9999.0000      -9999.0000      -9999.0000      -9999.0000
      -9999.0000      -9999.0000      -9999.0000      -9999.0000      -9999.0000
      -9999.0000      -9999.0000      -9999.0000      -9999.0000      -9999.0000
      -9999.0000      -9999.0000      -9999.0000      -9999.0000      -9999.0000
      -9999.0000      -9999.0000
      -9999.0000      -9999.0000      -9999.0000      -9999.0000      -9999.0000
      -9999.0000      -9999.0000      -9999.0000      -9999.0000      -9999.0000
      -9999.0000      -9999.0000      -9999.0000      -9999.0000      -9999.0000
      -9999.0000      -9999.0000      -9999.0000      -9999.0000      -9999.0000
      -9999.0000      -9999.0000      -9999.0000      -9999.0000      -9999.0000
      -9999.0000      -9999.0000      -9999.0000      -9999.0000      -9999.0000
      -9999.0000      -9999.0000      -9999.0000      -9999.0000      -9999.0000
      -9999.0000      -9999.0000      -9999.0000      -9999.0000      -9999.0000
      -9999.0000      -9999.0000      -9999.0000      -9999.0000      -9999.0000
      -9999.0000      -9999.0000      -9999.0000      -9999.0000      -9999.0000
      -9999.0000      -9999.0000      -9999.0000      -9999.0000      -9999.0000
      -9999.0000      -9999.0000      -9999.0000      -9999.0000      -9999.0000
      -9999.0000      -9999.0000      -9999.0000      -9999.0000      -9999.0000
      -9999.0000      -9999.0000      -9999.0000      -9999.0000      -9999.0000
      -9999.0000      -9999.0000      -9999.0000      -9999.0000      -9999.0000
      -9999.0000      -9999.0000      -9999.0000      -9999.0000      -9999.0000
      -9999.0000      -9999.0000      -9999.0000      -9999.0000      -9999.0000
      -9999.0000      -9999.0000      -9999.0000      -9999.0000      -9999.0000
      -9999.0000      -9999.0000
      -9999.0000      -9999.0000      -9999.0000      -9999.0000      -9999.0000
      -9999.0000      -9999.0000      -9999.0000      -9999.0000      -9999.0000
      -9999.0000      -9999.0000      -9999.0000      -9999.0000      -9999.0000
      -9999.0000      -9999.0000      -9999.0000      -9999.0000      -9999.0000
      -9999.0000      -9999.0000      -9999.0000      -9999.0000      -9999.0000
      -9999.0000      -9999.0000      -9999.0000      -9999.0000      -9999.0000
      -9999.0000      -9999.0000      -9999.0000      -9999.0000      -9999.0000
      -9999.0000      -9999.0000      -9999.0000      -9999.0000      -9999.0000
      -9999.0000      -9999.0000      -9999.0000      -9999.0000      -9999.0000
      -9999.0000      -9999.0000      -9999.0000      -9999.0000      -9999.0000
      -9999.0000      -9999.0000      -9999.0000      -9999.0000      -9999.0000
      -9999.0000      -9999.0000      -9999.0000      -9999.0000      -9999.0000
      -9999.0000      -9999.0000      -9999.0000      -9999.0000      -9999.0000
      -9999.0000      -9999.0000      -9999.0000      -9999.0000      -9999.0000
      -9999.0000      -9999.0000      -9999.0000      -9999.0000      -9999.0000
      -9999.0000      -9999.0000      -9999.0000      -9999.0000      -9999.0000
      -9999.0000      -9999.0000      -9999.0000      -9999.0000      -9999.0000
      -9999.0000      -9999.0000      -9999.0000      -9999.0000      -9999.0000
      -9999.0000      -9999.0000
      -9999.0000      -9999.0000      -9999.0000      -9999.0000      -9999.0000
      -9999.0000      -9999.0000      -9999.0000      -9999.0000      -9999.0000
      -9999.0000      -9999.0000      -9999.0000      -9999.0000      -9999.0000
      -9999.0000      -9999.0000      -9999.0000      -9999.0000      -9999.0000
      -9999.0000      -9999.0000      -9999.0000      -9999.0000      -9999.0000
      -9999.0000      -9999.0000      -9999.0000      -9999.0000      -9999.0000
      -9999.0000      -9999.0000      -9999.0000      -9999.0000      -9999.0000
      -9999.0000      -9999.0000      -9999.0000      -9999.0000      -9999.0000
      -9999.0000      -9999.0000      -9999.0000      -9999.0000      -9999.0000
      -9999.0000      -9999.0000      -9999.0000      -9999.0000      -9999.0000
      -9999.0000      -9999.0000      -9999.0000      -9999.0000      -9999.0000
      -9999.0000      -9999.0000      -9999.0000      -9999.0000      -9999.0000
      -9999.0000      -9999.0000      -9999.0000      -9999.0000      -9999.0000
      -9999.0000      -9999.0000      -9999.0000      -9999.0000      -9999.0000
      -9999.0000      -9999.0000      -9999.0000      -9999.0000      -9999.0000
      -9999.0000      -9999.0000      -9999.0000      -9999.0000      -9999.0000
      -9999.0000      -9999.0000      -9999.0000      -9999.0000      -9999.0000
      -9999.0000      -9999.0000      -9999.0000      -9999.0000      -9999.0000
      -9999.0000      -9999.0000
      -9999.0000      -9999.0000      -9999.0000      -9999.0000      -9999.0000
      -9999.0000      -9999.0000      -9999.0000      -9999.0000      -9999.0000
      -9999.0000      -9999.0000      -9999.0000      -9999.0000      -9999.0000
      -9999.0000      -9999.0000      -9999.0000      -9999.0000      -9999.0000
      -9999.0000      -9999.0000      -9999.0000      -9999.0000      -9999.0000
      -9999.0000      -9999.0000      -9999.0000      -9999.0000      -9999.0000
      -9999.0000      -9999.0000      -9999.0000      -9999.0000      -9999.0000
      -9999.0000      -9999.0000      -9999.0000      -9999.0000      -9999.0000
      -9999.0000      -9999.0000      -9999.0000      -9999.0000      -9999.0000
      -9999.0000      -9999.0000      -9999.0000      -9999.0000      -9999.0000
      -9999.0000      -9999.0000      -9999.0000      -9999.0000      -9999.0000
      -9999.0000      -9999.0000      -9999.0000      -9999.0000      -9999.0000
      -9999.0000      -9999.0000      -9999.0000      -9999.0000      -9999.0000
      -9999.0000      -9999.0000      -9999.0000      -9999.0000      -9999.0000
      -9999.0000      -9999.0000      -9999.0000      -9999.0000      -9999.0000
      -9999.0000      -9999.0000      -9999.0000      -9999.0000      -9999.0000
      -9999.0000      -9999.0000      -9999.0000      -9999.0000      -9999.0000
      -9999.0000      -9999.0000      -9999.0000      -9999.0000      -9999.0000
      -9999.0000      -9999.0000
      -9999.0000      -9999.0000      -9999.0000      -9999.0000      -9999.0000
      -9999.0000      -9999.0000      -9999.0000      -9999.0000      -9999.0000
      -9999.0000      -9999.0000      -9999.0000      -9999.0000      -9999.0000
      -9999.0000      -9999.0000      -9999.0000      -9999.0000      -9999.0000
      -9999.0000      -9999.0000      -9999.0000      -9999.0000      -9999.0000
      -9999.0000      -9999.0000      -9999.0000      -9999.0000      -9999.0000
      -9999.0000      -9999.0000      -9999.0000      -9999.0000      -9999.0000
      -9999.0000      -9999.0000      -9999.0000      -9999.0000      -9999.0000
      -9999.0000      -9999.0000      -9999.0000      -9999.0000      -9999.0000
      -9999.0000      -9999.0000      -9999.0000      -9999.0000      -9999.0000
      -9999.0000      -9999.0000      -9999.0000      -9999.0000      -9999.0000
      -9999.0000      -9999.0000      -9999.0000      -9999.0000      -9999.0000
      -9999.0000      -9999.0000      -9999.0000      -9999.0000      -9999.0000
      -9999.0000      -9999.0000      -9999.0000      -9999.0000      -9999.0000
      -9999.0000      -9999.0000      -9999.0000      -9999.0000      -9999.0000
      -9999.0000      -9999.0000      -9999.0000      -9999.0000      -9999.0000
      -9999.0000      -9999.0000      -9999.0000      -9999.0000      -9999.0000
      -9999.0000      -9999.0000      -9999.0000      -9999.0000      -9999.0000
      -9999.0000      -9999.0000
      -9999.0000      -9999.0000      -9999.0000      -9999.0000      -9999.0000
      -9999.0000      -9999.0000      -9999.0000      -9999.0000      -9999.0000
      -9999.0000      -9999.0000      -9999.0000      -9999.0000      -9999.0000
      -9999.0000      -9999.0000      -9999.0000      -9999.0000      -9999.0000
      -9999.0000      -9999.0000      -9999.0000      -9999.0000      -9999.0000
      -9999.0000      -9999.0000      -9999.0000      -9999.0000      -9999.0000
      -9999.0000      -9999.0000      -9999.0000      -9999.0000      -9999.0000
      -9999.0000      -9999.0000      -9999.0000      -9999.0000      -9999.0000
      -9999.0000      -9999.0000      -9999.0000      -9999.0000      -9999.0000
      -9999.0000      -9999.0000      -9999.0000      -9999.0000      -9999.0000
      -9999.0000      -9999.0000      -9999.0000      -9999.0000      -9999.0000
      -9999.0000      -9999.0000      -9999.0000      -9999.0000      -9999.0000
      -9999.0000      -9999.0000      -9999.0000      -9999.0000      -9999.0000
      -9999.0000      -9999.0000      -9999.0000      -9999.0000      -9999.0000
      -9999.0000      -9999.0000      -9999.0000      -9999.0000      -9999.0000
      -9999.0000      -9999.0000      -9999.0000      -9999.0000      -9999.0000
      -9999.0000      -9999.0000      -9999.0000      -9999.0000      -9999.0000
      -9999.0000      -9999.0000      -9999.0000      -9999.0000      -9999.0000
      -9999.0000      -9999.0000
      -9999.0000      -9999.0000      -9999.0000      -9999.0000      -9999.0000
      -9999.0000      -9999.0000      -9999.0000      -9999.0000      -9999.0000
      -9999.0000      -9999.0000      -9999.0000      -9999.0000      -9999.0000
      -9999.0000      -9999.0000      -9999.0000      -9999.0000      -9999.0000
      -9999.0000      -9999.0000      -9999.0000      -9999.0000      -9999.0000
      -9999.0000      -9999.0000      -9999.0000      -9999.0000      -9999.0000
      -9999.0000      -9999.0000      -9999.0000      -9999.0000      -9999.0000
      -9999.0000      -9999.0000      -9999.0000      -9999.0000      -9999.0000
      -9999.0000      -9999.0000      -9999.0000      -9999.0000      -9999.0000
      -9999.0000      -9999.0000      -9999.0000      -9999.0000      -9999.0000
      -9999.0000      -9999.0000      -9999.0000      -9999.0000      -9999.0000
      -9999.0000      -9999.0000      -9999.0000      -9999.0000      -9999.0000
      -9999.0000      -9999.0000      -9999.0000      -9999.0000      -9999.0000
      -9999.0000      -9999.0000      -9999.0000      -9999.0000      -9999.0000
      -9999.0000      -9999.0000      -9999.0000      -9999.0000      -9999.0000
      -9999.0000      -9999.0000      -9999.0000      -9999.0000      -9999.0000
      -9999.0000      -9999.0000      -9999.0000      -9999.0000      -9999.0000
      -9999.0000      -9999.0000      -9999.0000      -9999.0000      -9999.0000
      -9999.0000      -9999.0000
